; generated by Slic3r 1.2.9 on 2018-04-16 at 12:35:49

; external perimeters extrusion width = 0.40mm
; perimeters extrusion width = 0.40mm
; infill extrusion width = 0.40mm
; solid infill extrusion width = 0.40mm
; top infill extrusion width = 0.40mm

M107
M83
T0
M116
G21 ; set units to millimeters
G90 ; use absolute coordinates
M83 ; use relative distances for extrusion
G1 E-3.50000 F1500.00000
G1 Z0.400 F15000.000
G1 X11.101 Y11.770 F15000.000
G1 Z0.300 F15000.000
G1 E3.50000 F1500.00000
G1 X5.455 Y17.095 E0.59812 F960.000
G1 X3.986 Y17.938 E0.13052
G1 X2.960 Y18.086 E0.07986
G1 X-3.000 Y18.086 E0.45934
G1 X-4.647 Y17.691 E0.13052
G1 X-5.493 Y17.097 E0.07966
G1 X-13.591 Y9.469 E0.85734
G1 X-14.406 Y8.654 E0.08879
G1 X-14.874 Y8.142 E0.05347
G1 X-15.644 Y7.208 E0.09330
G1 X-16.161 Y6.508 E0.06708
G1 X-16.859 Y5.449 E0.09772
G1 X-27.190 Y-12.428 E1.59121
G1 X-27.672 Y-14.052 E0.13052
G1 X-27.540 Y-15.241 E0.09223
G1 X-26.732 Y-16.730 E0.13052
G1 X-25.338 Y-17.691 E0.13052
G1 X-24.028 Y-17.936 E0.10270
G1 X24.032 Y-17.936 E3.70379
G1 X25.679 Y-17.541 E0.13052 F960.000
G1 X26.969 Y-16.443 E0.13052
G1 X27.621 Y-14.880 E0.13052
G1 X27.181 Y-12.482 E0.18790
G1 X17.085 Y5.004 E1.55603
G1 X16.382 Y6.131 E0.10241
G1 X15.604 Y7.206 E0.10223
G1 X14.818 Y8.157 E0.09514
G1 X14.092 Y8.938 E0.08211
G1 X11.144 Y11.728 E0.31282
G1 E-3.50000 F1500.00000
G1 Z0.700 F15000.000
G1 X11.546 Y2.037 F15000.000
G1 Z0.300 F15000.000
G1 E3.50000 F1500.00000
G1 X11.309 Y2.024 E0.01830 F600.000
G1 X11.087 Y1.973 E0.01758
G1 X10.860 Y1.872 E0.01912
G1 X8.473 Y0.494 E0.21243
G1 X8.272 Y0.349 E0.01908
G1 X8.024 Y0.051 E0.02988
G1 X7.884 Y-0.280 E0.02770
G1 X7.840 Y-0.633 E0.02744
G1 X7.895 Y-0.984 E0.02738
G1 X8.006 Y-1.242 E0.02165
G1 X14.625 Y-12.706 E1.02020
G1 X14.835 Y-12.962 E0.02550
G1 X15.094 Y-13.149 E0.02464
G1 X15.420 Y-13.274 E0.02684
G1 X15.731 Y-13.308 E0.02417 F600.000
G1 X16.044 Y-13.266 E0.02428
G1 X16.319 Y-13.157 E0.02280
G1 X18.884 Y-11.662 E0.22880
G1 X19.135 Y-11.392 E0.02844
G1 X19.307 Y-11.039 E0.03024
G1 X19.365 Y-10.679 E0.02817
G1 X19.312 Y-10.291 E0.03014
G1 X19.199 Y-10.028 E0.02204
G1 X12.572 Y1.448 E1.02127
G1 X12.329 Y1.728 E0.02857
G1 X12.135 Y1.864 E0.01830
G1 X11.920 Y1.964 E0.01829
G1 X11.605 Y2.025 E0.02468
G1 X11.434 Y2.246 F15000.000
G1 E-3.50000 F1500.00000
G1 Z0.700 F15000.000
G1 X-11.714 Y-8.864 F15000.000
G1 Z0.300 F15000.000
G1 E3.50000 F1500.00000
G1 X-14.283 Y-13.314 E0.39599 F600.000
G1 X-12.723 Y-13.314 E0.12018
G1 X-12.563 Y-13.154 E0.01745
G1 X-9.598 Y-8.018 E0.45711 F600.000
G1 X-9.193 Y-7.248 E0.06704
G1 X-8.844 Y-6.456 E0.06669
G1 X-8.686 Y-6.039 E0.03435
G1 X-8.429 Y-5.238 E0.06479
G1 X-8.316 Y-4.807 E0.03438
G1 X-8.145 Y-3.991 E0.06422
G1 X-8.018 Y-3.080 E0.07091
G1 X-8.315 Y-2.978 E0.02421
G1 X-11.684 Y-8.812 E0.51921
G1 X-12.234 Y-8.495 F15000.000
G1 X-8.046 Y-1.242 E0.64542 F600.000
G1 X-7.935 Y-0.984 E0.02165
G1 X-7.880 Y-0.632 E0.02748
G1 X-7.935 Y-0.242 E0.03033
G1 X-8.087 Y0.086 E0.02788
G1 X-8.315 Y0.351 E0.02694
G1 X-8.513 Y0.494 E0.01884
G1 X-10.901 Y1.872 E0.21243
G1 X-11.127 Y1.973 E0.01912
G1 X-11.350 Y2.024 E0.01758
G1 X-11.587 Y2.037 E0.01830
G1 X-11.960 Y1.964 E0.02930
G1 X-12.175 Y1.864 E0.01827
G1 X-12.367 Y1.730 E0.01806
G1 X-12.613 Y1.448 E0.02880
G1 X-19.239 Y-10.028 E1.02129
G1 X-19.351 Y-10.288 E0.02180
G1 X-19.405 Y-10.640 E0.02740
G1 X-19.350 Y-11.033 E0.03063
G1 X-19.175 Y-11.393 E0.03081
G1 X-18.925 Y-11.662 E0.02827
G1 X-16.359 Y-13.157 E0.22891
G1 X-16.084 Y-13.266 E0.02276
G1 X-15.778 Y-13.308 E0.02382 F600.000
G1 X-15.459 Y-13.274 E0.02472
G1 X-15.131 Y-13.148 E0.02706
G1 X-14.852 Y-12.939 E0.02688
G1 X-14.664 Y-12.704 E0.02318
G1 X-12.264 Y-8.547 E0.36997
G1 X-11.834 Y-8.495 F15000.000
G1 E-3.50000 F1500.00000
G1 Z0.700 F15000.000
G1 X-1.437 Y7.158 F15000.000
G1 Z0.300 F15000.000
G1 E3.50000 F1500.00000
G1 X-1.154 Y7.007 E0.02474 F600.000
G1 X-0.637 Y6.829 E0.04216
G1 X-0.077 Y6.760 E0.04349 F600.000
G1 X0.408 Y6.794 E0.03747
G1 X0.872 Y6.910 E0.03680
G1 X1.308 Y7.104 E0.03680
G1 X1.704 Y7.371 E0.03680
G1 X2.047 Y7.703 E0.03680
G1 X2.328 Y8.089 E0.03680
G1 X2.537 Y8.518 E0.03680
G1 X2.669 Y8.977 E0.03680
G1 X2.718 Y9.444 E0.03613
G1 X2.697 Y9.842 E0.03077
G1 X2.600 Y10.301 E0.03613
G1 X2.424 Y10.734 E0.03603
G1 X2.236 Y11.050 E0.02835
G1 X2.043 Y11.299 E0.02427
G1 X1.021 Y12.330 E0.11184
G1 X-1.060 Y12.330 E0.16038
G1 X-2.034 Y11.353 E0.10629
G1 X-2.274 Y11.057 E0.02940
G1 X-2.543 Y10.571 E0.04282
G1 X-2.711 Y10.023 E0.04416
G1 X-2.761 Y9.445 E0.04472
G1 X-2.675 Y8.814 E0.04911
G1 X-2.463 Y8.257 E0.04587
G1 X-2.150 Y7.775 E0.04431
G1 X-1.757 Y7.382 E0.04282
G1 X-1.487 Y7.192 E0.02548
G1 X-1.122 Y7.713 F15000.000
G1 X-0.900 Y7.592 E0.01951 F600.000
G1 X-0.493 Y7.452 E0.03315
G1 X-0.060 Y7.399 E0.03363 F600.000
G1 X0.309 Y7.425 E0.02847
G1 X0.664 Y7.513 E0.02823
G1 X0.999 Y7.662 E0.02823
G1 X1.302 Y7.867 E0.02823
G1 X1.566 Y8.121 E0.02823
G1 X1.781 Y8.418 E0.02823
G1 X1.942 Y8.747 E0.02823
G1 X2.043 Y9.099 E0.02823
G1 X2.081 Y9.460 E0.02799
G1 X2.065 Y9.759 E0.02306
G1 X1.989 Y10.114 E0.02799
G1 X1.854 Y10.451 E0.02795
G1 X1.710 Y10.691 E0.02161
G1 X1.564 Y10.879 E0.01832
G1 X0.756 Y11.694 E0.08843
G1 X-0.796 Y11.694 E0.11964
G1 X-1.561 Y10.928 E0.08342
G1 X-1.745 Y10.700 E0.02257
G1 X-1.955 Y10.321 E0.03339
G1 X-2.083 Y9.901 E0.03386
G1 X-2.122 Y9.461 E0.03406
G1 X-2.055 Y8.972 E0.03805
G1 X-1.893 Y8.546 E0.03506
G1 X-1.654 Y8.177 E0.03392
G1 X-1.347 Y7.871 E0.03339
G1 X-1.171 Y7.747 E0.01657
G1 X-1.125 Y7.460 F15000.000
G1 E-3.50000 F1500.00000
G1 Z0.700 F15000.000
G1 X-17.835 Y-13.032 F15000.000
G1 Z0.300 F15000.000
G1 E3.50000 F1500.00000
G1 X-19.327 Y-12.163 E0.13306 F720.000
G1 X-19.705 Y-11.756 E0.04286
G1 X-19.965 Y-11.221 E0.04582
G1 X-20.048 Y-10.636 E0.04556
G1 X-19.967 Y-10.111 E0.04091
G1 X-19.808 Y-9.743 E0.03092
G1 X-13.132 Y1.819 E1.02891
G1 X-12.795 Y2.206 E0.03956
G1 X-12.493 Y2.417 E0.02832
G1 X-12.158 Y2.573 E0.02854
G1 X-11.631 Y2.676 E0.04133
G1 X-11.261 Y2.656 E0.02860
G1 X-10.925 Y2.579 E0.02658
G1 X-10.612 Y2.439 E0.02641
G1 X-8.168 Y1.029 E0.21743
G1 X-7.883 Y0.823 E0.02710
G1 X-7.456 Y0.328 E0.05042
G1 X-7.281 Y0.670 E0.02958
G1 X-6.898 Y1.239 E0.05290
G1 X-6.532 Y1.658 E0.04287
G1 X-6.024 Y2.114 E0.05256
G1 X-5.442 Y2.507 E0.05413
G1 X-4.818 Y2.811 E0.05350
G1 X-4.303 Y2.988 E0.04196
G1 X-3.624 Y3.133 E0.05350
G1 X-2.940 Y3.180 E0.05284
G1 X-2.563 Y3.167 E0.02908
G1 X-2.057 Y3.105 E0.03930
G1 X-1.696 Y3.028 E0.02842
G1 X-1.200 Y2.877 E0.03997
G1 X-0.723 Y2.674 E0.03997
G1 X-0.404 Y2.505 E0.02783
G1 X-0.089 Y2.307 E0.02866
G1 X0.316 Y2.001 E0.03909
G1 X0.715 Y1.627 E0.04217
G1 X1.147 Y1.111 E0.05189
G1 X1.426 Y0.683 E0.03936
G1 X1.954 Y-0.237 E0.08176
G1 X2.433 Y-0.949 E0.06615
G1 X2.961 Y-1.627 E0.06623
G1 X3.535 Y-2.267 E0.06623
G1 X4.152 Y-2.865 E0.06623
G1 X4.809 Y-3.420 E0.06623
G1 X5.514 Y-3.935 E0.06729
G1 X6.492 Y-4.590 E0.09072
G1 X7.096 Y-5.064 E0.05918
G1 X7.663 Y-5.577 E0.05892
G1 X8.193 Y-6.128 E0.05892
G1 X8.689 Y-6.721 E0.05958
G1 X9.336 Y-7.646 E0.08701
G1 X12.615 Y-13.314 E0.50463
G1 X14.243 Y-13.314 E0.12543
G1 X7.437 Y-1.528 E1.04886
G1 X7.279 Y-1.162 E0.03074
G1 X7.198 Y-0.643 E0.04049
G1 X7.264 Y-0.114 E0.04109
G1 X7.475 Y0.386 E0.04176
G1 X7.835 Y0.818 E0.04339
G1 X8.128 Y1.029 E0.02777
G1 X10.571 Y2.439 E0.21743
G1 X10.884 Y2.579 E0.02640
G1 X11.221 Y2.656 E0.02658
G1 X11.591 Y2.676 E0.02860
G1 X12.118 Y2.573 E0.04133
G1 X12.454 Y2.416 E0.02858
G1 X12.758 Y2.204 E0.02860
G1 X13.092 Y1.819 E0.03930
G1 X19.768 Y-9.743 E1.02884
G1 X19.930 Y-10.119 E0.03158
G1 X20.008 Y-10.686 E0.04412
G1 X19.920 Y-11.233 E0.04270
G1 X19.665 Y-11.756 E0.04477
G1 X19.285 Y-12.164 E0.04299
G1 X17.795 Y-13.032 E0.13293
G1 X17.871 Y-13.314 E0.02251
G1 X22.325 Y-13.314 E0.34326
G1 X13.091 Y2.679 E1.42324
G1 X12.566 Y3.524 E0.07663
G1 X12.295 Y3.916 E0.03677
G1 X12.011 Y4.300 E0.03679
G1 X11.412 Y5.033 E0.07299
G1 X10.730 Y5.767 E0.07720
G1 X2.569 Y13.464 E0.86456
G1 X-2.609 Y13.464 E0.39903
G1 X-10.411 Y6.116 E0.82597
G1 X-11.113 Y5.411 E0.07663
G1 X-11.427 Y5.063 E0.03615
G1 X-12.052 Y4.300 E0.07599
G1 X-12.331 Y3.923 E0.03615
G1 X-12.874 Y3.109 E0.07539
G1 X-22.365 Y-13.314 E1.46183
G1 X-17.911 Y-13.314 E0.34321
G1 X-17.851 Y-13.090 E0.01788
G1 X-17.851 Y-13.950 F15000.000
G1 X-12.460 Y-13.950 E0.41542 F720.000
G1 X-12.397 Y-13.886 E0.00693
G1 X-12.055 Y-13.545 E0.03726 F720.000
G1 X-9.041 Y-8.325 E0.46452
G1 X-8.620 Y-7.524 E0.06969
G1 X-8.255 Y-6.696 E0.06971
G1 X-8.086 Y-6.248 E0.03692
G1 X-7.819 Y-5.416 E0.06734
G1 X-7.697 Y-4.953 E0.03692
G1 X-7.518 Y-4.101 E0.06713
G1 X-7.393 Y-3.207 E0.06956
G1 X-7.331 Y-2.303 E0.06980
G1 X-7.313 Y-1.545 E0.05841
G1 X-7.228 Y-0.941 E0.04699
G1 X-7.060 Y-0.357 E0.04684
G1 X-6.942 Y-0.064 E0.02438
G1 X-6.733 Y0.347 E0.03550
G1 X-6.393 Y0.851 E0.04687
G1 X-6.078 Y1.211 E0.03686
G1 X-5.632 Y1.612 E0.04618
G1 X-5.124 Y1.955 E0.04730
G1 X-4.575 Y2.223 E0.04708
G1 X-4.133 Y2.375 E0.03597
G1 X-3.536 Y2.502 E0.04708
G1 X-2.929 Y2.544 E0.04684
G1 X-2.613 Y2.533 E0.02438
G1 X-2.162 Y2.478 E0.03503
G1 X-1.856 Y2.412 E0.02414
G1 X-1.418 Y2.279 E0.03526
G1 X-0.997 Y2.100 E0.03526
G1 X-0.723 Y1.954 E0.02393
G1 X-0.450 Y1.783 E0.02479
G1 X-0.094 Y1.514 E0.03439
G1 X0.253 Y1.190 E0.03661
G1 X0.635 Y0.732 E0.04595
G1 X0.883 Y0.351 E0.03505
G1 X1.414 Y-0.574 E0.08217
G1 X1.918 Y-1.323 E0.06960
G1 X2.474 Y-2.035 E0.06963
G1 X3.077 Y-2.708 E0.06963
G1 X3.726 Y-3.337 E0.06963
G1 X4.416 Y-3.920 E0.06963
G1 X5.149 Y-4.456 E0.07001
G1 X6.119 Y-5.105 E0.08987
G1 X6.686 Y-5.551 E0.05562
G1 X7.220 Y-6.034 E0.05552
G1 X7.720 Y-6.553 E0.05552
G1 X8.184 Y-7.108 E0.05576
G1 X8.800 Y-7.988 E0.08279
G1 X12.218 Y-13.897 E0.52603
G1 X12.417 Y-13.950 E0.01588
G1 X23.426 Y-13.950 E0.84844
G1 X13.637 Y3.006 E1.50888
G1 X13.098 Y3.873 E0.07862
G1 X12.513 Y4.691 E0.07750
G1 X11.891 Y5.451 E0.07573
G1 X11.181 Y6.215 E0.08037
G1 X2.821 Y14.100 E0.88562
G1 X-2.861 Y14.100 E0.43792
G1 X-10.855 Y6.572 E0.84620
G1 X-11.574 Y5.849 E0.07862
G1 X-11.909 Y5.478 E0.03853
G1 X-12.553 Y4.690 E0.07837
G1 X-12.851 Y4.288 E0.03853
G1 X-13.414 Y3.445 E0.07816
G1 X-23.466 Y-13.950 E1.54829
G1 X-17.911 Y-13.950 E0.42813
G1 X-17.651 Y-13.604 F15000.000
G1 X-17.566 Y-13.256 F15000.000
G1 X-16.549 Y-13.531 E0.08119 F960.000
G1 X-16.038 Y-13.613 E0.03988
G1 X-15.448 Y-13.612 F15000.000
G1 X-14.900 Y-13.516 E0.04284 F960.000
G1 X-14.549 Y-13.100 E0.04198
G1 X-13.286 Y-12.997 F15000.000
G1 X-10.215 Y-7.677 E0.99464 F960.000
G1 X-9.813 Y-6.948 E0.13479
G1 X-9.262 Y-5.838 E0.20074
G1 X-8.865 Y-4.941 E0.15877
G1 X-8.869 Y-4.940 F15000.000
G1 X-8.473 Y-3.923 E0.08408 F960.000
G1 X-8.077 Y-2.724 F15000.000
G1 X-7.599 Y-1.085 E0.13154 F960.000
G1 X-7.515 Y-0.628 E0.03582
G1 X-7.491 Y-0.293 E0.02588
G1 X-7.569 Y-0.125 E0.01429
G1 X-7.746 Y0.150 E0.02518
G1 X-0.943 Y12.897 F15000.000
G1 X0.906 Y12.897 E0.29944 F960.000
G1 X1.320 Y12.496 F15000.000
G1 X1.903 Y13.079 E0.06479 F960.000
G1 X2.663 Y12.922 E0.06108
G1 X1.777 Y12.036 E0.09858
G1 X2.234 Y11.575 E0.05103
G1 X3.135 Y12.477 E0.10030
G1 X3.607 Y12.031 E0.05105
G1 X2.626 Y11.050 E0.10913
G1 X2.920 Y10.427 E0.05421
G1 X4.080 Y11.586 E0.12894
G1 X4.552 Y11.141 E0.05105
G1 X3.085 Y9.674 E0.16316
G1 X3.037 Y8.708 E0.07604
G1 X5.024 Y10.695 E0.22103
G1 X5.496 Y10.250 E0.05105
G1 X-1.437 Y3.317 E0.77121
G1 X-0.770 Y3.067 E0.05606
G1 X5.968 Y9.805 E0.74949
G1 X6.440 Y9.360 E0.05105
G1 X-0.168 Y2.751 E0.73510
G1 X0.372 Y2.374 E0.05182
G1 X6.912 Y8.914 E0.72753
G1 X7.385 Y8.469 E0.05105
G1 X0.859 Y1.944 E0.72584
G1 X1.289 Y1.456 E0.05113
G1 X7.857 Y8.024 E0.73055
G1 X8.329 Y7.578 E0.05105
G1 X1.670 Y0.919 E0.74073
G1 X2.009 Y0.341 E0.05273
G1 X8.801 Y7.133 E0.75550
G1 X9.273 Y6.688 E0.05105
G1 X2.352 Y-0.233 E0.76985
G1 X2.722 Y-0.781 E0.05199
G1 X9.745 Y6.242 E0.78128
G1 X10.211 Y5.791 E0.05103
G1 X3.124 Y-1.297 E0.78840
G1 X3.549 Y-1.789 E0.05116
G1 X10.670 Y5.332 E0.79207
G1 X11.119 Y4.864 E0.05104
G1 X3.998 Y-2.257 E0.79210
G1 X4.471 Y-2.702 E0.05105
G1 X6.830 Y-0.343 E0.26237
G1 X6.912 Y-1.178 E0.06598
G1 X4.969 Y-3.122 E0.21622
G1 X5.497 Y-3.511 E0.05161
G1 X7.207 Y-1.801 E0.19024
G1 X7.542 Y-2.383 E0.05284
G1 X6.039 Y-3.886 E0.16718
G1 X6.589 Y-4.254 E0.05202
G1 X7.878 Y-2.965 E0.14337
G1 X8.213 Y-3.547 E0.05284
G1 X7.108 Y-4.653 E0.12301
G1 X7.601 Y-5.077 E0.05117
G1 X8.549 Y-4.129 E0.10543
G1 X8.884 Y-4.711 E0.05284
G1 X8.070 Y-5.525 E0.09059
G1 X8.870 Y-5.642 E0.06362
G1 X9.220 Y-5.293 E0.03888
G1 E-3.50000 F1500.00000
G1 Z0.700 F15000.000
G1 X9.588 Y2.415 F15000.000
G1 Z0.300 F15000.000
G1 E3.50000 F1500.00000
G1 X11.534 Y4.361 E0.21648 F960.000
G1 X11.935 Y3.845 E0.05143
G1 X11.135 Y3.045 E0.08901
G1 X11.977 Y2.969 E0.06650
G1 X12.310 Y3.302 E0.03703
G1 X-2.179 Y3.493 F15000.000
G1 X0.781 Y6.452 E0.32919 F960.000
G1 X-0.188 Y6.401 E0.07627
G1 X-3.025 Y3.564 E0.31557
G1 X-4.036 Y3.471 E0.07986
G1 X-0.941 Y6.565 E0.34420
G1 X-1.575 Y6.849 E0.05462
G1 X-5.375 Y3.049 E0.42262
G1 X-8.014 Y1.327 F15000.000
G1 X-2.091 Y7.250 E0.65886 F960.000
G1 X-2.523 Y7.736 E0.05112
G1 X-8.596 Y1.663 E0.67550
G1 X-9.177 Y1.999 E0.05283
G1 X-2.857 Y8.319 E0.70300
G1 X-3.075 Y9.019 E0.05766
G1 X-9.759 Y2.335 E0.74353
G1 X-10.340 Y2.671 E0.05283
G1 X-3.122 Y9.890 E0.80300
G1 X-2.730 Y11.198 E0.10746
G1 X-10.971 Y2.957 E0.91672
G1 X-11.784 Y3.063 E0.06442
G1 X-1.767 Y13.079 E1.11419
G1 X-9.428 Y6.335 F15000.000
G1 X-11.101 Y4.663 E0.18608 F960.000
G1 E-3.50000 F1500.00000
G1 Z0.700 F15000.000
G1 X9.148 Y-6.033 F15000.000
G1 Z0.300 F15000.000
G1 E3.50000 F1500.00000
G1 X9.942 Y-7.280 E0.23939 F960.000
G1 X13.245 Y-12.997 E1.06915
G1 X14.498 Y-13.083 F15000.000
G1 X14.596 Y-13.223 E0.01318 F960.000
G1 X14.860 Y-13.516 E0.03041
G1 X15.407 Y-13.612 E0.04277
G1 X15.997 Y-13.613 F15000.000
G1 X16.509 Y-13.531 E0.03992 F960.000
G1 X17.526 Y-13.256 E0.08120
G1 X19.984 Y-12.929 F15000.000
G1 X21.081 Y-11.832 E0.16634 F960.000
G1 X21.235 Y-12.929 E0.11877
G1 X21.539 Y-12.625 E0.04614
G1 X20.315 Y-11.348 F15000.000
G1 X20.609 Y-11.054 E0.04455 F960.000
G1 E-3.50000 F1500.00000
G1 Z0.700 F15000.000
G1 X-19.202 Y-12.625 F15000.000
G1 Z0.300 F15000.000
G1 E3.50000 F1500.00000
G1 X-19.506 Y-12.929 E0.03375 F960.000
G1 X-19.718 Y-12.226 E0.05757
G1 X-20.421 Y-12.929 E0.07795
G1 X-21.336 Y-12.929 E0.07175
G1 X-20.109 Y-11.702 E0.13605
G1 X-20.704 Y-11.382 E0.05298
G1 X-20.380 Y-11.058 E0.03598
G1 E-3.50000 F1500.00000
G1 Z0.700 F15000.000
G1 X-1.545 Y7.776 F15000.000
G1 Z0.500 F15000.000
G1 E3.50000 F1500.00000
G1 X-1.213 Y7.524 E0.01204 F2400.000
G1 X-0.983 Y7.401 E0.00754
G1 X-0.540 Y7.249 E0.01351
G1 X-0.065 Y7.191 E0.01380 F2400.000
G1 X0.341 Y7.219 E0.01176
G1 X0.732 Y7.317 E0.01162
G1 X1.099 Y7.480 E0.01162
G1 X1.433 Y7.705 E0.01162
G1 X1.723 Y7.985 E0.01162
G1 X1.959 Y8.311 E0.01162
G1 X2.136 Y8.672 E0.01162
G1 X2.247 Y9.059 E0.01162
G1 X2.288 Y9.455 E0.01148
G1 X2.271 Y9.786 E0.00958
G1 X2.188 Y10.175 E0.01148
G1 X2.039 Y10.544 E0.01148
G1 X1.873 Y10.820 E0.00930
G1 X1.719 Y11.017 E0.00722
G1 X0.843 Y11.901 E0.03594
G1 X-0.882 Y11.901 E0.04978
G1 X-1.715 Y11.067 E0.03403
G1 X-1.917 Y10.816 E0.00929
G1 X-2.147 Y10.403 E0.01366
G1 X-2.289 Y9.938 E0.01402
G1 X-2.329 Y9.419 E0.01502
G1 X-2.252 Y8.905 E0.01502
G1 X-2.078 Y8.451 E0.01402
G1 X-1.815 Y8.046 E0.01394
G1 X-1.588 Y7.819 E0.00929
G1 X-1.335 Y8.071 F15000.000
G1 X-1.250 Y7.986 E0.00346 F2400.000
G1 X-1.026 Y7.829 E0.00791
G1 X-0.840 Y7.730 E0.00609
G1 X-0.459 Y7.599 E0.01162
G1 X-0.056 Y7.549 E0.01172 F2400.000
G1 X0.285 Y7.573 E0.00987
G1 X0.615 Y7.656 E0.00981
G1 X0.926 Y7.794 E0.00981
G1 X1.208 Y7.984 E0.00981
G1 X1.452 Y8.220 E0.00981
G1 X1.652 Y8.495 E0.00981
G1 X1.801 Y8.801 E0.00981
G1 X1.895 Y9.128 E0.00981
G1 X1.930 Y9.464 E0.00976
G1 X1.916 Y9.739 E0.00796
G1 X1.845 Y10.070 E0.00976
G1 X1.719 Y10.384 E0.00976
G1 X1.579 Y10.617 E0.00785
G1 X1.451 Y10.781 E0.00598
G1 X0.694 Y11.544 E0.03104
G1 X-0.734 Y11.544 E0.04121
G1 X-1.449 Y10.827 E0.02922
G1 X-1.620 Y10.616 E0.00785
G1 X-1.816 Y10.262 E0.01167
G1 X-1.936 Y9.871 E0.01180
G1 X-1.970 Y9.432 E0.01272
G1 X-1.905 Y8.996 E0.01272
G1 X-1.759 Y8.614 E0.01180
G1 X-1.536 Y8.272 E0.01177
G1 X-1.378 Y8.113 E0.00648
