; generated by Slic3r 1.2.9 on 2018-06-18 at 11:29:57

; external perimeters extrusion width = 0.40mm
; perimeters extrusion width = 0.40mm
; infill extrusion width = 0.40mm
; solid infill extrusion width = 0.40mm
; top infill extrusion width = 0.40mm

M107
M83
T0
M116
G21 ; set units to millimeters
G90 ; use absolute coordinates
M83 ; use relative distances for extrusion
G1 E-3.50000 F1500.00000
G1 Z0.400 F15000.000
G1 X-5.101 Y-25.157 F15000.000
G1 Z0.300 F15000.000
G1 E3.50000 F1500.00000
G1 X9.622 Y-28.142 E1.15774 F960.000
G1 X10.029 Y-28.205 E0.03168
G1 X10.505 Y-28.236 E0.03677
G1 X33.573 Y-28.226 E1.77774
G1 X34.130 Y-28.184 E0.04305 F960.000
G1 X35.046 Y-27.938 E0.07314
G1 X35.191 Y-27.878 E0.01206
G1 X36.013 Y-27.404 E0.07315
G1 X36.137 Y-27.308 E0.01206
G1 X36.808 Y-26.637 E0.07313
G1 X36.903 Y-26.513 E0.01206
G1 X37.378 Y-25.691 E0.07317
G1 X37.438 Y-25.546 E0.01206
G1 X37.684 Y-24.630 E0.07312
G1 X37.736 Y-23.997 E0.04895
G1 X37.736 Y-9.501 E1.11709
G1 X37.669 Y-8.324 E0.09091
G1 X37.611 Y-7.871 E0.03519
G1 X37.434 Y-6.938 E0.07319
G1 X37.320 Y-6.495 E0.03519
G1 X36.993 Y-5.495 E0.08111
G1 X26.516 Y23.894 E2.40449
G1 X26.191 Y24.691 E0.06637
G1 X25.716 Y25.513 E0.07314
G1 X25.303 Y26.051 E0.05230
G1 X24.632 Y26.723 E0.07314
G1 X24.093 Y27.136 E0.05230
G1 X23.271 Y27.610 E0.07314
G1 X22.644 Y27.870 E0.05230
G1 X21.728 Y28.116 E0.07314
G1 X21.052 Y28.205 E0.05255
G1 X20.577 Y28.236 E0.03665
G1 X-28.498 Y28.236 E3.78202
G1 X-29.249 Y28.183 E0.05796
G1 X-30.468 Y28.008 E0.09494
G1 X-31.118 Y27.852 E0.05151
G1 X-31.600 Y27.677 E0.03952
G1 X-32.732 Y27.191 E0.09494
G1 X-33.320 Y26.873 E0.05151
G1 X-33.511 Y26.744 E0.01777
G1 X-34.708 Y25.817 E0.11669
G1 X-35.317 Y25.208 E0.06634
G1 X-36.079 Y24.240 E0.09494
G1 X-36.373 Y23.820 E0.03952
G1 X-36.712 Y23.201 E0.05439
G1 X-37.285 Y21.799 E0.11669
G1 X-37.508 Y20.968 E0.06634
G1 X-37.713 Y19.468 E0.11669
G1 X-37.736 Y18.998 E0.03622
G1 X-37.736 Y-10.998 E2.31171
G1 X-37.683 Y-11.749 E0.05796
G1 X-37.508 Y-12.968 E0.09494
G1 X-37.285 Y-13.799 E0.06634
G1 X-36.827 Y-14.943 E0.09494
G1 X-36.610 Y-15.408 E0.03952
G1 X-36.261 Y-15.978 E0.05151
G1 X-35.523 Y-16.964 E0.09494
G1 X-35.193 Y-17.357 E0.03952
G1 X-34.708 Y-17.817 E0.05151
G1 X-33.511 Y-18.744 E0.11669
G1 X-32.908 Y-19.110 E0.05439
G1 X-32.443 Y-19.327 E0.03952
G1 X-31.299 Y-19.785 E0.09494
G1 X-30.672 Y-19.972 E0.05048
G1 X-5.160 Y-25.145 E2.00612
G1 E-3.50000 F1500.00000
G1 Z0.700 F15000.000
G1 X-24.748 Y17.332 F15000.000
G1 Z0.300 F15000.000
G1 E3.50000 F1500.00000
G1 X-24.230 Y17.730 E0.05036 F600.000
G1 X-23.947 Y18.098 E0.03574
G1 X-23.832 Y18.248 E0.01462
G1 X-23.582 Y18.852 E0.05036
G1 X-23.497 Y19.500 E0.05036
G1 X-23.582 Y20.148 E0.05036
G1 X-23.832 Y20.752 E0.05036
G1 X-24.230 Y21.270 E0.05037
G1 X-24.748 Y21.668 E0.05036
G1 X-25.352 Y21.918 E0.05036
G1 X-25.974 Y22.000 E0.04833
G1 X-29.526 Y22.000 E0.27377
G1 X-30.148 Y21.918 E0.04833
G1 X-30.752 Y21.668 E0.05036
G1 X-31.270 Y21.270 E0.05036
G1 X-31.668 Y20.752 E0.05037
G1 X-31.918 Y20.148 E0.05036
G1 X-32.003 Y19.500 E0.05036
G1 X-31.918 Y18.852 E0.05036
G1 X-31.668 Y18.248 E0.05036
G1 X-31.270 Y17.730 E0.05036
G1 X-30.752 Y17.332 E0.05036
G1 X-30.148 Y17.082 E0.05036
G1 X-29.526 Y17.000 E0.04833
G1 X-25.974 Y17.000 E0.27377 F600.000
G1 X-25.352 Y17.082 E0.04833
G1 X-24.804 Y17.309 E0.04574
G1 X-24.393 Y17.147 F15000.000
G1 X-25.974 Y-9.000 F15000.000
G1 X-29.526 Y-9.000 E0.27377 F600.000
G1 X-30.148 Y-9.082 E0.04833
G1 X-30.752 Y-9.332 E0.05036
G1 X-31.270 Y-9.730 E0.05036
G1 X-31.668 Y-10.248 E0.05036
G1 X-31.918 Y-10.852 E0.05036
G1 X-32.003 Y-11.500 E0.05036
G1 X-31.918 Y-12.148 E0.05036
G1 X-31.668 Y-12.752 E0.05036
G1 X-31.270 Y-13.270 E0.05036
G1 X-30.752 Y-13.668 E0.05036
G1 X-30.148 Y-13.918 E0.05036
G1 X-29.526 Y-14.000 E0.04833
G1 X-25.974 Y-14.000 E0.27377 F600.000
G1 X-25.352 Y-13.918 E0.04833
G1 X-24.748 Y-13.668 E0.05036
G1 X-24.230 Y-13.270 E0.05036
G1 X-23.832 Y-12.752 E0.05036
G1 X-23.582 Y-12.148 E0.05036
G1 X-23.497 Y-11.500 E0.05036
G1 X-23.582 Y-10.852 E0.05036
G1 X-23.832 Y-10.248 E0.05036
G1 X-24.230 Y-9.730 E0.05036
G1 X-24.748 Y-9.332 E0.05036
G1 X-25.352 Y-9.082 E0.05036
G1 X-25.914 Y-9.008 E0.04370
G1 X-26.158 Y-8.645 F15000.000
G1 X21.247 Y-4.944 F15000.000
G1 X21.323 Y-5.528 E0.04534 F600.000
G1 X21.548 Y-6.071 E0.04534
G1 X21.907 Y-6.538 E0.04534
G1 X22.373 Y-6.896 E0.04534
G1 X22.917 Y-7.121 E0.04534
G1 X23.331 Y-7.176 E0.03222
G1 X23.500 Y-7.198 E0.01311 F600.000
G1 X24.083 Y-7.121 E0.04534
G1 X24.627 Y-6.896 E0.04534
G1 X25.093 Y-6.538 E0.04534
G1 X25.452 Y-6.071 E0.04534
G1 X25.677 Y-5.528 E0.04534
G1 X25.753 Y-4.944 E0.04534
G1 X25.677 Y-4.361 E0.04534
G1 X25.452 Y-3.818 E0.04534
G1 X25.093 Y-3.351 E0.04534
G1 X24.627 Y-2.993 E0.04534
G1 X24.083 Y-2.768 E0.04534
G1 X23.500 Y-2.691 E0.04534
G1 X22.917 Y-2.768 E0.04534
G1 X22.373 Y-2.993 E0.04534
G1 X21.907 Y-3.351 E0.04534
G1 X21.548 Y-3.818 E0.04534
G1 X21.323 Y-4.361 E0.04533
G1 X21.254 Y-4.885 E0.04071
G1 X20.909 Y-5.159 F15000.000
G1 E-3.50000 F1500.00000
G1 Z0.700 F15000.000
G1 X6.572 Y16.777 F15000.000
G1 Z0.300 F15000.000
G1 E3.50000 F1500.00000
G1 X7.224 Y17.276 E0.06326 F600.000
G1 X7.723 Y17.928 E0.06326
G1 X8.037 Y18.686 E0.06326
G1 X8.145 Y19.500 E0.06326
G1 X8.037 Y20.314 E0.06326
G1 X7.723 Y21.072 E0.06326
G1 X7.224 Y21.724 E0.06326
G1 X6.572 Y22.223 E0.06326
G1 X5.814 Y22.537 E0.06326
G1 X5.068 Y22.636 E0.05799
G1 X1.432 Y22.636 E0.28019
G1 X0.686 Y22.537 E0.05799
G1 X-0.072 Y22.223 E0.06326
G1 X-0.724 Y21.724 E0.06326
G1 X-1.223 Y21.072 E0.06326
G1 X-1.537 Y20.314 E0.06326
G1 X-1.645 Y19.500 E0.06326
G1 X-1.537 Y18.686 E0.06326
G1 X-1.223 Y17.928 E0.06326
G1 X-0.724 Y17.276 E0.06326
G1 X-0.072 Y16.777 E0.06326
G1 X0.686 Y16.463 E0.06326
G1 X1.432 Y16.364 E0.05799
G1 X5.068 Y16.364 E0.28019 F600.000
G1 X5.814 Y16.463 E0.05799
G1 X6.517 Y16.754 E0.05864
G1 X6.252 Y17.332 F15000.000
G1 X6.770 Y17.730 E0.05036 F600.000
G1 X7.168 Y18.248 E0.05036
G1 X7.418 Y18.852 E0.05036
G1 X7.503 Y19.500 E0.05036
G1 X7.418 Y20.148 E0.05036
G1 X7.168 Y20.752 E0.05036
G1 X6.770 Y21.270 E0.05036
G1 X6.252 Y21.668 E0.05036
G1 X5.648 Y21.918 E0.05036
G1 X5.026 Y22.000 E0.04833
G1 X1.474 Y22.000 E0.27377
G1 X0.852 Y21.918 E0.04833
G1 X0.248 Y21.668 E0.05036
G1 X-0.270 Y21.270 E0.05036
G1 X-0.668 Y20.752 E0.05036
G1 X-0.918 Y20.148 E0.05036
G1 X-1.003 Y19.500 E0.05036
G1 X-0.918 Y18.852 E0.05036
G1 X-0.668 Y18.248 E0.05036
G1 X-0.270 Y17.730 E0.05036
G1 X0.248 Y17.332 E0.05036
G1 X0.852 Y17.082 E0.05036
G1 X1.474 Y17.000 E0.04833
G1 X5.026 Y17.000 E0.27377 F600.000
G1 X5.648 Y17.082 E0.04833
G1 X6.196 Y17.309 E0.04574
G1 X6.607 Y17.147 F15000.000
G1 X-0.848 Y11.922 F15000.000
G1 X-1.670 Y12.830 E0.09444 F720.000
G1 X-2.578 Y13.652 E0.09444
G1 X-3.563 Y14.382 E0.09444
G1 X-4.614 Y15.012 E0.09444
G1 X-5.721 Y15.536 E0.09444
G1 X-6.875 Y15.949 E0.09444
G1 X-8.064 Y16.247 E0.09444
G1 X-9.276 Y16.427 E0.09444
G1 X-10.475 Y16.486 E0.09247
G1 X-13.525 Y16.486 E0.23511
G1 X-14.724 Y16.427 E0.09247
G1 X-15.936 Y16.247 E0.09444
G1 X-17.125 Y15.949 E0.09444
G1 X-18.279 Y15.536 E0.09444
G1 X-19.386 Y15.012 E0.09444
G1 X-20.437 Y14.382 E0.09444
G1 X-21.422 Y13.652 E0.09444
G1 X-22.330 Y12.830 E0.09444
G1 X-22.583 Y12.550 E0.02910
G1 X-23.152 Y11.922 E0.06533
G1 X-23.882 Y10.937 E0.09444
G1 X-24.512 Y9.886 E0.09444
G1 X-25.036 Y8.779 E0.09444
G1 X-25.449 Y7.625 E0.09444
G1 X-25.747 Y6.436 E0.09444
G1 X-25.927 Y5.224 E0.09444
G1 X-25.987 Y4.000 E0.09444
G1 X-25.927 Y2.776 E0.09444
G1 X-25.747 Y1.564 E0.09444
G1 X-25.449 Y0.375 E0.09444
G1 X-25.036 Y-0.779 E0.09444
G1 X-24.512 Y-1.886 E0.09444
G1 X-23.882 Y-2.937 E0.09444
G1 X-23.152 Y-3.922 E0.09444
G1 X-22.330 Y-4.830 E0.09444
G1 X-21.422 Y-5.652 E0.09444
G1 X-20.437 Y-6.382 E0.09444
G1 X-19.386 Y-7.012 E0.09444
G1 X-18.279 Y-7.536 E0.09444
G1 X-17.125 Y-7.949 E0.09444
G1 X-15.936 Y-8.247 E0.09444
G1 X-14.724 Y-8.427 E0.09444
G1 X-13.525 Y-8.486 E0.09247
G1 X-10.475 Y-8.486 E0.23511 F720.000
G1 X-9.276 Y-8.427 E0.09247
G1 X-8.064 Y-8.247 E0.09444
G1 X-6.875 Y-7.949 E0.09444
G1 X-5.721 Y-7.536 E0.09444
G1 X-4.614 Y-7.012 E0.09444
G1 X-3.563 Y-6.382 E0.09444
G1 X-2.578 Y-5.652 E0.09444
G1 X-1.670 Y-4.830 E0.09444
G1 X-0.848 Y-3.922 E0.09444
G1 X-0.118 Y-2.937 E0.09444
G1 X0.512 Y-1.886 E0.09444
G1 X1.036 Y-0.779 E0.09444
G1 X1.449 Y0.375 E0.09444
G1 X1.747 Y1.564 E0.09444
G1 X1.927 Y2.776 E0.09444
G1 X1.987 Y4.000 E0.09444
G1 X1.927 Y5.224 E0.09444
G1 X1.747 Y6.436 E0.09444
G1 X1.449 Y7.625 E0.09444
G1 X1.036 Y8.779 E0.09444
G1 X0.512 Y9.886 E0.09444
G1 X-0.118 Y10.937 E0.09444
G1 X-0.812 Y11.873 E0.08981
G1 X-1.322 Y11.495 F15000.000
G1 X-2.120 Y12.380 E0.09183 F720.000
G1 X-2.982 Y13.161 E0.08962
G1 X-3.916 Y13.853 E0.08962
G1 X-4.914 Y14.451 E0.08962
G1 X-5.965 Y14.948 E0.08962
G1 X-7.060 Y15.340 E0.08962
G1 X-8.188 Y15.623 E0.08962
G1 X-9.338 Y15.793 E0.08962
G1 X-10.490 Y15.850 E0.08887
G1 X-13.510 Y15.850 E0.23271
G1 X-14.662 Y15.793 E0.08887
G1 X-15.812 Y15.623 E0.08962
G1 X-16.940 Y15.340 E0.08962
G1 X-18.035 Y14.948 E0.08962
G1 X-19.086 Y14.451 E0.08962
G1 X-20.084 Y13.853 E0.08962
G1 X-21.018 Y13.161 E0.08962
G1 X-21.880 Y12.380 E0.08962
G1 X-22.112 Y12.123 E0.02670
G1 X-22.661 Y11.518 E0.06293
G1 X-23.353 Y10.584 E0.08962
G1 X-23.951 Y9.586 E0.08962
G1 X-24.448 Y8.535 E0.08962
G1 X-24.840 Y7.440 E0.08962
G1 X-25.123 Y6.312 E0.08962
G1 X-25.293 Y5.162 E0.08962
G1 X-25.350 Y4.000 E0.08962
G1 X-25.293 Y2.838 E0.08962
G1 X-25.123 Y1.688 E0.08962
G1 X-24.840 Y0.560 E0.08962
G1 X-24.448 Y-0.535 E0.08962
G1 X-23.951 Y-1.586 E0.08962
G1 X-23.353 Y-2.584 E0.08962
G1 X-22.661 Y-3.518 E0.08962
G1 X-21.880 Y-4.380 E0.08962
G1 X-21.018 Y-5.161 E0.08962
G1 X-20.084 Y-5.853 E0.08962
G1 X-19.086 Y-6.451 E0.08962
G1 X-18.035 Y-6.948 E0.08962
G1 X-16.940 Y-7.340 E0.08962
G1 X-15.812 Y-7.623 E0.08962
G1 X-14.662 Y-7.793 E0.08962
G1 X-13.510 Y-7.850 E0.08887
G1 X-10.490 Y-7.850 E0.23271 F720.000
G1 X-9.338 Y-7.793 E0.08887
G1 X-8.188 Y-7.623 E0.08962
G1 X-7.060 Y-7.340 E0.08962
G1 X-5.965 Y-6.948 E0.08962
G1 X-4.914 Y-6.451 E0.08962
G1 X-3.916 Y-5.853 E0.08962
G1 X-2.982 Y-5.161 E0.08962
G1 X-2.120 Y-4.380 E0.08962
G1 X-1.339 Y-3.518 E0.08962
G1 X-0.647 Y-2.584 E0.08962
G1 X-0.049 Y-1.586 E0.08962
G1 X0.448 Y-0.535 E0.08962
G1 X0.840 Y0.560 E0.08962
G1 X1.123 Y1.688 E0.08962
G1 X1.293 Y2.838 E0.08962
G1 X1.350 Y4.000 E0.08962
G1 X1.293 Y5.162 E0.08962
G1 X1.123 Y6.312 E0.08962
G1 X0.840 Y7.440 E0.08962
G1 X0.448 Y8.535 E0.08962
G1 X-0.049 Y9.586 E0.08962
G1 X-0.647 Y10.584 E0.08962
G1 X-1.287 Y11.447 E0.08278
G1 X-1.187 Y11.871 F15000.000
G1 E-3.50000 F1500.00000
G1 Z0.700 F15000.000
G1 X1.324 Y-8.379 F15000.000
G1 Z0.300 F15000.000
G1 E3.50000 F1500.00000
G1 X0.686 Y-8.463 E0.04954 F600.000
G1 X-0.072 Y-8.777 E0.06326
G1 X-0.724 Y-9.276 E0.06326
G1 X-1.223 Y-9.928 E0.06326
G1 X-1.537 Y-10.686 E0.06326
G1 X-1.645 Y-11.500 E0.06326
G1 X-1.537 Y-12.314 E0.06326
G1 X-1.223 Y-13.072 E0.06326
G1 X-0.724 Y-13.724 E0.06326
G1 X-0.072 Y-14.223 E0.06326
G1 X0.686 Y-14.537 E0.06326
G1 X1.432 Y-14.636 E0.05799
G1 X5.068 Y-14.636 E0.28019 F600.000
G1 X5.814 Y-14.537 E0.05799
G1 X6.572 Y-14.223 E0.06326
G1 X7.224 Y-13.724 E0.06326
G1 X7.723 Y-13.072 E0.06326
G1 X8.037 Y-12.314 E0.06326
G1 X8.145 Y-11.500 E0.06326
G1 X8.037 Y-10.686 E0.06326
G1 X7.723 Y-9.928 E0.06326
G1 X7.224 Y-9.276 E0.06326
G1 X6.572 Y-8.777 E0.06326
G1 X5.814 Y-8.463 E0.06326
G1 X5.068 Y-8.364 E0.05799
G1 X1.383 Y-8.371 E0.28398
G1 X1.466 Y-9.001 F15000.000
G1 X0.852 Y-9.082 E0.04772 F600.000
G1 X0.248 Y-9.332 E0.05036
G1 X-0.270 Y-9.730 E0.05036
G1 X-0.668 Y-10.248 E0.05036
G1 X-0.918 Y-10.852 E0.05036
G1 X-1.003 Y-11.500 E0.05036
G1 X-0.918 Y-12.148 E0.05036
G1 X-0.668 Y-12.752 E0.05036
G1 X-0.270 Y-13.270 E0.05036
G1 X0.248 Y-13.668 E0.05036
G1 X0.852 Y-13.918 E0.05036
G1 X1.474 Y-14.000 E0.04833
G1 X5.026 Y-14.000 E0.27377 F600.000
G1 X5.648 Y-13.918 E0.04833
G1 X6.252 Y-13.668 E0.05036
G1 X6.770 Y-13.270 E0.05036
G1 X7.168 Y-12.752 E0.05036
G1 X7.418 Y-12.148 E0.05036
G1 X7.503 Y-11.500 E0.05036
G1 X7.418 Y-10.852 E0.05036
G1 X7.168 Y-10.248 E0.05036
G1 X6.770 Y-9.730 E0.05036
G1 X6.252 Y-9.332 E0.05036
G1 X5.648 Y-9.082 E0.05036
G1 X5.026 Y-9.000 E0.04833
G1 X1.526 Y-9.000 E0.26975
G1 X1.236 Y-8.673 F15000.000
G1 X-10.424 Y-15.614 F15000.000
G1 X6.568 Y-15.614 E1.30952 F720.000
G1 X7.637 Y-15.755 E0.08313
G1 X8.697 Y-16.194 E0.08841
G1 X9.607 Y-16.893 E0.08841
G1 X10.306 Y-17.803 E0.08841
G1 X10.745 Y-18.863 E0.08841
G1 X10.886 Y-19.932 E0.08313
G1 X10.886 Y-23.614 E0.28376
G1 X33.114 Y-23.605 E1.71307
G1 X33.114 Y-9.532 E1.08450 F720.000
G1 X33.060 Y-8.676 E0.06616
G1 X32.906 Y-7.865 E0.06363
G1 X32.571 Y-6.883 E0.07990
G1 X32.184 Y-6.123 E0.06572
G1 X31.844 Y-5.615 E0.04716
G1 X31.728 Y-5.451 E0.01541
G1 X31.176 Y-4.824 E0.06443
G1 X30.556 Y-4.278 E0.06366
G1 X29.873 Y-3.814 E0.06363
G1 X28.943 Y-3.357 E0.07990
G1 X28.135 Y-3.094 E0.06542
G1 X27.324 Y-2.940 E0.06363
G1 X26.468 Y-2.886 E0.06616
G1 X25.538 Y-2.886 E0.07167
G1 X26.007 Y-3.497 E0.05939
G1 X26.296 Y-4.195 E0.05823
G1 X26.395 Y-4.944 E0.05823
G1 X26.296 Y-5.693 E0.05823
G1 X26.007 Y-6.392 E0.05823
G1 X25.547 Y-6.991 E0.05823
G1 X24.947 Y-7.451 E0.05823
G1 X24.249 Y-7.740 E0.05823
G1 X23.500 Y-7.839 E0.05823
G1 X22.751 Y-7.740 E0.05823
G1 X22.053 Y-7.451 E0.05823
G1 X21.453 Y-6.991 E0.05823
G1 X20.993 Y-6.392 E0.05823
G1 X20.704 Y-5.693 E0.05823
G1 X20.605 Y-4.944 E0.05823
G1 X20.704 Y-4.195 E0.05823
G1 X20.993 Y-3.497 E0.05823
G1 X21.453 Y-2.898 E0.05823
G1 X21.778 Y-2.648 E0.03156
G1 X20.909 Y-2.349 E0.07082
G1 X20.093 Y-1.939 E0.07041
G1 X19.342 Y-1.428 E0.07001
G1 X18.649 Y-0.806 E0.07175
G1 X18.064 Y-0.122 E0.06939
G1 X17.906 Y0.121 E0.02230
G1 X17.663 Y-0.163 E0.02876
G1 X16.962 Y-0.763 E0.07117
G1 X16.174 Y-1.246 E0.07122
G1 X15.320 Y-1.600 E0.07123
G1 X14.421 Y-1.816 E0.07123
G1 X13.473 Y-1.891 E0.07333
G1 X11.974 Y-1.694 E0.11647
G1 X10.553 Y-1.105 E0.11859
G1 X9.332 Y-0.168 E0.11859
G1 X8.395 Y1.053 E0.11859
G1 X7.806 Y2.474 E0.11859
G1 X7.605 Y4.000 E0.11859
G1 X7.806 Y5.526 E0.11859
G1 X8.395 Y6.947 E0.11859
G1 X8.693 Y7.335 E0.03767
G1 X9.332 Y8.168 E0.08092
G1 X10.553 Y9.105 E0.11859
G1 X11.974 Y9.694 E0.11859
G1 X13.473 Y9.891 E0.11647
G1 X14.421 Y9.816 E0.07333
G1 X15.320 Y9.600 E0.07123
G1 X16.169 Y9.248 E0.07087
G1 X16.970 Y8.756 E0.07242
G1 X17.663 Y8.163 E0.07031
G1 X17.911 Y7.874 E0.02932
G1 X18.137 Y8.213 E0.03144
G1 X18.340 Y8.465 E0.02491
G1 X19.065 Y9.201 E0.07962
G1 X19.916 Y9.833 E0.08173
G1 X20.855 Y10.327 E0.08170
G1 X21.858 Y10.669 E0.08173
G1 X22.195 Y10.729 E0.02632
G1 X22.195 Y21.932 E0.86340
G1 X22.131 Y22.416 E0.03758
G1 X21.971 Y22.803 E0.03230
G1 X21.716 Y23.135 E0.03230
G1 X21.383 Y23.390 E0.03230
G1 X20.996 Y23.551 E0.03230
G1 X20.512 Y23.614 E0.03757
G1 X-28.466 Y23.614 E3.77456
G1 X-29.719 Y23.447 E0.09740
G1 X-29.815 Y23.414 E0.00780
G1 X-30.828 Y22.980 E0.08497
G1 X-31.758 Y22.258 E0.09071
G1 X-32.035 Y21.905 E0.03460
G1 X-31.799 Y21.666 E0.02593
G1 X-31.072 Y22.223 E0.07059
G1 X-30.314 Y22.537 E0.06326
G1 X-29.568 Y22.636 E0.05799
G1 X-25.932 Y22.636 E0.28019
G1 X-25.186 Y22.537 E0.05799
G1 X-24.428 Y22.223 E0.06326
G1 X-23.776 Y21.724 E0.06326
G1 X-23.277 Y21.072 E0.06326
G1 X-22.963 Y20.314 E0.06326
G1 X-22.855 Y19.500 E0.06326
G1 X-22.963 Y18.686 E0.06326
G1 X-23.277 Y17.928 E0.06326
G1 X-23.776 Y17.276 E0.06326
G1 X-24.428 Y16.777 E0.06326
G1 X-25.186 Y16.463 E0.06326
G1 X-25.932 Y16.364 E0.05799
G1 X-29.568 Y16.364 E0.28019
G1 X-30.314 Y16.463 E0.05799
G1 X-31.072 Y16.777 E0.06326
G1 X-31.724 Y17.276 E0.06326
G1 X-32.223 Y17.928 E0.06326
G1 X-32.537 Y18.686 E0.06326
G1 X-32.645 Y19.500 E0.06326
G1 X-32.535 Y20.331 E0.06463
G1 X-32.861 Y20.417 E0.02593
G1 X-32.950 Y20.192 E0.01860
G1 X-33.114 Y18.966 E0.09535
G1 X-33.114 Y-10.966 E2.30674
G1 X-32.950 Y-12.192 E0.09535
G1 X-32.861 Y-12.417 E0.01860
G1 X-32.535 Y-12.331 E0.02593
G1 X-32.645 Y-11.500 E0.06463
G1 X-32.537 Y-10.686 E0.06326
G1 X-32.223 Y-9.928 E0.06326
G1 X-31.724 Y-9.276 E0.06326
G1 X-31.072 Y-8.777 E0.06326
G1 X-30.314 Y-8.463 E0.06326
G1 X-29.568 Y-8.364 E0.05799
