; generated by Slic3r 1.2.9 on 2019-04-08 at 12:24:36

; external perimeters extrusion width = 0.40mm
; perimeters extrusion width = 0.40mm
; infill extrusion width = 0.40mm
; solid infill extrusion width = 0.40mm
; top infill extrusion width = 0.40mm

M107
M83
T0
M116
G21 ; set units to millimeters
G90 ; use absolute coordinates
M83 ; use relative distances for extrusion
G1 E-3.50000 F1500.00000
G1 Z0.400 F15000.000
G1 X0.000 Y-11.043 F15000.000
G1 Z0.300 F15000.000
G1 E3.50000 F1500.00000
G1 X0.785 Y-11.043 E0.06046 F2400.000
G1 X1.540 Y-10.964 E0.05857
G1 X3.058 Y-10.641 E0.11954 F2400.000
G1 X3.780 Y-10.407 E0.05855
G1 X5.203 Y-9.773 E0.12000
G1 X5.861 Y-9.394 E0.05856
G1 X7.121 Y-8.478 E0.12000
G1 X7.686 Y-7.970 E0.05856
G1 X8.728 Y-6.813 E0.12000
G1 X9.175 Y-6.198 E0.05856
G1 X9.953 Y-4.850 E0.12000
G1 X10.263 Y-4.156 E0.05856
G1 X10.745 Y-2.673 E0.12016
G1 X10.903 Y-1.929 E0.05863
G1 X11.066 Y-0.380 E0.12000
G1 X11.066 Y0.380 E0.05856
G1 X10.903 Y1.927 E0.11990
G1 X10.745 Y2.671 E0.05860
G1 X10.263 Y4.155 E0.12029
G1 X9.953 Y4.850 E0.05862
G1 X9.175 Y6.198 E0.12000
G1 X8.728 Y6.813 E0.05856
G1 X7.686 Y7.970 E0.12000
G1 X7.121 Y8.478 E0.05856
G1 X5.861 Y9.394 E0.12000
G1 X5.203 Y9.773 E0.05856
G1 X3.780 Y10.407 E0.12000
G1 X3.058 Y10.641 E0.05856
G1 X1.534 Y10.965 E0.12000
G1 X0.779 Y11.045 E0.05856
G1 X-0.779 Y11.045 E0.12002
G1 X-1.534 Y10.965 E0.05856
G1 X-3.058 Y10.641 E0.12000
G1 X-3.780 Y10.407 E0.05856
G1 X-5.203 Y9.773 E0.12000
G1 X-5.861 Y9.394 E0.05856
G1 X-7.121 Y8.478 E0.12000
G1 X-7.686 Y7.970 E0.05856
G1 X-8.728 Y6.813 E0.12000
G1 X-9.175 Y6.198 E0.05856
G1 X-9.953 Y4.850 E0.12000
G1 X-10.263 Y4.156 E0.05857
G1 X-10.745 Y2.673 E0.12017
G1 X-10.903 Y1.928 E0.05864
G1 X-11.066 Y0.380 E0.12001
G1 X-11.066 Y-0.380 E0.05856
G1 X-10.903 Y-1.928 E0.11994
G1 X-10.745 Y-2.672 E0.05862
G1 X-10.263 Y-4.155 E0.12022
G1 X-9.953 Y-4.850 E0.05858
G1 X-9.175 Y-6.198 E0.12000
G1 X-8.728 Y-6.813 E0.05856
G1 X-7.686 Y-7.970 E0.12000
G1 X-7.121 Y-8.478 E0.05853
G1 X-5.866 Y-9.390 E0.11954
G1 X-5.210 Y-9.769 E0.05840
G1 X-3.783 Y-10.406 E0.12046
G1 X-3.058 Y-10.641 E0.05875
G1 X-1.540 Y-10.964 E0.11954
G1 X-0.785 Y-11.043 E0.05857
G1 X-0.060 Y-11.043 E0.05584
G1 E-3.50000 F1500.00000
G1 Z0.700 F15000.000
G1 X-0.060 Y3.600 F15000.000
G1 Z0.300 F15000.000
G1 E3.50000 F1500.00000
G1 X1.650 Y3.600 E0.13178 F2400.000
G1 X1.650 Y5.900 E0.17725
G1 X-2.150 Y5.900 E0.29285
G1 X-2.150 Y3.600 E0.17725
G1 X-0.120 Y3.600 E0.15644 F2400.000
G1 X0.140 Y3.254 F15000.000
G1 X-0.120 Y-3.600 F15000.000
G1 X-2.150 Y-3.600 E0.15644 F2400.000
G1 X-2.150 Y-5.900 E0.17725
G1 X1.650 Y-5.900 E0.29285 F2400.000
G1 X1.650 Y-3.600 E0.17725
G1 X-0.060 Y-3.600 E0.13178
G1 X-0.320 Y-3.254 F15000.000
G1 X2.286 Y6.004 F15000.000
G1 X2.286 Y2.964 E0.23422 F2400.000
G1 X-2.786 Y2.964 E0.39082
G1 X-2.786 Y5.791 E0.21784
G1 X-3.229 Y5.594 E0.03740
G1 X-4.321 Y4.800 E0.10404
G1 X-5.225 Y3.797 E0.10404
G1 X-5.900 Y2.628 E0.10404
G1 X-6.318 Y1.342 E0.10420
G1 X-6.459 Y-0.000 E0.10404
G1 X-6.318 Y-1.342 E0.10397
G1 X-5.900 Y-2.628 E0.10424
G1 X-5.225 Y-3.797 E0.10403
G1 X-4.321 Y-4.800 E0.10404
G1 X-3.234 Y-5.591 E0.10360
G1 X-2.786 Y-5.790 E0.03780
G1 X-2.786 Y-2.964 E0.21778
G1 X2.286 Y-2.964 E0.39082
G1 X2.286 Y-6.014 E0.23499
G1 X3.229 Y-5.594 E0.07957
G1 X4.321 Y-4.800 E0.10404 F2400.000
G1 X5.225 Y-3.797 E0.10404
G1 X5.900 Y-2.628 E0.10403
G1 X6.318 Y-1.343 E0.10418
G1 X6.459 Y-0.000 E0.10403
G1 X6.318 Y1.341 E0.10393
G1 X5.900 Y2.628 E0.10431
G1 X5.225 Y3.797 E0.10403
G1 X4.321 Y4.800 E0.10404
G1 X3.229 Y5.594 E0.10404
G1 X2.331 Y5.993 E0.07572
G1 X2.590 Y6.574 F15000.000
G1 X2.193 Y6.751 E0.03346 F2400.000
G1 X0.742 Y7.059 E0.11433
G1 X-0.742 Y7.059 E0.11435
G1 X-2.193 Y6.751 E0.11433
G1 X-3.548 Y6.147 E0.11433
G1 X-4.749 Y5.275 E0.11433
G1 X-5.742 Y4.173 E0.11433
G1 X-6.484 Y2.888 E0.11433
G1 X-6.943 Y1.475 E0.11450
G1 X-7.098 Y-0.000 E0.11434
G1 X-6.943 Y-1.475 E0.11427
G1 X-6.484 Y-2.888 E0.11454
G1 X-5.742 Y-4.173 E0.11433
G1 X-4.749 Y-5.275 E0.11433
G1 X-3.553 Y-6.144 E0.11388
G1 X-2.193 Y-6.751 E0.11479
G1 X-0.748 Y-7.058 E0.11386
G1 X0.748 Y-7.058 E0.11525
G1 X2.193 Y-6.751 E0.11387
G1 X3.548 Y-6.147 E0.11433 F2400.000
G1 X4.749 Y-5.275 E0.11433
G1 X5.742 Y-4.173 E0.11433
G1 X6.484 Y-2.888 E0.11433
G1 X6.943 Y-1.476 E0.11449
G1 X7.098 Y-0.000 E0.11433
G1 X6.943 Y1.474 E0.11423
G1 X6.484 Y2.888 E0.11461
G1 X5.742 Y4.173 E0.11433
G1 X4.749 Y5.275 E0.11433
G1 X3.548 Y6.147 E0.11433
G1 X2.645 Y6.550 E0.07624
G1 X2.266 Y6.339 F15000.000
G1 X1.381 Y6.406 F15000.000
G1 X0.681 Y6.479 E0.11406 F2400.000
G1 X-0.681 Y6.479 E0.22056
G1 X-1.381 Y6.406 E0.11406
G1 X-1.381 Y6.406 F15000.000
G1 X-2.058 Y6.335 E0.05242 F2400.000
G1 X-2.468 Y6.248 E0.03229
G1 X-4.363 Y3.991 F15000.000
G1 X-3.733 Y4.622 E0.07100 F2400.000
G1 X-3.171 Y4.255 E0.05337
G1 X-5.755 Y1.671 E0.29081
G1 X-6.005 Y0.493 E0.09583
G1 X-3.171 Y3.327 E0.31891
G1 X-2.991 Y2.579 E0.06122
G1 X-6.036 Y-0.466 E0.34273
G1 X-5.948 Y-1.306 E0.06722
G1 X-2.062 Y2.579 E0.43727
G1 X-1.134 Y2.579 E0.07387
G1 X-5.730 Y-2.017 E0.51726
G1 X-5.476 Y-2.691 E0.05732
G1 X-0.206 Y2.579 E0.59309
G1 X0.722 Y2.579 E0.07387
G1 X-5.136 Y-3.279 E0.65931
G1 X-3.823 Y-4.752 F15000.000
G1 X-3.171 Y-4.099 E0.07342 F2400.000
G1 X-3.171 Y-3.171 E0.07387
G1 X-4.312 Y-4.312 E0.12841
G1 X-4.755 Y-3.826 E0.05229
G1 X1.651 Y2.579 E0.72088
G1 X3.286 Y5.142 F15000.000
G1 X2.671 Y4.528 E0.06918 F2400.000
G1 X2.671 Y3.599 E0.07387
G1 X3.823 Y4.752 E0.12969
G1 X4.312 Y4.312 E0.05231
G1 X-2.579 Y-2.579 E0.77555
G1 X-1.651 Y-2.579 E0.07387
G1 X4.755 Y3.826 E0.72088
G1 X5.136 Y3.279 E0.05306
G1 X-0.722 Y-2.579 E0.65931
G1 X0.206 Y-2.579 E0.07387
G1 X5.476 Y2.691 E0.59309
G1 X5.730 Y2.017 E0.05732
G1 X1.134 Y-2.579 E0.51726
G1 X2.062 Y-2.579 E0.07387
G1 X5.948 Y1.306 E0.43727
G1 X6.036 Y0.466 E0.06722
G1 X2.671 Y-2.898 E0.37869
G1 X2.671 Y-3.827 E0.07387
G1 X6.005 Y-0.493 E0.37519
G1 X5.755 Y-1.671 E0.09583
G1 X2.671 Y-4.755 E0.34708
G1 X3.733 Y-4.622 E0.08514
G1 X4.364 Y-3.991 E0.07102
G1 X1.382 Y-6.406 F15000.000
G1 X0.687 Y-6.479 E0.11312 F2400.000
G1 X-0.687 Y-6.479 E0.22248
G1 X-1.382 Y-6.406 E0.11312
G1 X-1.382 Y-6.406 F15000.000
G1 X-2.058 Y-6.335 E0.05239 F2400.000
G1 X-2.468 Y-6.248 E0.03231
G1 E-3.50000 F1500.00000
G1 Z0.700 F15000.000
G1 X-2.357 Y3.393 F15000.000
G1 Z0.500 F15000.000
G1 E3.50000 F1500.00000
G1 X1.857 Y3.393 E0.12163 F2400.000
G1 X1.857 Y6.107 E0.07834
G1 X-2.357 Y6.107 E0.12163
G1 X-2.357 Y3.453 E0.07661
G1 X-2.000 Y3.750 F15000.000
G1 X1.500 Y3.750 E0.10102 F2400.000
G1 X1.500 Y5.750 E0.05773
G1 X-2.000 Y5.750 E0.10102
G1 X-2.000 Y3.810 E0.05599
G1 X-2.000 Y3.350 F15000.000
G1 X-2.000 Y-3.393 F15000.000
G1 X-2.357 Y-3.393 E0.01031 F2400.000
G1 X-2.357 Y-6.107 E0.07834
G1 X1.857 Y-6.107 E0.12163 F2400.000
G1 X1.857 Y-3.393 E0.07834
G1 X-1.940 Y-3.393 E0.10959
G1 X-1.940 Y-3.750 F15000.000
G1 X-2.000 Y-3.750 E0.00173 F2400.000
G1 X-2.000 Y-5.750 E0.05773
G1 X1.500 Y-5.750 E0.10102 F2400.000
G1 X1.500 Y-3.750 E0.05773
G1 X-1.880 Y-3.750 E0.09756
G1 X-1.970 Y-3.698 F15000.000
G1 X5.547 Y-4.080 F15000.000
G1 X6.291 Y-2.808 E0.04256 F2400.000
G1 X6.739 Y-1.433 E0.04171
G1 X6.890 Y-0.000 E0.04160
G1 X6.741 Y1.420 E0.04121
G1 X6.291 Y2.808 E0.04211
G1 X5.571 Y4.053 E0.04153
G1 X4.607 Y5.122 E0.04154
G1 X3.443 Y5.968 E0.04154
G1 X2.128 Y6.553 E0.04154
G1 X0.720 Y6.852 E0.04154
G1 X-0.720 Y6.852 E0.04155
G1 X-2.128 Y6.553 E0.04154
G1 X-3.443 Y5.968 E0.04154
G1 X-4.607 Y5.122 E0.04154
G1 X-5.571 Y4.053 E0.04154
G1 X-6.291 Y2.808 E0.04154
G1 X-6.739 Y1.433 E0.04173
G1 X-6.890 Y-0.000 E0.04159
G1 X-6.741 Y-1.424 E0.04130
G1 X-6.291 Y-2.808 E0.04201
G1 X-5.571 Y-4.053 E0.04153
G1 X-4.607 Y-5.123 E0.04154
G1 X-3.462 Y-5.954 E0.04085
G1 X-2.127 Y-6.553 E0.04224
G1 X-0.744 Y-6.847 E0.04080
G1 X0.744 Y-6.847 E0.04294
G1 X2.128 Y-6.553 E0.04083
G1 X3.443 Y-5.968 E0.04154 F2400.000
G1 X4.607 Y-5.122 E0.04154
G1 X5.506 Y-4.125 E0.03876
G1 X5.772 Y-4.364 F15000.000
G1 X5.861 Y-4.265 E0.00386 F2400.000
G1 X6.619 Y-2.954 E0.04370
G1 X7.090 Y-1.508 E0.04388
G1 X7.249 Y-0.000 E0.04377
G1 X7.092 Y1.494 E0.04337
G1 X6.619 Y2.954 E0.04429
G1 X5.861 Y4.265 E0.04370
G1 X4.847 Y5.389 E0.04371
G1 X3.622 Y6.279 E0.04371
G1 X2.238 Y6.894 E0.04371
G1 X0.757 Y7.209 E0.04371
G1 X-0.757 Y7.209 E0.04371
G1 X-2.238 Y6.894 E0.04371
G1 X-3.622 Y6.279 E0.04371
G1 X-4.847 Y5.389 E0.04371
G1 X-5.861 Y4.265 E0.04371
G1 X-6.619 Y2.954 E0.04370
G1 X-7.090 Y1.508 E0.04390
G1 X-7.249 Y-0.000 E0.04376
G1 X-7.092 Y-1.498 E0.04347
G1 X-6.619 Y-2.954 E0.04418
G1 X-5.861 Y-4.265 E0.04370
G1 X-4.847 Y-5.389 E0.04371
G1 X-3.642 Y-6.265 E0.04300
G1 X-2.238 Y-6.894 E0.04441
G1 X-0.781 Y-7.204 E0.04298
G1 X0.781 Y-7.204 E0.04511
G1 X2.238 Y-6.894 E0.04299
G1 X3.622 Y-6.279 E0.04371 F2400.000
G1 X4.847 Y-5.389 E0.04371
G1 X5.732 Y-4.409 E0.03811
G1 X5.730 Y-4.237 F15000.000
G1 X2.036 Y-6.337 F15000.000
G1 X1.504 Y-6.393 E0.01543 F2400.000
G1 X0.705 Y-6.477 E0.04915 F2400.000
G1 X-0.705 Y-6.477 E0.08629
G1 X-1.504 Y-6.393 E0.04915
G1 X-1.504 Y-6.393 F15000.000
G1 X-2.056 Y-6.335 E0.01601 F2400.000
G1 X-2.243 Y-6.295 E0.00552
G1 X-4.237 Y-5.062 F15000.000
G1 X-4.752 Y-4.547 E0.02150 F2400.000
G1 X-6.025 Y-2.757 F15000.000
G1 X-2.800 Y-5.983 E0.13469 F2400.000
G1 X-2.565 Y-5.701 E0.01083
G1 X-6.326 Y-1.939 E0.15707
G1 X-6.547 Y-1.202 E0.02271
G1 X-2.565 Y-5.184 E0.16627
G1 X-2.565 Y-4.668 E0.01525
G1 X-6.607 Y-0.625 E0.16879
G1 X-6.668 Y-0.048 E0.01713
G1 X-2.565 Y-4.151 E0.17132
G1 X-2.565 Y-3.634 E0.01525
G1 X-6.642 Y0.443 E0.17025
G1 X-6.593 Y0.910 E0.01388
G1 X-2.497 Y-3.185 E0.17101
G1 X-1.981 Y-3.185 E0.01525
G1 X-6.544 Y1.378 E0.19053
G1 X-6.429 Y1.779 E0.01233
G1 X-1.464 Y-3.185 E0.20730
G1 X-0.948 Y-3.185 E0.01525
G1 X-6.302 Y2.169 E0.22357
G1 X-6.175 Y2.559 E0.01210
G1 X-0.431 Y-3.185 E0.23984
G1 X0.086 Y-3.185 E0.01525
G1 X-6.019 Y2.919 E0.25490
G1 X-5.830 Y3.247 E0.01116
G1 X0.602 Y-3.185 E0.26857
G1 X1.119 Y-3.185 E0.01525
G1 X-5.640 Y3.574 E0.28224
G1 X-5.451 Y3.901 E0.01116
G1 X1.635 Y-3.185 E0.29591
G1 X2.065 Y-5.681 F15000.000
G1 X2.549 Y-6.165 E0.02020 F2400.000
G1 X2.906 Y-6.006 E0.01155
G1 X2.065 Y-5.164 E0.03513
G1 X2.065 Y-4.648 E0.01525
G1 X3.264 Y-5.847 E0.05006
G1 X3.581 Y-5.648 E0.01107
G1 X2.065 Y-4.131 E0.06332
G1 X2.065 Y-3.615 E0.01525
G1 X3.881 Y-5.430 E0.07582
G1 X4.180 Y-5.213 E0.01092
G1 X-5.216 Y4.183 E0.39236
G1 X-4.971 Y4.455 E0.01080
G1 X4.467 Y-4.983 E0.39411
G1 X4.725 Y-4.725 E0.01079
G1 X-4.725 Y4.725 E0.39461
G1 X-4.467 Y4.983 E0.01079
G1 X4.971 Y-4.455 E0.39411
G1 X5.216 Y-4.183 E0.01080
G1 X-2.152 Y3.185 E0.30768
G1 X-1.635 Y3.185 E0.01525
G1 X5.451 Y-3.901 E0.29591
G1 X5.640 Y-3.574 E0.01116
G1 X-1.119 Y3.185 E0.28224
G1 X-0.602 Y3.185 E0.01525
G1 X5.830 Y-3.247 E0.26857
G1 X6.019 Y-2.919 E0.01116
G1 X-0.086 Y3.185 E0.25490
G1 X0.431 Y3.185 E0.01525
G1 X6.175 Y-2.559 E0.23984
G1 X6.302 Y-2.169 E0.01210
G1 X0.948 Y3.185 E0.22357
G1 X1.464 Y3.185 E0.01525
G1 X6.429 Y-1.779 E0.20730
G1 X6.544 Y-1.378 E0.01234
G1 X1.981 Y3.185 E0.19053
G1 X2.065 Y3.618 E0.01301
G1 X6.593 Y-0.910 E0.18907
G1 X6.642 Y-0.443 E0.01388
G1 X2.065 Y4.134 E0.19112
G1 X2.065 Y4.651 E0.01525
G1 X6.668 Y0.048 E0.19220
G1 X6.607 Y0.625 E0.01713
G1 X2.065 Y5.168 E0.18967
G1 X2.065 Y5.684 E0.01525
G1 X6.547 Y1.202 E0.18715
G1 X6.326 Y1.940 E0.02273
G1 X2.208 Y6.058 E0.17197
G1 X2.794 Y5.988 E0.01744
G1 X6.025 Y2.757 E0.13493
G1 X4.752 Y4.546 F15000.000
G1 X4.237 Y5.061 E0.02150 F2400.000
G1 E-3.50000 F1500.00000
G1 Z0.900 F15000.000
G1 X-2.565 Y3.598 F15000.000
G1 Z0.500 F15000.000
G1 E3.50000 F1500.00000
G1 X-4.180 Y5.213 E0.06744 F2400.000
G1 X-3.881 Y5.430 E0.01092
G1 X-2.565 Y4.115 E0.05494
G1 X-2.565 Y4.631 E0.01525
G1 X-3.581 Y5.648 E0.04244
G1 X-3.264 Y5.847 E0.01107
G1 X-2.565 Y5.148 E0.02918
G1 X-2.565 Y5.664 E0.01525
G1 X-2.906 Y6.006 E0.01425
G1 X1.503 Y6.393 F15000.000
G1 X2.036 Y6.337 E0.01545 F2400.000
G1 X1.503 Y6.393 F15000.000
G1 X0.681 Y6.479 E0.05062 F2400.000
G1 X-0.681 Y6.479 E0.08330
G1 X-1.503 Y6.393 E0.05062
G1 X-2.057 Y6.335 E0.01606 F2400.000
G1 X-2.244 Y6.295 E0.00553
G1 E-3.50000 F1500.00000
G1 Z0.900 F15000.000
G1 X-2.244 Y6.107 F15000.000
G1 Z0.700 F15000.000
G1 E3.50000 F1500.00000
G1 X-2.357 Y6.107 E0.00325 F2400.000
G1 X-2.357 Y3.393 E0.07834
G1 X1.857 Y3.393 E0.12163 F2400.000
G1 X1.857 Y6.107 E0.07834
G1 X-2.184 Y6.107 E0.11665
G1 X-2.000 Y5.750 F15000.000
G1 X-2.000 Y3.750 E0.05773 F2400.000
G1 X1.500 Y3.750 E0.10102 F2400.000
G1 X1.500 Y5.750 E0.05773
G1 X-1.940 Y5.750 E0.09929
G1 X-2.400 Y5.750 F15000.000
G1 X-1.940 Y-3.393 F15000.000
G1 X-2.357 Y-3.393 E0.01204 F2400.000
G1 X-2.357 Y-6.107 E0.07834
G1 X1.857 Y-6.107 E0.12163 F2400.000
G1 X1.857 Y-3.393 E0.07834
G1 X-1.880 Y-3.393 E0.10786
G1 X-1.880 Y-3.750 F15000.000
G1 X-2.000 Y-3.750 E0.00346 F2400.000
G1 X-2.000 Y-5.750 E0.05773
G1 X1.500 Y-5.750 E0.10102 F2400.000
G1 X1.500 Y-3.750 E0.05773
G1 X-1.820 Y-3.750 E0.09582
G1 X-1.940 Y-3.646 F15000.000
G1 X-6.865 Y-0.240 F15000.000
G1 X-6.742 Y-1.417 E0.03415 F2400.000
G1 X-6.290 Y-2.811 E0.04230
G1 X-5.569 Y-4.056 E0.04150
G1 X-4.605 Y-5.124 E0.04153
G1 X-3.473 Y-5.947 E0.04041
G1 X-2.125 Y-6.553 E0.04265
G1 X-0.758 Y-6.844 E0.04034
G1 X0.758 Y-6.844 E0.04377
G1 X2.127 Y-6.553 E0.04038
G1 X3.441 Y-5.969 E0.04152 F2400.000
G1 X4.606 Y-5.124 E0.04152
G1 X5.569 Y-4.056 E0.04152
G1 X6.290 Y-2.811 E0.04152
G1 X6.739 Y-1.434 E0.04180
G1 X6.890 Y0.000 E0.04162
G1 X6.743 Y1.411 E0.04096
G1 X6.290 Y2.811 E0.04247
G1 X5.569 Y4.056 E0.04150
G1 X4.606 Y5.124 E0.04152
G1 X3.441 Y5.969 E0.04152
G1 X2.127 Y6.553 E0.04152
G1 X0.719 Y6.852 E0.04152
G1 X-0.719 Y6.852 E0.04153
G1 X-2.127 Y6.553 E0.04152
G1 X-3.441 Y5.969 E0.04152
G1 X-4.606 Y5.124 E0.04152
G1 X-5.569 Y4.056 E0.04152
G1 X-6.290 Y2.811 E0.04152
G1 X-6.739 Y1.433 E0.04183
G1 X-6.890 Y-0.000 E0.04160
G1 X-6.871 Y-0.181 E0.00523
G1 X-7.226 Y-0.218 F15000.000
G1 X-7.093 Y-1.492 E0.03696 F2400.000
G1 X-6.618 Y-2.957 E0.04448
G1 X-5.859 Y-4.267 E0.04368
G1 X-4.846 Y-5.391 E0.04369
G1 X-3.653 Y-6.258 E0.04255
G1 X-2.237 Y-6.895 E0.04481
G1 X-0.796 Y-7.201 E0.04253
G1 X0.796 Y-7.201 E0.04594
G1 X2.237 Y-6.895 E0.04254
G1 X3.620 Y-6.280 E0.04369 F2400.000
G1 X4.846 Y-5.391 E0.04369
G1 X5.859 Y-4.267 E0.04369
G1 X6.618 Y-2.957 E0.04368
G1 X7.090 Y-1.509 E0.04397
G1 X7.249 Y-0.000 E0.04379
G1 X7.094 Y1.486 E0.04312
G1 X6.618 Y2.957 E0.04465
G1 X5.859 Y4.267 E0.04368
G1 X4.846 Y5.391 E0.04369
G1 X3.620 Y6.280 E0.04369
G1 X2.237 Y6.895 E0.04369
G1 X0.757 Y7.209 E0.04369
G1 X-0.757 Y7.209 E0.04369
G1 X-2.237 Y6.895 E0.04369
G1 X-3.620 Y6.280 E0.04369
G1 X-4.846 Y5.391 E0.04369
G1 X-5.859 Y4.267 E0.04369
G1 X-6.618 Y2.957 E0.04368
G1 X-7.090 Y1.508 E0.04400
G1 X-7.249 Y-0.000 E0.04377
G1 X-7.232 Y-0.158 E0.00458
G1 X-6.861 Y-0.381 F15000.000
G1 X-2.241 Y-6.295 F15000.000
G1 X-2.054 Y-6.335 E0.00553 F2400.000
G1 X-1.504 Y-6.393 E0.01595
G1 X-1.504 Y-6.393 F15000.000
G1 X-0.720 Y-6.476 E0.04829 F2400.000
G1 X0.720 Y-6.476 E0.08806
G1 X1.504 Y-6.393 E0.04829
G1 X1.504 Y-6.393 F15000.000
G1 X2.036 Y-6.337 E0.01542 F2400.000
G1 E-3.50000 F1500.00000
G1 Z1.100 F15000.000
G1 X0.354 Y-3.185 F15000.000
G1 Z0.700 F15000.000
G1 E3.50000 F1500.00000
G1 X6.155 Y2.616 E0.23681 F2400.000
G1 X6.624 Y-0.465 E0.08996
G1 X2.065 Y-3.561 E0.15905
G1 X2.445 Y-6.143 E0.07533
G1 X6.171 Y-2.417 E0.15208
G1 X1.674 Y3.185 F15000.000
G1 X-5.437 Y-3.925 E0.29024 F2400.000
G1 X-6.592 Y-0.921 E0.09290
G1 X-0.521 Y3.185 E0.21155
G1 X-2.565 Y3.996 F15000.000
G1 X-6.676 Y-0.115 E0.16783 F2400.000
G1 X-5.199 Y-4.203 F15000.000
G1 X5.842 Y3.225 E0.38408 F2400.000
G1 X3.903 Y5.414 E0.08442
G1 X2.065 Y3.576 E0.07503
G1 X2.065 Y4.863 F15000.000
G1 X3.381 Y5.792 E0.04652 F2400.000
G1 X-2.565 Y6.032 F15000.000
G1 X-4.812 Y4.480 E0.07883 F2400.000
G1 E-3.50000 F1500.00000
G1 Z1.100 F15000.000
G1 X1.503 Y6.393 F15000.000
G1 Z0.700 F15000.000
G1 E3.50000 F1500.00000
G1 X2.036 Y6.337 E0.01544 F2400.000
G1 X1.503 Y6.393 F15000.000
G1 X0.680 Y6.480 E0.05065 F2400.000
G1 X-0.680 Y6.480 E0.08326
G1 X-1.504 Y6.393 E0.05065
G1 X-1.504 Y6.393 F15000.000
G1 X-2.056 Y6.335 E0.01603 F2400.000
G1 X-2.244 Y6.295 E0.00556
