; generated by Slic3r 1.2.9 on 2019-11-21 at 11:57:55

; external perimeters extrusion width = 0.40mm
; perimeters extrusion width = 0.40mm
; infill extrusion width = 0.40mm
; solid infill extrusion width = 0.40mm
; top infill extrusion width = 0.40mm

M107
M83
T0
M116
G21 ; set units to millimeters
G90 ; use absolute coordinates
M83 ; use relative distances for extrusion
G1 E-4.20000 F1500.00000
G1 Z1.000 F15000.000
G1 X20.021 Y-20.021 F15000.000
G1 Z0.300 F15000.000
G1 E4.20000 F1500.00000
G1 X32.521 Y-7.521 E1.36234 F960.000
G1 X33.406 Y-6.077 E0.13052
G1 X33.586 Y-4.950 E0.08796
G1 X33.586 Y4.950 E0.76295
G1 X33.191 Y6.597 E0.13052
G1 X32.521 Y7.521 E0.08796
G1 X7.521 Y32.521 E2.72468
G1 X6.077 Y33.406 E0.13052
G1 X4.950 Y33.586 E0.08796
G1 X-4.950 Y33.586 E0.76295
G1 X-6.597 Y33.191 E0.13052
G1 X-7.521 Y32.521 E0.08796
G1 X-32.521 Y7.521 E2.72468
G1 X-33.406 Y6.077 E0.13052
G1 X-33.586 Y4.950 E0.08796
G1 X-33.586 Y-4.950 E0.76295
G1 X-33.191 Y-6.597 E0.13052
G1 X-32.521 Y-7.521 E0.08796
G1 X-7.521 Y-32.521 E2.72468
G1 X-6.077 Y-33.406 E0.13052
G1 X-4.950 Y-33.586 E0.08796
G1 X4.950 Y-33.586 E0.76295
G1 X6.597 Y-33.191 E0.13052
G1 X7.521 Y-32.521 E0.08796 F960.000
G1 X19.978 Y-20.063 E1.35771
G1 E-4.20000 F1500.00000
G1 Z1.300 F15000.000
G1 X-3.964 Y-22.201 F15000.000
G1 Z0.300 F15000.000
G1 E4.20000 F1500.00000
G1 X-3.964 Y-28.964 E0.52123 F720.000
G1 X3.964 Y-28.964 E0.61103
G1 X3.964 Y-3.964 E1.92664
G1 X28.964 Y-3.964 E1.92664 F720.000
G1 X28.964 Y3.964 E0.61103
G1 X3.964 Y3.964 E1.92664
G1 X3.964 Y28.964 E1.92664
G1 X-3.964 Y28.964 E0.61103
G1 X-3.964 Y3.964 E1.92664
G1 X-28.964 Y3.964 E1.92664
G1 X-28.964 Y-3.964 E0.61103
G1 X-3.964 Y-3.964 E1.92664
G1 X-3.964 Y-22.141 E1.40079
G1 X-4.600 Y-22.141 F15000.000
G1 X-4.600 Y-29.600 E0.57483 F720.000
G1 X4.600 Y-29.600 E0.70900
G1 X4.600 Y-4.600 E1.92664
G1 X29.600 Y-4.600 E1.92664 F720.000
G1 X29.600 Y4.600 E0.70900
G1 X4.600 Y4.600 E1.92664
G1 X4.600 Y29.600 E1.92664
G1 X-4.600 Y29.600 E0.70900
G1 X-4.600 Y4.600 E1.92664
G1 X-29.600 Y4.600 E1.92664
G1 X-29.600 Y-4.600 E0.70900
G1 X-4.600 Y-4.600 E1.92664
G1 X-4.600 Y-22.081 E1.34718
G1 X-4.254 Y-22.341 F15000.000
G1 X3.579 Y-28.269 F15000.000
G1 X3.269 Y-28.579 E0.03417 F960.000
G1 X2.359 Y-28.579 E0.07099
G1 X3.579 Y-27.359 E0.13456
G1 X3.579 Y-26.449 E0.07099
G1 X1.449 Y-28.579 E0.23495
G1 X0.539 Y-28.579 E0.07099
G1 X3.579 Y-25.539 E0.33534
G1 X3.579 Y-24.629 E0.07099
G1 X-0.371 Y-28.579 E0.43573
G1 X-1.280 Y-28.579 E0.07099
G1 X3.579 Y-23.720 E0.53612
G1 X3.579 Y-22.810 E0.07099
G1 X-2.190 Y-28.579 E0.63652
G1 X-3.100 Y-28.579 E0.07099
G1 X3.579 Y-21.900 E0.73691
G1 X3.579 Y-20.990 E0.07099
G1 X-3.579 Y-28.148 E0.78971
G1 X-3.579 Y-27.238 E0.07099
G1 X3.579 Y-20.080 E0.78971
G1 X3.579 Y-19.170 E0.07099
G1 X-3.579 Y-26.328 E0.78971
G1 X-3.579 Y-25.418 E0.07099
G1 X3.579 Y-18.260 E0.78971
G1 X3.579 Y-17.350 E0.07099
G1 X-3.579 Y-24.508 E0.78971
G1 X-3.579 Y-23.598 E0.07099
G1 X3.579 Y-16.440 E0.78971
G1 X3.579 Y-15.530 E0.07099
G1 X-3.579 Y-22.688 E0.78971
G1 X-3.579 Y-21.778 E0.07099
G1 X3.579 Y-14.620 E0.78971
G1 X3.579 Y-13.710 E0.07099
G1 X-3.579 Y-20.868 E0.78971
G1 X-3.579 Y-19.958 E0.07099
G1 X3.579 Y-12.800 E0.78971
G1 X3.579 Y-11.890 E0.07099
G1 X-3.579 Y-19.048 E0.78971
G1 X-3.579 Y-18.138 E0.07099
G1 X3.579 Y-10.980 E0.78971
G1 X3.579 Y-10.070 E0.07099
G1 X-3.579 Y-17.228 E0.78971
G1 X-3.579 Y-16.318 E0.07099
G1 X3.579 Y-9.160 E0.78971
G1 X3.579 Y-8.250 E0.07099
G1 X-3.579 Y-15.408 E0.78971
G1 X-3.579 Y-14.498 E0.07099
G1 X3.579 Y-7.340 E0.78971
G1 X3.579 Y-6.430 E0.07099
G1 X-3.579 Y-13.588 E0.78971
G1 X-3.579 Y-12.678 E0.07099
G1 X3.579 Y-5.521 E0.78971
G1 X3.579 Y-4.611 E0.07099
G1 X-3.579 Y-11.768 E0.78971
G1 X-3.579 Y-10.859 E0.07099
G1 X10.859 Y3.579 E1.59284
G1 X11.768 Y3.579 E0.07099
G1 X4.611 Y-3.579 E0.78971
G1 X5.521 Y-3.579 E0.07099
G1 X12.678 Y3.579 E0.78971
G1 X13.588 Y3.579 E0.07099
G1 X6.430 Y-3.579 E0.78971
G1 X7.340 Y-3.579 E0.07099
G1 X14.498 Y3.579 E0.78971
G1 X15.408 Y3.579 E0.07099
G1 X8.250 Y-3.579 E0.78971
G1 X9.160 Y-3.579 E0.07099
G1 X16.318 Y3.579 E0.78971
G1 X17.228 Y3.579 E0.07099
G1 X10.070 Y-3.579 E0.78971
G1 X10.980 Y-3.579 E0.07099
G1 X18.138 Y3.579 E0.78971
G1 X19.048 Y3.579 E0.07099
G1 X11.890 Y-3.579 E0.78971
G1 X12.800 Y-3.579 E0.07099
G1 X19.958 Y3.579 E0.78971
G1 X20.868 Y3.579 E0.07099
G1 X13.710 Y-3.579 E0.78971
G1 X14.620 Y-3.579 E0.07099
G1 X21.778 Y3.579 E0.78971
G1 X22.688 Y3.579 E0.07099
G1 X15.530 Y-3.579 E0.78971
G1 X16.440 Y-3.579 E0.07099
G1 X23.598 Y3.579 E0.78971
G1 X24.508 Y3.579 E0.07099
G1 X17.350 Y-3.579 E0.78971
G1 X18.260 Y-3.579 E0.07099
G1 X25.418 Y3.579 E0.78971
G1 X26.328 Y3.579 E0.07099
G1 X19.170 Y-3.579 E0.78971
G1 X20.080 Y-3.579 E0.07099
G1 X27.238 Y3.579 E0.78971
G1 X28.148 Y3.579 E0.07099
G1 X20.990 Y-3.579 E0.78971
G1 X21.900 Y-3.579 E0.07099
G1 X28.579 Y3.100 E0.73691
G1 X28.579 Y2.190 E0.07099
G1 X22.810 Y-3.579 E0.63652
G1 X23.720 Y-3.579 E0.07099
G1 X28.579 Y1.280 E0.53612
G1 X28.579 Y0.371 E0.07099
G1 X24.629 Y-3.579 E0.43573
G1 X25.539 Y-3.579 E0.07099
G1 X28.579 Y-0.539 E0.33534
G1 X28.579 Y-1.449 E0.07099
G1 X26.449 Y-3.579 E0.23495
G1 X27.359 Y-3.579 E0.07099
G1 X28.579 Y-2.359 E0.13456
G1 X28.579 Y-3.269 E0.07099
G1 X28.269 Y-3.579 E0.03416
G1 X9.949 Y3.579 F15000.000
G1 X-3.579 Y-9.949 E1.49245 F960.000
G1 X-3.579 Y-9.039 E0.07099
G1 X9.039 Y3.579 E1.39206
G1 X8.129 Y3.579 E0.07099
G1 X-3.579 Y-8.129 E1.29167
G1 X-3.579 Y-7.219 E0.07099
G1 X7.219 Y3.579 E1.19127
G1 X6.309 Y3.579 E0.07099
G1 X-3.579 Y-6.309 E1.09088
G1 X-3.579 Y-5.399 E0.07099
G1 X5.399 Y3.579 E0.99049
G1 X4.489 Y3.579 E0.07099
G1 X-3.579 Y-4.489 E0.89010
G1 X-3.579 Y-3.579 E0.07099
G1 X3.579 Y3.579 E0.78971
G1 X3.579 Y4.489 E0.07099
G1 X-4.489 Y-3.579 E0.89010
G1 X-5.399 Y-3.579 E0.07099
G1 X3.579 Y5.399 E0.99050
G1 X3.579 Y6.309 E0.07099
G1 X-6.309 Y-3.579 E1.09089
G1 X-7.219 Y-3.579 E0.07099
G1 X3.579 Y7.219 E1.19128
G1 X3.579 Y8.129 E0.07099
G1 X-8.129 Y-3.579 E1.29167
G1 X-9.039 Y-3.579 E0.07099
G1 X3.579 Y9.039 E1.39206
G1 X3.579 Y9.949 E0.07099
G1 X-9.949 Y-3.579 E1.49246
G1 X-10.859 Y-3.579 E0.07099
G1 X3.579 Y10.859 E1.59285
G1 X3.579 Y11.769 E0.07099
G1 X-3.579 Y4.611 E0.78971
G1 X-3.579 Y5.521 E0.07099
G1 X3.579 Y12.678 E0.78971
G1 X3.579 Y13.588 E0.07099
G1 X-3.579 Y6.431 E0.78971
G1 X-3.579 Y7.340 E0.07099
G1 X3.579 Y14.498 E0.78971
G1 X3.579 Y15.408 E0.07099
G1 X-3.579 Y8.250 E0.78971
G1 X-3.579 Y9.160 E0.07099
G1 X3.579 Y16.318 E0.78971
G1 X3.579 Y17.228 E0.07099
G1 X-3.579 Y10.070 E0.78971
G1 X-3.579 Y10.980 E0.07099
G1 X3.579 Y18.138 E0.78971
G1 X3.579 Y19.048 E0.07099
G1 X-3.579 Y11.890 E0.78971
G1 X-3.579 Y12.800 E0.07099
G1 X3.579 Y19.958 E0.78971
G1 X3.579 Y20.868 E0.07099
G1 X-3.579 Y13.710 E0.78971
G1 X-3.579 Y14.620 E0.07099
G1 X3.579 Y21.778 E0.78971
G1 X3.579 Y22.688 E0.07099
G1 X-3.579 Y15.530 E0.78971
G1 X-3.579 Y16.440 E0.07099
G1 X3.579 Y23.598 E0.78971
G1 X3.579 Y24.508 E0.07099
G1 X-3.579 Y17.350 E0.78971
G1 X-3.579 Y18.260 E0.07099
G1 X3.579 Y25.418 E0.78971
G1 X3.579 Y26.328 E0.07099
G1 X-3.579 Y19.170 E0.78971
G1 X-3.579 Y20.080 E0.07099
G1 X3.579 Y27.238 E0.78971
G1 X3.579 Y28.148 E0.07099
G1 X-3.579 Y20.990 E0.78971
G1 X-3.579 Y21.900 E0.07099
G1 X3.100 Y28.579 E0.73690
G1 X2.190 Y28.579 E0.07099
G1 X-3.579 Y22.810 E0.63651
G1 X-3.579 Y23.720 E0.07099
G1 X1.280 Y28.579 E0.53612
G1 X0.370 Y28.579 E0.07099
G1 X-3.579 Y24.630 E0.43573
G1 X-3.579 Y25.539 E0.07099
G1 X-0.539 Y28.579 E0.33534
G1 X-1.449 Y28.579 E0.07099
G1 X-3.579 Y26.449 E0.23494
G1 X-3.579 Y27.359 E0.07099
G1 X-2.359 Y28.579 E0.13455
G1 X-3.269 Y28.579 E0.07099
G1 X-3.579 Y28.269 E0.03416
G1 X-4.611 Y3.579 F15000.000
G1 X-11.769 Y-3.579 E0.78971 F960.000
G1 X-12.678 Y-3.579 E0.07099
G1 X-5.521 Y3.579 E0.78971
G1 X-6.431 Y3.579 E0.07099
G1 X-13.588 Y-3.579 E0.78971
G1 X-14.498 Y-3.579 E0.07099
G1 X-7.340 Y3.579 E0.78971
G1 X-8.250 Y3.579 E0.07099
G1 X-15.408 Y-3.579 E0.78971
G1 X-16.318 Y-3.579 E0.07099
G1 X-9.160 Y3.579 E0.78971
G1 X-10.070 Y3.579 E0.07099
G1 X-17.228 Y-3.579 E0.78971
G1 X-18.138 Y-3.579 E0.07099
G1 X-10.980 Y3.579 E0.78971
G1 X-11.890 Y3.579 E0.07099
G1 X-19.048 Y-3.579 E0.78971
G1 X-19.958 Y-3.579 E0.07099
G1 X-12.800 Y3.579 E0.78971
G1 X-13.710 Y3.579 E0.07099
G1 X-20.868 Y-3.579 E0.78971
G1 X-21.778 Y-3.579 E0.07099
G1 X-14.620 Y3.579 E0.78971
G1 X-15.530 Y3.579 E0.07099
G1 X-22.688 Y-3.579 E0.78971
G1 X-23.598 Y-3.579 E0.07099
G1 X-16.440 Y3.579 E0.78971
G1 X-17.350 Y3.579 E0.07099
G1 X-24.508 Y-3.579 E0.78971
G1 X-25.418 Y-3.579 E0.07099
G1 X-18.260 Y3.579 E0.78971
G1 X-19.170 Y3.579 E0.07099
G1 X-26.328 Y-3.579 E0.78971
G1 X-27.238 Y-3.579 E0.07099
G1 X-20.080 Y3.579 E0.78971
G1 X-20.990 Y3.579 E0.07099
G1 X-28.148 Y-3.579 E0.78971
G1 X-28.579 Y-3.100 E0.05026
G1 X-21.900 Y3.579 E0.73690
G1 X-22.810 Y3.579 E0.07099
G1 X-28.579 Y-2.190 E0.63651
G1 X-28.579 Y-1.280 E0.07099
G1 X-23.720 Y3.579 E0.53612
G1 X-24.630 Y3.579 E0.07099
G1 X-28.579 Y-0.370 E0.43573
G1 X-28.579 Y0.539 E0.07099
G1 X-25.539 Y3.579 E0.33534
G1 X-26.449 Y3.579 E0.07099
G1 X-28.579 Y1.449 E0.23494
G1 X-28.579 Y2.359 E0.07099
G1 X-27.359 Y3.579 E0.13455
G1 X-28.269 Y3.579 E0.07099
G1 X-28.579 Y3.269 E0.03416
G1 E-4.20000 F1500.00000
G1 Z1.300 F15000.000
G1 X-0.620 Y-29.393 F15000.000
G1 Z0.500 F15000.000
G1 E4.20000 F1500.00000
G1 X4.393 Y-29.393 E0.14470 F3600.000
G1 X4.393 Y-4.393 E0.72157
G1 X29.393 Y-4.393 E0.72157 F3600.000
G1 X29.393 Y4.393 E0.25358
G1 X4.393 Y4.393 E0.72157
G1 X4.393 Y29.393 E0.72157
G1 X-4.393 Y29.393 E0.25358
G1 X-4.393 Y4.393 E0.72157
G1 X-29.393 Y4.393 E0.72157
G1 X-29.393 Y-4.393 E0.25358
G1 X-4.393 Y-4.393 E0.72157
G1 X-4.393 Y-29.393 E0.72157
G1 X-0.680 Y-29.393 E0.10716
G1 X-0.680 Y-29.750 F15000.000
G1 X4.750 Y-29.750 E0.15673 F3600.000
G1 X4.750 Y-4.750 E0.72157
G1 X29.750 Y-4.750 E0.72157 F3600.000
G1 X29.750 Y4.750 E0.27420
G1 X4.750 Y4.750 E0.72157
G1 X4.750 Y29.750 E0.72157
G1 X-4.750 Y29.750 E0.27420
G1 X-4.750 Y4.750 E0.72157
G1 X-29.750 Y4.750 E0.72157
G1 X-29.750 Y-4.750 E0.27420
G1 X-4.750 Y-4.750 E0.72157
G1 X-4.750 Y-29.750 E0.72157
G1 X-0.740 Y-29.750 E0.11573
G1 X-0.480 Y-29.404 F15000.000
G1 X-4.185 Y-28.994 F15000.000
G1 X-3.994 Y-29.185 E0.00784 F4800.000
G1 X-3.487 Y-29.185 E0.01467
G1 X-4.185 Y-28.487 E0.02858
G1 X-4.185 Y-27.981 E0.01467
G1 X-2.981 Y-29.185 E0.04932
G1 X-2.474 Y-29.185 E0.01467
G1 X-4.185 Y-27.474 E0.07006
G1 X-4.185 Y-26.968 E0.01467
G1 X-1.968 Y-29.185 E0.09080
G1 X-1.461 Y-29.185 E0.01467
G1 X-4.185 Y-26.461 E0.11154
G1 X-4.185 Y-25.955 E0.01467
G1 X-0.955 Y-29.185 E0.13228
G1 X-0.448 Y-29.185 E0.01467
G1 X-4.185 Y-25.448 E0.15302
G1 X-4.185 Y-24.941 E0.01467
G1 X0.059 Y-29.185 E0.17376
G1 X0.565 Y-29.185 E0.01467
G1 X-4.185 Y-24.435 E0.19450
G1 X-4.185 Y-23.928 E0.01467
G1 X1.072 Y-29.185 E0.21524
G1 X1.578 Y-29.185 E0.01467
G1 X-4.185 Y-23.422 E0.23598
G1 X-4.185 Y-22.915 E0.01467
G1 X2.085 Y-29.185 E0.25672
G1 X2.591 Y-29.185 E0.01467
G1 X-4.185 Y-22.409 E0.27746
G1 X-4.185 Y-21.902 E0.01467
G1 X3.098 Y-29.185 E0.29820
G1 X3.604 Y-29.185 E0.01467
G1 X-4.185 Y-21.396 E0.31894
G1 X-4.185 Y-20.889 E0.01467
G1 X4.111 Y-29.185 E0.33968
G1 X4.185 Y-28.753 E0.01270
G1 X-4.185 Y-20.382 E0.34272
G1 X-4.185 Y-19.876 E0.01467
G1 X4.185 Y-28.246 E0.34272
G1 X4.185 Y-27.740 E0.01467
G1 X-4.185 Y-19.369 E0.34272
G1 X-4.185 Y-18.863 E0.01467
G1 X4.185 Y-27.233 E0.34272
G1 X4.185 Y-26.727 E0.01467
G1 X-4.185 Y-18.356 E0.34272
G1 X-4.185 Y-17.850 E0.01467
G1 X4.185 Y-26.220 E0.34272
G1 X4.185 Y-25.714 E0.01467
G1 X-4.185 Y-17.343 E0.34272
G1 X-4.185 Y-16.837 E0.01467
G1 X4.185 Y-25.207 E0.34272
G1 X4.185 Y-24.700 E0.01467
G1 X-4.185 Y-16.330 E0.34272
G1 X-4.185 Y-15.824 E0.01467
G1 X4.185 Y-24.194 E0.34272
G1 X4.185 Y-23.687 E0.01467
G1 X-4.185 Y-15.317 E0.34272
G1 X-4.185 Y-14.810 E0.01467
G1 X4.185 Y-23.181 E0.34272
G1 X4.185 Y-22.674 E0.01467
G1 X-4.185 Y-14.304 E0.34272
G1 X-4.185 Y-13.797 E0.01467
G1 X4.185 Y-22.168 E0.34272
G1 X4.185 Y-21.661 E0.01467
G1 X-4.185 Y-13.291 E0.34272
G1 X-4.185 Y-12.784 E0.01467
G1 X4.185 Y-21.155 E0.34272
G1 X4.185 Y-20.648 E0.01467
G1 X-4.185 Y-12.278 E0.34272
G1 X-4.185 Y-11.771 E0.01467
G1 X4.185 Y-20.142 E0.34272
G1 X4.185 Y-19.635 E0.01467
G1 X-4.185 Y-11.265 E0.34272
G1 X-4.185 Y-10.758 E0.01467
G1 X4.185 Y-19.128 E0.34272
G1 X4.185 Y-18.622 E0.01467
G1 X-4.185 Y-10.252 E0.34272
G1 X-4.185 Y-9.745 E0.01467
G1 X4.185 Y-18.115 E0.34272
G1 X4.185 Y-17.609 E0.01467
G1 X-4.185 Y-9.238 E0.34272
G1 X-4.185 Y-8.732 E0.01467
G1 X4.185 Y-17.102 E0.34272
G1 X4.185 Y-16.596 E0.01467
G1 X-4.185 Y-8.225 E0.34272
G1 X-4.185 Y-7.719 E0.01467
G1 X4.185 Y-16.089 E0.34272
G1 X4.185 Y-15.583 E0.01467
G1 X-4.185 Y-7.212 E0.34272
G1 X-4.185 Y-6.706 E0.01467
G1 X4.185 Y-15.076 E0.34272
G1 X4.185 Y-14.569 E0.01467
G1 X-4.185 Y-6.199 E0.34272
G1 X-4.185 Y-5.693 E0.01467
G1 X4.185 Y-14.063 E0.34272
G1 X4.185 Y-13.556 E0.01467
G1 X-4.185 Y-5.186 E0.34272
G1 X-4.185 Y-4.679 E0.01467
G1 X4.185 Y-13.050 E0.34272
G1 X4.185 Y-12.543 E0.01467
G1 X-12.543 Y4.185 E0.68493
G1 X-12.037 Y4.185 E0.01467
G1 X4.185 Y-12.037 E0.66419
G1 X4.185 Y-11.530 E0.01467
G1 X-11.530 Y4.185 E0.64345
G1 X-11.024 Y4.185 E0.01467
G1 X4.185 Y-11.024 E0.62271
G1 X4.185 Y-10.517 E0.01467
G1 X-10.517 Y4.185 E0.60197
G1 X-10.011 Y4.185 E0.01467
G1 X4.185 Y-10.011 E0.58123
G1 X4.185 Y-9.504 E0.01467
G1 X-9.504 Y4.185 E0.56049
G1 X-8.997 Y4.185 E0.01467
G1 X4.185 Y-8.997 E0.53975
G1 X4.185 Y-8.491 E0.01467
G1 X-8.491 Y4.185 E0.51901
G1 X-7.984 Y4.185 E0.01467
G1 X4.185 Y-7.984 E0.49827
G1 X4.185 Y-7.478 E0.01467
G1 X-7.478 Y4.185 E0.47753
G1 X-6.971 Y4.185 E0.01467
G1 X4.185 Y-6.971 E0.45679
G1 X4.185 Y-6.465 E0.01467
G1 X-6.465 Y4.185 E0.43605
G1 X-5.958 Y4.185 E0.01467
G1 X4.185 Y-5.958 E0.41531
G1 X4.185 Y-5.452 E0.01467
G1 X-5.452 Y4.185 E0.39457
G1 X-4.945 Y4.185 E0.01467
G1 X4.185 Y-4.945 E0.37383
G1 X4.185 Y-4.439 E0.01467
G1 X-4.439 Y4.185 E0.35309
G1 X-4.185 Y4.438 F15000.000
G1 X4.438 Y-4.185 E0.35308 F4800.000
G1 X4.945 Y-4.185 E0.01467
G1 X-4.185 Y4.945 E0.37382
G1 X-4.185 Y5.451 E0.01467
G1 X5.451 Y-4.185 E0.39457
G1 X5.958 Y-4.185 E0.01467
G1 X-4.185 Y5.958 E0.41531
G1 X-4.185 Y6.465 E0.01467
G1 X6.465 Y-4.185 E0.43605
G1 X6.971 Y-4.185 E0.01467
G1 X-4.185 Y6.971 E0.45679
G1 X-4.185 Y7.478 E0.01467
G1 X7.478 Y-4.185 E0.47753
G1 X7.984 Y-4.185 E0.01467
G1 X-4.185 Y7.984 E0.49827
G1 X-4.185 Y8.491 E0.01467
G1 X8.491 Y-4.185 E0.51901
G1 X8.997 Y-4.185 E0.01467
G1 X-4.185 Y8.997 E0.53975
G1 X-4.185 Y9.504 E0.01467
G1 X9.504 Y-4.185 E0.56049
G1 X10.010 Y-4.185 E0.01467
G1 X-4.185 Y10.010 E0.58123
G1 X-4.185 Y10.517 E0.01467
G1 X10.517 Y-4.185 E0.60197
G1 X11.024 Y-4.185 E0.01467
G1 X-4.185 Y11.024 E0.62271
G1 X-4.185 Y11.530 E0.01467
G1 X11.530 Y-4.185 E0.64345
G1 X12.037 Y-4.185 E0.01467
G1 X-4.185 Y12.037 E0.66419
G1 X-4.679 Y-4.185 F15000.000
G1 X-13.050 Y4.185 E0.34272 F4800.000
G1 X-13.556 Y4.185 E0.01467
G1 X-5.186 Y-4.185 E0.34272
G1 X-5.693 Y-4.185 E0.01467
G1 X-14.063 Y4.185 E0.34272
G1 X-14.569 Y4.185 E0.01467
G1 X-6.199 Y-4.185 E0.34272
G1 X-6.706 Y-4.185 E0.01467
G1 X-15.076 Y4.185 E0.34272
G1 X-15.583 Y4.185 E0.01467
G1 X-7.212 Y-4.185 E0.34272
G1 X-7.719 Y-4.185 E0.01467
G1 X-16.089 Y4.185 E0.34272
G1 X-16.596 Y4.185 E0.01467
G1 X-8.225 Y-4.185 E0.34272
G1 X-8.732 Y-4.185 E0.01467
G1 X-17.102 Y4.185 E0.34272
G1 X-17.609 Y4.185 E0.01467
G1 X-9.238 Y-4.185 E0.34272
G1 X-9.745 Y-4.185 E0.01467
G1 X-18.115 Y4.185 E0.34272
G1 X-18.622 Y4.185 E0.01467
G1 X-10.252 Y-4.185 E0.34272
G1 X-10.758 Y-4.185 E0.01467
G1 X-19.128 Y4.185 E0.34272
G1 X-19.635 Y4.185 E0.01467
G1 X-11.265 Y-4.185 E0.34272
G1 X-11.771 Y-4.185 E0.01467
G1 X-20.142 Y4.185 E0.34272
G1 X-20.648 Y4.185 E0.01467
G1 X-12.278 Y-4.185 E0.34272
G1 X-12.784 Y-4.185 E0.01467
G1 X-21.155 Y4.185 E0.34272
G1 X-21.661 Y4.185 E0.01467
G1 X-13.291 Y-4.185 E0.34272
G1 X-13.797 Y-4.185 E0.01467
G1 X-22.168 Y4.185 E0.34272
G1 X-22.674 Y4.185 E0.01467
G1 X-14.304 Y-4.185 E0.34272
G1 X-14.810 Y-4.185 E0.01467
G1 X-23.181 Y4.185 E0.34272
G1 X-23.687 Y4.185 E0.01467
G1 X-15.317 Y-4.185 E0.34272
G1 X-15.824 Y-4.185 E0.01467
