; generated by Slic3r 1.2.9 on 2018-03-26 at 15:12:14

; external perimeters extrusion width = 0.40mm
; perimeters extrusion width = 0.40mm
; infill extrusion width = 0.40mm
; solid infill extrusion width = 0.40mm
; top infill extrusion width = 0.40mm

M107
M83
T0
M116
G21 ; set units to millimeters
G90 ; use absolute coordinates
M83 ; use relative distances for extrusion
G1 E-3.50000 F1500.00000
G1 Z0.400 F15000.000
G1 X0.000 Y22.161 F15000.000
G1 Z0.300 F15000.000
G1 E3.50000 F1500.00000
G1 X-12.776 Y22.161 E0.98457 F960.000
G1 X-14.423 Y21.766 E0.13052
G1 X-15.347 Y21.096 E0.08796
G1 X-17.197 Y19.246 E0.20163
G1 X-17.449 Y18.965 E0.02911
G1 X-28.490 Y5.352 E1.35079
G1 X-28.815 Y4.880 E0.04418
G1 X-34.481 Y-4.934 E0.87330
G1 X-34.951 Y-7.103 E0.17101
G1 X-34.867 Y-7.972 E0.06732
G1 X-34.647 Y-9.223 E0.09787
G1 X-34.358 Y-10.306 E0.08636
G1 X-33.933 Y-11.493 E0.09718
G1 X-33.507 Y-12.425 E0.07899
G1 X-32.993 Y-13.362 E0.08233
G1 X-32.797 Y-13.680 E0.02879
G1 X-32.011 Y-14.795 E0.10517
G1 X-31.548 Y-15.356 E0.05600
G1 X-30.889 Y-16.062 E0.07447
G1 X-30.250 Y-16.662 E0.06751
G1 X-29.622 Y-17.185 E0.06304
G1 X-28.846 Y-17.750 E0.07394
G1 X-22.877 Y-21.584 E0.54676
G1 X-20.912 Y-22.161 E0.15778
G1 X20.912 Y-22.161 E3.22320
G1 X22.874 Y-21.586 E0.15755
G1 X28.547 Y-17.950 E0.51928 F960.000
G1 X29.438 Y-17.326 E0.08386
G1 X30.186 Y-16.719 E0.07418
G1 X30.889 Y-16.062 E0.07418
G1 X31.380 Y-15.546 E0.05490
G1 X32.000 Y-14.810 E0.07418
G1 X32.568 Y-14.032 E0.07418
G1 X33.227 Y-12.958 E0.09713
G1 X33.787 Y-11.832 E0.09694
G1 X34.099 Y-11.068 E0.06355
G1 X34.413 Y-10.131 E0.07614
G1 X34.705 Y-8.955 E0.09345
G1 X34.867 Y-7.972 E0.07673
G1 X34.951 Y-7.103 E0.06732
G1 X34.481 Y-4.934 E0.17101
G1 X28.815 Y4.880 E0.87330
G1 X28.490 Y5.352 E0.04418
G1 X17.449 Y18.965 E1.35079
G1 X17.197 Y19.246 E0.02911
G1 X15.347 Y21.096 E0.20163
G1 X13.903 Y21.981 E0.13052
G1 X12.776 Y22.161 E0.08796
G1 X0.060 Y22.161 E0.97995
G1 E-3.50000 F1500.00000
G1 Z0.700 F15000.000
G1 X-4.310 Y-1.059 F15000.000
G1 Z0.300 F15000.000
G1 E3.50000 F1500.00000
G1 X-4.647 Y-1.023 E0.02614 F600.000
G1 X-4.937 Y-1.049 E0.02242
G1 X-5.215 Y-1.123 E0.02218
G1 X-5.478 Y-1.246 E0.02236
G1 X-5.741 Y-1.435 E0.02498
G1 X-5.951 Y-1.657 E0.02355
G1 X-6.108 Y-1.900 E0.02227
G1 X-6.221 Y-2.165 E0.02218
G1 X-6.287 Y-2.454 E0.02287
G1 X-6.300 Y-9.693 E0.55792
G1 X-6.266 Y-10.018 E0.02518
G1 X-6.159 Y-10.347 E0.02661
G1 X-5.988 Y-10.643 E0.02638
G1 X-5.795 Y-10.865 E0.02266
G1 X-5.528 Y-11.074 E0.02614
G1 X-5.266 Y-11.208 E0.02266
G1 X-4.939 Y-11.301 E0.02622
G1 X-4.635 Y-11.326 E0.02351 F600.000
G1 X-4.363 Y-11.301 E0.02105
G1 X-3.977 Y-11.199 E0.03079
G1 X-3.551 Y-10.908 E0.03972
G1 X-3.349 Y-10.692 E0.02283
G1 X-3.192 Y-10.450 E0.02218
G1 X-3.079 Y-10.185 E0.02218
G1 X-3.013 Y-9.896 E0.02287
G1 X-3.000 Y-2.657 E0.55792
G1 X-3.034 Y-2.332 E0.02518
G1 X-3.141 Y-2.004 E0.02655
G1 X-3.303 Y-1.720 E0.02522
G1 X-3.502 Y-1.488 E0.02356
G1 X-3.729 Y-1.304 E0.02250
G1 X-4.028 Y-1.145 E0.02614
G1 X-4.252 Y-1.076 E0.01803
G1 X-4.427 Y-0.741 F15000.000
G1 X-10.276 Y17.539 F15000.000
G1 X-12.367 Y17.539 E0.16120 F720.000
G1 X-13.232 Y16.675 E0.09421
G1 X-13.114 Y16.558 E0.01280
G1 X-13.114 Y15.711 E0.06527
G1 X-8.714 Y15.711 E0.33909
G1 X-8.714 Y9.939 E0.44476
G1 X-13.114 Y9.939 E0.33909
G1 X-13.114 Y9.092 E0.06527
G1 X-13.630 Y8.577 E0.05616
G1 X-13.642 Y8.243 E0.02576
G1 X-13.735 Y7.651 E0.04621
G1 X-13.907 Y7.015 E0.05072
G1 X-14.174 Y6.352 E0.05514
G1 X-14.551 Y5.685 E0.05904
G1 X-14.793 Y5.344 E0.03224
G1 X-15.163 Y4.907 E0.04411
G1 X-15.454 Y4.618 E0.03158
G1 X-15.893 Y4.251 E0.04411
G1 X-16.229 Y4.017 E0.03158
G1 X-16.728 Y3.728 E0.04440
G1 X-17.155 Y3.532 E0.03622
G1 X-17.642 Y3.355 E0.04000
G1 X-18.211 Y3.209 E0.04524
G1 X-18.802 Y3.122 E0.04607
G1 X-19.563 Y3.101 E0.05861
G1 X-20.587 Y3.180 E0.07920
G1 X-21.204 Y3.187 E0.04756
G1 X-21.862 Y3.148 E0.05074
G1 X-22.750 Y3.024 E0.06909
G1 X-23.346 Y2.890 E0.04710
G1 X-23.939 Y2.716 E0.04767
G1 X-24.515 Y2.504 E0.04730
G1 X-24.971 Y2.296 E0.03858
G1 X-25.113 Y2.050 E0.02185
G1 X-24.926 Y1.844 E0.02142
G1 X-24.264 Y2.144 E0.05596
G1 X-23.662 Y2.356 E0.04918
G1 X-22.769 Y2.585 E0.07111
G1 X-21.848 Y2.722 E0.07177
G1 X-20.926 Y2.761 E0.07111
G1 X-20.288 Y2.733 E0.04918
G1 X-19.382 Y2.614 E0.07045
G1 X-18.759 Y2.476 E0.04918
G1 X-17.878 Y2.199 E0.07111
G1 X-17.032 Y1.832 E0.07111
G1 X-16.471 Y1.529 E0.04918
G1 X-15.707 Y1.026 E0.07045
G1 X-15.207 Y0.630 E0.04918
G1 X-14.536 Y-0.004 E0.07111
G1 X-13.929 Y-0.710 E0.07177
G1 X-13.398 Y-1.476 E0.07177
G1 X-12.951 Y-2.292 E0.07177
G1 X-12.590 Y-3.151 E0.07177
G1 X-12.321 Y-4.043 E0.07177
G1 X-12.167 Y-4.848 E0.06316
G1 X-7.156 Y-10.102 E0.55956
G1 X-6.908 Y-9.987 E0.02103
G1 X-6.936 Y-9.726 E0.02021 F720.000
G1 X-6.923 Y-2.381 E0.56608
G1 X-6.827 Y-1.968 E0.03269
G1 X-6.671 Y-1.600 E0.03075
G1 X-6.452 Y-1.263 E0.03099
G1 X-6.161 Y-0.955 E0.03267
G1 X-5.800 Y-0.695 E0.03427
G1 X-5.433 Y-0.524 E0.03124
G1 X-5.048 Y-0.420 E0.03075
G1 X-4.641 Y-0.385 E0.03142
G1 X-4.182 Y-0.433 E0.03557
G1 X-3.784 Y-0.555 E0.03209
G1 X-3.377 Y-0.772 E0.03557
G1 X-3.057 Y-1.030 E0.03165
G1 X-2.781 Y-1.352 E0.03267
G1 X-2.556 Y-1.745 E0.03494
G1 X-2.409 Y-2.199 E0.03672
G1 X-2.364 Y-2.624 E0.03294
G1 X-2.369 Y-5.547 E0.22530
G1 X-2.047 Y-5.598 E0.02519
G1 X-1.882 Y-5.081 E0.04177
G1 X-1.738 Y-4.794 E0.02474
G1 X-1.522 Y-4.468 E0.03015
G1 X-1.152 Y-4.075 E0.04159
G1 X3.449 Y-0.620 E0.44343
G1 X3.794 Y-0.422 E0.03069
G1 X4.133 Y-0.292 E0.02799
G1 X4.539 Y-0.206 E0.03199
G1 X4.893 Y-0.187 E0.02732
G1 X5.238 Y-0.217 E0.02666
G1 X5.578 Y-0.296 E0.02690
G1 X5.926 Y-0.431 E0.02877
G1 X6.253 Y-0.621 E0.02918
G1 X8.172 Y-2.063 E0.18495
G1 X8.565 Y-2.414 E0.04063
G1 X8.826 Y-2.691 E0.02928
G1 X9.153 Y-3.104 E0.04065
G1 X9.358 Y-3.414 E0.02863
G1 X9.541 Y-3.737 E0.02863
G1 X9.762 Y-4.221 E0.04095
G1 X9.905 Y-4.631 E0.03349
G1 X10.025 Y-5.095 E0.03698
G1 X10.109 Y-5.631 E0.04179
G1 X10.137 Y-6.175 E0.04196
G1 X10.093 Y-7.022 E0.06537
G1 X12.166 Y-4.849 E0.23147
G1 X12.326 Y-4.023 E0.06480
G1 X12.594 Y-3.141 E0.07108
G1 X12.829 Y-2.557 E0.04850
G1 X13.104 Y-1.990 E0.04850
G1 X13.572 Y-1.206 E0.07042
G1 X13.946 Y-0.689 E0.04916
G1 X14.543 Y0.003 E0.07042
G1 X14.994 Y0.442 E0.04850
G1 X15.468 Y0.843 E0.04784
G1 X15.969 Y1.210 E0.04789
G1 X16.515 Y1.554 E0.04970
G1 X17.313 Y1.965 E0.06919
G1 X17.894 Y2.204 E0.04847
G1 X18.484 Y2.400 E0.04784
G1 X19.093 Y2.556 E0.04850
G1 X20.003 Y2.706 E0.07108
G1 X20.924 Y2.761 E0.07108
G1 X21.562 Y2.744 E0.04916
G1 X22.478 Y2.639 E0.07108
G1 X23.387 Y2.437 E0.07174
G1 X24.270 Y2.142 E0.07175
G1 X24.926 Y1.844 E0.05552
G1 X25.113 Y2.050 E0.02144
G1 X24.971 Y2.296 E0.02188
G1 X24.515 Y2.504 E0.03858
G1 X23.939 Y2.716 E0.04730
G1 X23.346 Y2.890 E0.04767
G1 X22.742 Y3.025 E0.04767
G1 X22.139 Y3.119 E0.04704
G1 X21.198 Y3.186 E0.07273
G1 X20.587 Y3.180 E0.04705
G1 X19.563 Y3.101 E0.07920
G1 X18.802 Y3.122 E0.05861
G1 X18.211 Y3.209 E0.04607
G1 X17.648 Y3.353 E0.04476
G1 X17.261 Y3.488 E0.03158
G1 X16.724 Y3.729 E0.04541
G1 X16.073 Y4.121 E0.05858
G1 X15.738 Y4.372 E0.03224
G1 X15.305 Y4.760 E0.04476
G1 X14.915 Y5.190 E0.04476
G1 X14.666 Y5.516 E0.03158
G1 X14.359 Y5.999 E0.04411
G1 X14.170 Y6.362 E0.03158
G1 X13.944 Y6.906 E0.04541
G1 X13.735 Y7.646 E0.05923
G1 X13.642 Y8.243 E0.04658
G1 X13.630 Y8.577 E0.02576
G1 X13.114 Y9.092 E0.05616
G1 X13.114 Y9.939 E0.06527
G1 X8.714 Y9.939 E0.33909
G1 X8.714 Y15.711 E0.44476
G1 X13.114 Y15.711 E0.33909
G1 X13.114 Y16.558 E0.06527
G1 X13.232 Y16.675 E0.01280
G1 X12.367 Y17.539 E0.09421
G1 X-10.216 Y17.539 E1.74039
G1 E-3.50000 F1500.00000
G1 Z0.700 F15000.000
G1 X-2.377 Y-9.684 F15000.000
G1 Z0.300 F15000.000
G1 E3.50000 F1500.00000
G1 X-2.377 Y-9.969 E0.02193 F600.000
G1 X-2.473 Y-10.382 E0.03270
G1 X-2.629 Y-10.750 E0.03075
G1 X-3.041 Y-11.385 E0.05834
G1 X2.558 Y-11.388 E0.43152
G1 X2.646 Y-11.127 E0.02118
G1 X-1.152 Y-8.275 E0.36603 F600.000
G1 X-1.517 Y-7.888 E0.04093
G1 X-1.698 Y-7.624 E0.02474
G1 X-1.879 Y-7.277 E0.03015
G1 X-2.049 Y-6.744 E0.04311
G1 X-2.372 Y-6.794 E0.02514
G1 X-2.377 Y-9.624 E0.21815
G1 X-2.378 Y-12.021 F15000.000
G1 X6.128 Y-12.013 E0.65553 F720.000
G1 X6.215 Y-11.980 E0.00718 F720.000
G1 X6.322 Y-11.897 E0.01039
G1 X8.375 Y-9.745 E0.22922
G1 X8.120 Y-9.481 E0.02824
G1 X7.769 Y-9.795 E0.03631
G1 X5.855 Y-11.229 E0.18429
G1 X5.630 Y-11.354 E0.01982
G1 X5.388 Y-11.446 E0.01992
G1 X5.117 Y-11.506 E0.02140
G1 X4.820 Y-11.526 E0.02295
G1 X4.561 Y-11.503 E0.02000
G1 X4.310 Y-11.445 E0.01992
G1 X4.051 Y-11.344 E0.02140
G1 X3.799 Y-11.198 E0.02249
G1 X-0.727 Y-7.799 E0.43617
G1 X-1.020 Y-7.488 E0.03294
G1 X-1.152 Y-7.296 E0.01800
G1 X-1.290 Y-7.031 E0.02299
G1 X-1.423 Y-6.615 E0.03364
G1 X-1.469 Y-6.175 E0.03411
G1 X-1.423 Y-5.735 E0.03411
G1 X-1.291 Y-5.322 E0.03341
G1 X-1.187 Y-5.113 E0.01800
G1 X-1.022 Y-4.864 E0.02299
G1 X-0.727 Y-4.551 E0.03317
G1 X3.799 Y-1.152 E0.43623
G1 X4.068 Y-0.997 E0.02385
G1 X4.314 Y-0.903 E0.02030
G1 X4.622 Y-0.838 E0.02431
G1 X4.882 Y-0.824 E0.02007
G1 X5.139 Y-0.847 E0.01983
G1 X5.390 Y-0.905 E0.01992
G1 X5.649 Y-1.006 E0.02140
G1 X5.901 Y-1.152 E0.02249
G1 X7.769 Y-2.555 E0.17998
G1 X8.121 Y-2.870 E0.03644
G1 X8.344 Y-3.107 E0.02507
G1 X8.638 Y-3.477 E0.03645
G1 X8.816 Y-3.746 E0.02484
G1 X8.974 Y-4.027 E0.02484
G1 X9.172 Y-4.458 E0.03655
G1 X9.297 Y-4.815 E0.02917
G1 X9.402 Y-5.224 E0.03254
G1 X9.476 Y-5.697 E0.03685
G1 X9.500 Y-6.175 E0.03691
G1 X9.476 Y-6.652 E0.03685
G1 X9.413 Y-7.068 E0.03241
G1 X9.326 Y-7.438 E0.02930
G1 X9.173 Y-7.890 E0.03679
G1 X8.974 Y-8.323 E0.03668
G1 X8.815 Y-8.605 E0.02495
G1 X8.606 Y-8.917 E0.02894
G1 X8.320 Y-9.274 E0.03526
G1 X8.595 Y-9.514 E0.02813
G1 X12.400 Y-5.525 E0.42483
G1 X12.737 Y-5.525 E0.02597
G1 X12.779 Y-5.025 E0.03864
G1 X12.944 Y-4.176 E0.06665
G1 X13.194 Y-3.352 E0.06640
G1 X13.411 Y-2.814 E0.04467
G1 X13.664 Y-2.293 E0.04467
G1 X14.104 Y-1.556 E0.06617
G1 X14.445 Y-1.083 E0.04490
G1 X15.006 Y-0.433 E0.06617
G1 X15.421 Y-0.029 E0.04467
G1 X15.861 Y0.343 E0.04443
G1 X16.327 Y0.685 E0.04445
G1 X16.830 Y1.002 E0.04585
G1 X17.579 Y1.388 E0.06497
G1 X18.115 Y1.608 E0.04466
G1 X18.663 Y1.789 E0.04443
G1 X19.224 Y1.933 E0.04467
G1 X20.074 Y2.074 E0.06640
G1 X20.934 Y2.125 E0.06640
G1 X21.517 Y2.109 E0.04490
G1 X22.373 Y2.011 E0.06640
G1 X23.217 Y1.824 E0.06664
G1 X24.037 Y1.550 E0.06664
G1 X24.824 Y1.192 E0.06664
G1 X25.570 Y0.754 E0.06664
G1 X26.266 Y0.241 E0.06664
G1 X26.799 Y-0.245 E0.05559
G1 X27.053 Y-0.040 E0.02518
G1 X25.420 Y2.790 E0.25182
G1 X24.757 Y3.092 E0.05610
G1 X24.139 Y3.319 E0.05077
G1 X23.505 Y3.506 E0.05090
G1 X22.861 Y3.650 E0.05090
G1 X22.211 Y3.751 E0.05068
G1 X21.217 Y3.822 E0.07678
G1 X20.559 Y3.815 E0.05069
G1 X19.547 Y3.737 E0.07827
G1 X18.858 Y3.756 E0.05312
G1 X18.337 Y3.833 E0.04060
G1 X17.832 Y3.962 E0.04013
G1 X17.497 Y4.079 E0.02738
G1 X17.019 Y4.294 E0.04037
G1 X16.428 Y4.649 E0.05311
G1 X16.142 Y4.864 E0.02761
G1 X15.754 Y5.212 E0.04014
G1 X15.404 Y5.597 E0.04013
G1 X15.188 Y5.879 E0.02738
G1 X14.911 Y6.316 E0.03990
G1 X14.746 Y6.632 E0.02738
G1 X14.545 Y7.115 E0.04037
G1 X14.357 Y7.781 E0.05334
G1 X14.276 Y8.304 E0.04078
G1 X14.255 Y8.850 E0.04211
G1 X13.750 Y9.356 E0.05509
G1 X13.750 Y10.575 E0.09396
G1 X9.350 Y10.575 E0.33909
G1 X9.350 Y15.075 E0.34679
G1 X13.750 Y15.075 E0.33909
G1 X13.750 Y16.294 E0.09396
G1 X14.131 Y16.675 E0.04150
G1 X12.631 Y18.175 E0.16348
G1 X-12.631 Y18.175 E1.94679
G1 X-14.131 Y16.675 E0.16348
G1 X-13.750 Y16.294 E0.04150
G1 X-13.750 Y15.075 E0.09396
G1 X-9.350 Y15.075 E0.33909
G1 X-9.350 Y10.575 E0.34679
G1 X-13.750 Y10.575 E0.33909
G1 X-13.750 Y9.356 E0.09396
G1 X-14.255 Y8.850 E0.05509
G1 X-14.276 Y8.304 E0.04211
G1 X-14.357 Y7.783 E0.04065
G1 X-14.510 Y7.218 E0.04513
G1 X-14.748 Y6.628 E0.04901
G1 X-15.088 Y6.026 E0.05327
G1 X-15.295 Y5.734 E0.02761
G1 X-15.630 Y5.339 E0.03990
G1 X-15.882 Y5.089 E0.02738
G1 X-16.280 Y4.757 E0.03990
G1 X-16.571 Y4.553 E0.02738
G1 X-17.020 Y4.293 E0.04001
G1 X-17.396 Y4.120 E0.03191
G1 X-17.830 Y3.963 E0.03556
G1 X-18.337 Y3.833 E0.04030
G1 X-18.858 Y3.756 E0.04060
G1 X-19.547 Y3.737 E0.05312
G1 X-20.559 Y3.815 E0.07827
G1 X-21.219 Y3.822 E0.05086
G1 X-21.924 Y3.781 E0.05443
G1 X-22.863 Y3.650 E0.07306
G1 X-23.505 Y3.506 E0.05070
G1 X-24.139 Y3.319 E0.05090
G1 X-24.757 Y3.092 E0.05077
G1 X-25.420 Y2.790 E0.05610
G1 X-27.037 Y-0.011 E0.24928
G1 X-26.791 Y-0.217 E0.02472
G1 X-26.030 Y0.428 E0.07684
G1 X-25.348 Y0.895 E0.06372
G1 X-24.810 Y1.199 E0.04760
G1 X-24.027 Y1.553 E0.06623
G1 X-23.478 Y1.747 E0.04492
G1 X-22.643 Y1.961 E0.06643
G1 X-21.787 Y2.088 E0.06666
G1 X-20.926 Y2.125 E0.06643
G1 X-20.344 Y2.099 E0.04492
G1 X-19.492 Y1.987 E0.06619
G1 X-18.923 Y1.861 E0.04492
G1 X-18.101 Y1.603 E0.06643
G1 X-17.310 Y1.260 E0.06643
G1 X-16.797 Y0.983 E0.04492
G1 X-16.080 Y0.510 E0.06619
G1 X-15.623 Y0.148 E0.04492
G1 X-14.996 Y-0.443 E0.06643
G1 X-14.432 Y-1.099 E0.06666
G1 X-13.940 Y-1.810 E0.06666
G1 X-13.524 Y-2.569 E0.06666
G1 X-13.189 Y-3.366 E0.06666
G1 X-12.939 Y-4.194 E0.06666
G1 X-12.777 Y-5.044 E0.06666
G1 X-12.736 Y-5.525 E0.03719
G1 X-12.400 Y-5.525 E0.02594
G1 X-6.324 Y-11.895 E0.67839
G1 X-6.207 Y-11.982 E0.01126
G1 X-6.091 Y-12.019 E0.00939
G1 X-2.438 Y-12.021 E0.28149
G1 X-2.178 Y-11.674 F15000.000
G1 E-3.50000 F1500.00000
G1 Z0.700 F15000.000
G1 X27.402 Y-13.002 F15000.000
G1 Z0.300 F15000.000
G1 E3.50000 F1500.00000
G1 X28.006 Y-12.387 E0.06641 F720.000
G1 X28.417 Y-11.891 E0.04967
G1 X28.793 Y-11.367 E0.04967
G1 X29.128 Y-10.824 E0.04917
G1 X29.525 Y-10.045 E0.06741
G1 X29.808 Y-9.354 E0.05751
G1 X30.005 Y-8.744 E0.04940
G1 X30.160 Y-8.118 E0.04967
G1 X30.271 Y-7.488 E0.04933
G1 X30.321 Y-6.971 E0.04002
G1 X30.186 Y-6.738 E0.02079
G1 X29.909 Y-6.804 E0.02198
G1 X29.901 Y-6.977 E0.01329
G1 X29.770 Y-7.892 E0.07127
G1 X29.544 Y-8.794 E0.07166
G1 X29.249 Y-9.611 E0.06690
G1 X28.960 Y-10.238 E0.05326
G1 X28.497 Y-11.039 E0.07125
G1 X27.956 Y-11.786 E0.07108
G1 X27.538 Y-12.267 E0.04916
G1 X26.875 Y-12.909 E0.07108
G1 X26.143 Y-13.484 E0.07174
G1 X25.355 Y-13.979 E0.07175
G1 X24.519 Y-14.390 E0.07175
G1 X23.645 Y-14.711 E0.07175
G1 X22.743 Y-14.940 E0.07175
G1 X21.822 Y-15.074 E0.07174
G1 X20.892 Y-15.111 E0.07175
G1 X19.963 Y-15.052 E0.07175
G1 X19.048 Y-14.896 E0.07150
G1 X18.220 Y-14.670 E0.06617
G1 X17.284 Y-14.303 E0.07748
G1 X16.457 Y-13.871 E0.07185
G1 X15.681 Y-13.357 E0.07175
G1 X14.963 Y-12.765 E0.07175
G1 X14.310 Y-12.101 E0.07175
G1 X13.730 Y-11.373 E0.07175
G1 X13.229 Y-10.588 E0.07175
G1 X12.812 Y-9.756 E0.07175
G1 X12.587 Y-9.158 E0.04927
G1 X7.971 Y-13.995 E0.51525
G1 X7.491 Y-14.366 E0.04678
G1 X6.981 Y-14.605 E0.04343
G1 X6.518 Y-14.725 E0.03683
G1 X6.092 Y-14.761 E0.03294
G1 X-6.100 Y-14.761 E0.93961
G1 X-6.594 Y-14.710 E0.03824
G1 X-6.972 Y-14.606 E0.03023
G1 X-7.325 Y-14.455 E0.02959
G1 X-7.710 Y-14.216 E0.03490
G1 X-7.989 Y-13.977 E0.02830
G1 X-12.586 Y-9.158 E0.51324
G1 X-12.776 Y-9.668 E0.04193
G1 X-13.080 Y-10.315 E0.05507
G1 X-13.405 Y-10.883 E0.05045
G1 X-13.912 Y-11.617 E0.06873
G1 X-14.318 Y-12.109 E0.04914
G1 X-14.965 Y-12.766 E0.07111
G1 X-15.678 Y-13.354 E0.07120
G1 X-16.227 Y-13.730 E0.05131
G1 X-17.006 Y-14.170 E0.06893
G1 X-17.853 Y-14.539 E0.07117
G1 X-18.488 Y-14.751 E0.05159
G1 X-19.354 Y-14.959 E0.06865
G1 X-20.269 Y-15.082 E0.07118
G1 X-20.942 Y-15.111 E0.05186
G1 X-21.828 Y-15.074 E0.06836
G1 X-22.740 Y-14.940 E0.07105
G1 X-23.347 Y-14.797 E0.04805
G1 X-23.834 Y-14.653 E0.03914
G1 X-24.253 Y-14.498 E0.03445
G1 X-25.087 Y-14.123 E0.07045
G1 X-25.884 Y-13.659 E0.07111
G1 X-26.406 Y-13.291 E0.04918
G1 X-27.105 Y-12.701 E0.07045
G1 X-27.555 Y-12.249 E0.04918
G1 X-28.147 Y-11.541 E0.07111
G1 X-28.663 Y-10.774 E0.07127
G1 X-28.993 Y-10.171 E0.05298
G1 X-29.345 Y-9.373 E0.06723
G1 X-29.632 Y-8.488 E0.07169
G1 X-29.825 Y-7.585 E0.07111
G1 X-29.908 Y-6.807 E0.06031
G1 X-30.187 Y-6.738 E0.02214
G1 X-30.321 Y-6.971 E0.02075
G1 X-30.271 Y-7.488 E0.04002
G1 X-30.160 Y-8.115 E0.04907
G1 X-29.977 Y-8.832 E0.05705
G1 X-29.689 Y-9.664 E0.06787
G1 X-29.435 Y-10.240 E0.04851
G1 X-28.966 Y-11.095 E0.07516
G1 X-28.420 Y-11.886 E0.07407
G1 X-28.006 Y-12.388 E0.05010
G1 X-27.560 Y-12.857 E0.04994
