; generated by Slic3r 1.2.9 on 2018-04-20 at 10:41:45

; external perimeters extrusion width = 0.40mm
; perimeters extrusion width = 0.40mm
; infill extrusion width = 0.40mm
; solid infill extrusion width = 0.40mm
; top infill extrusion width = 0.40mm

M107
M83
T0
M116
G21 ; set units to millimeters
G90 ; use absolute coordinates
M83 ; use relative distances for extrusion
G1 E-3.50000 F1500.00000
G1 Z0.400 F15000.000
G1 X-17.381 Y-0.157 F15000.000
G1 Z0.300 F15000.000
G1 E3.50000 F1500.00000
G1 X-17.230 Y-16.916 E1.29155 F960.000
G1 X-16.820 Y-18.559 E0.13052
G1 X-15.711 Y-19.839 E0.13052
G1 X-13.594 Y-20.519 E0.17132
G1 X13.806 Y-20.519 E2.11159
G1 X15.453 Y-20.124 E0.13052
G1 X16.743 Y-19.026 E0.13052 F960.000
G1 X17.441 Y-16.883 E0.17373
G1 X17.441 Y-6.469 E0.80258
G1 X17.395 Y5.292 E0.90638
G1 X17.229 Y16.935 E0.89732
G1 X16.811 Y18.576 E0.13052
G1 X15.695 Y19.850 E0.13052
G1 X13.594 Y20.519 E0.16993
G1 X-13.806 Y20.519 E2.11159
G1 X-15.453 Y20.124 E0.13052
G1 X-16.743 Y19.026 E0.13052
G1 X-17.441 Y16.883 E0.17373
G1 X-17.441 Y6.483 E0.80148
G1 X-17.382 Y-0.097 E0.50715
G1 E-3.50000 F1500.00000
G1 Z0.700 F15000.000
G1 X12.820 Y-11.939 F15000.000
G1 Z0.300 F15000.000
G1 E3.50000 F1500.00000
G1 X12.820 Y-7.469 E0.34454 F720.000
G1 X-12.609 Y-7.469 E1.95968 F720.000
G1 X-12.609 Y-15.897 E0.64957
G1 X12.820 Y-15.897 E1.95968
G1 X12.820 Y-11.999 E0.30040
G1 X13.456 Y-11.999 F15000.000
G1 X13.456 Y-6.833 E0.39815 F720.000
G1 X-13.244 Y-6.833 E2.05765 F720.000
G1 X-13.244 Y-16.533 E0.74754
G1 X13.456 Y-16.533 E2.05765
G1 X13.456 Y-12.059 E0.34476
G1 X13.109 Y-11.799 F15000.000
G1 X12.435 Y-15.202 F15000.000
G1 X12.125 Y-15.512 E0.03400 F960.000
G1 X11.220 Y-15.512 E0.07031
G1 X12.435 Y-14.297 E0.13344
G1 X12.435 Y-13.391 E0.07031
G1 X10.314 Y-15.512 E0.23288
G1 X9.408 Y-15.512 E0.07031
G1 X12.435 Y-12.485 E0.33231
G1 X12.435 Y-11.580 E0.07031
G1 X8.503 Y-15.512 E0.43175
G1 X7.597 Y-15.512 E0.07031
G1 X12.435 Y-10.674 E0.53119
G1 X12.435 Y-9.769 E0.07031
G1 X6.691 Y-15.512 E0.63063
G1 X5.786 Y-15.512 E0.07031
G1 X12.435 Y-8.863 E0.73006
G1 X12.435 Y-7.957 E0.07031
G1 X4.880 Y-15.512 E0.82950
G1 X3.975 Y-15.512 E0.07031
G1 X11.633 Y-7.854 E0.84085
G1 X10.727 Y-7.854 E0.07031
G1 X3.069 Y-15.512 E0.84085
G1 X2.163 Y-15.512 E0.07031
G1 X9.821 Y-7.854 E0.84085
G1 X8.916 Y-7.854 E0.07031
G1 X1.258 Y-15.512 E0.84085
G1 X0.352 Y-15.512 E0.07031
G1 X8.010 Y-7.854 E0.84085
G1 X7.104 Y-7.854 E0.07031
G1 X-0.553 Y-15.512 E0.84085
G1 X-1.459 Y-15.512 E0.07031
G1 X6.199 Y-7.854 E0.84085
G1 X5.293 Y-7.854 E0.07031
G1 X-2.365 Y-15.512 E0.84085
G1 X-3.270 Y-15.512 E0.07031
G1 X4.388 Y-7.854 E0.84085
G1 X3.482 Y-7.854 E0.07031
G1 X-4.176 Y-15.512 E0.84085
G1 X-5.082 Y-15.512 E0.07031
G1 X2.576 Y-7.854 E0.84085
G1 X1.671 Y-7.854 E0.07031
G1 X-5.987 Y-15.512 E0.84085
G1 X-6.893 Y-15.512 E0.07031
G1 X0.765 Y-7.854 E0.84085
G1 X-0.140 Y-7.854 E0.07031
G1 X-7.798 Y-15.512 E0.84085
G1 X-8.704 Y-15.512 E0.07031
G1 X-1.046 Y-7.854 E0.84085
G1 X-1.952 Y-7.854 E0.07031
G1 X-9.610 Y-15.512 E0.84085
G1 X-10.515 Y-15.512 E0.07031
G1 X-2.857 Y-7.854 E0.84085
G1 X-3.763 Y-7.854 E0.07031
G1 X-11.421 Y-15.512 E0.84085
G1 X-12.223 Y-15.409 E0.06280
G1 X-4.669 Y-7.854 E0.82950
G1 X-5.574 Y-7.854 E0.07031
G1 X-12.223 Y-14.503 E0.73006
G1 X-12.223 Y-13.597 E0.07031
G1 X-6.480 Y-7.854 E0.63062
G1 X-7.385 Y-7.854 E0.07031
G1 X-12.223 Y-12.692 E0.53119
G1 X-12.223 Y-11.786 E0.07031
G1 X-8.291 Y-7.854 E0.43175
G1 X-9.197 Y-7.854 E0.07031
G1 X-12.223 Y-10.881 E0.33231
G1 X-12.223 Y-9.975 E0.07031
G1 X-10.102 Y-7.854 E0.23287
G1 X-11.008 Y-7.854 E0.07031
G1 X-12.223 Y-9.069 E0.13344
G1 X-12.223 Y-8.164 E0.07031
G1 X-11.913 Y-7.854 E0.03400
G1 E-3.50000 F1500.00000
G1 Z0.700 F15000.000
G1 X-12.053 Y-4.136 F15000.000
G1 Z0.300 F15000.000
G1 E3.50000 F1500.00000
G1 X12.774 Y-4.136 E1.91335 F720.000
G1 X12.774 Y4.292 E0.64957
G1 X-12.655 Y4.292 E1.95968 F720.000
G1 X-12.655 Y-4.136 E0.64957
G1 X-12.113 Y-4.136 E0.04171
G1 X-12.113 Y-4.772 F15000.000
G1 X13.410 Y-4.772 E1.96695 F720.000
G1 X13.410 Y4.928 E0.74754
G1 X-13.290 Y4.928 E2.05765 F720.000
G1 X-13.290 Y-4.772 E0.74754
G1 X-12.173 Y-4.772 E0.08607
G1 X-11.913 Y-4.426 F15000.000
G1 X-11.960 Y3.907 F15000.000
G1 X-12.269 Y3.597 E0.03400 F960.000
G1 X-12.269 Y2.692 E0.07031
G1 X-11.054 Y3.907 E0.13344
G1 X-10.148 Y3.907 E0.07031
G1 X-12.269 Y1.786 E0.23287
G1 X-12.269 Y0.881 E0.07031
G1 X-9.243 Y3.907 E0.33231
G1 X-8.337 Y3.907 E0.07031
G1 X-12.269 Y-0.025 E0.43175
G1 X-12.269 Y-0.931 E0.07031
G1 X-7.432 Y3.907 E0.53119
G1 X-6.526 Y3.907 E0.07031
G1 X-12.269 Y-1.836 E0.63062
G1 X-12.269 Y-2.742 E0.07031
G1 X-5.620 Y3.907 E0.73006
G1 X-4.715 Y3.907 E0.07031
G1 X-12.269 Y-3.648 E0.82950
G1 X-11.467 Y-3.751 E0.06280
G1 X-3.809 Y3.907 E0.84085
G1 X-2.904 Y3.907 E0.07031
G1 X-10.561 Y-3.751 E0.84085
G1 X-9.656 Y-3.751 E0.07031
G1 X-1.998 Y3.907 E0.84085
G1 X-1.092 Y3.907 E0.07031
G1 X-8.750 Y-3.751 E0.84085
G1 X-7.845 Y-3.751 E0.07031
G1 X-0.187 Y3.907 E0.84085
G1 X0.719 Y3.907 E0.07031
G1 X-6.939 Y-3.751 E0.84085
G1 X-6.033 Y-3.751 E0.07031
G1 X1.625 Y3.907 E0.84085
G1 X2.530 Y3.907 E0.07031
G1 X-5.128 Y-3.751 E0.84085
G1 X-4.222 Y-3.751 E0.07031
G1 X3.436 Y3.907 E0.84085
G1 X4.341 Y3.907 E0.07031
G1 X-3.317 Y-3.751 E0.84085
G1 X-2.411 Y-3.751 E0.07031
G1 X5.247 Y3.907 E0.84085
G1 X6.153 Y3.907 E0.07031
G1 X-1.505 Y-3.751 E0.84085
G1 X-0.600 Y-3.751 E0.07031
G1 X7.058 Y3.907 E0.84085
G1 X7.964 Y3.907 E0.07031
G1 X0.306 Y-3.751 E0.84085
G1 X1.212 Y-3.751 E0.07031
G1 X8.869 Y3.907 E0.84085
G1 X9.775 Y3.907 E0.07031
G1 X2.117 Y-3.751 E0.84085
G1 X3.023 Y-3.751 E0.07031
G1 X10.681 Y3.907 E0.84085
G1 X11.586 Y3.907 E0.07031
G1 X3.928 Y-3.751 E0.84085
G1 X4.834 Y-3.751 E0.07031
G1 X12.389 Y3.804 E0.82950
G1 X12.389 Y2.898 E0.07031
G1 X5.740 Y-3.751 E0.73006
G1 X6.645 Y-3.751 E0.07031
G1 X12.389 Y1.992 E0.63063
G1 X12.389 Y1.087 E0.07031
G1 X7.551 Y-3.751 E0.53119
G1 X8.456 Y-3.751 E0.07031
G1 X12.389 Y0.181 E0.43175
G1 X12.389 Y-0.724 E0.07031
G1 X9.362 Y-3.751 E0.33231
G1 X10.268 Y-3.751 E0.07031
G1 X12.389 Y-1.630 E0.23288
G1 X12.389 Y-2.536 E0.07031
G1 X11.173 Y-3.751 E0.13344
G1 X12.079 Y-3.751 E0.07031
G1 X12.389 Y-3.441 E0.03400
G1 E-3.50000 F1500.00000
G1 Z0.700 F15000.000
G1 X-5.708 Y7.469 F15000.000
G1 Z0.300 F15000.000
G1 E3.50000 F1500.00000
G1 X12.609 Y7.469 E1.41160 F720.000
G1 X12.609 Y15.897 E0.64957
G1 X-12.820 Y15.897 E1.95968 F720.000
G1 X-12.820 Y7.469 E0.64957
G1 X-5.768 Y7.469 E0.54345
G1 X-5.768 Y6.833 F15000.000
G1 X13.244 Y6.833 E1.46521 F720.000
G1 X13.244 Y16.533 E0.74754
G1 X-13.456 Y16.533 E2.05765 F720.000
G1 X-13.456 Y6.833 E0.74754
G1 X-5.828 Y6.833 E0.58781
G1 X-5.568 Y7.179 F15000.000
G1 X-12.125 Y15.512 F15000.000
G1 X-12.435 Y15.202 E0.03400 F960.000
G1 X-12.435 Y14.297 E0.07031
G1 X-11.220 Y15.512 E0.13344
G1 X-10.314 Y15.512 E0.07031
G1 X-12.435 Y13.391 E0.23287
G1 X-12.435 Y12.485 E0.07031
G1 X-9.408 Y15.512 E0.33231
G1 X-8.503 Y15.512 E0.07031
G1 X-12.435 Y11.580 E0.43175
G1 X-12.435 Y10.674 E0.07031
G1 X-7.597 Y15.512 E0.53119
G1 X-6.691 Y15.512 E0.07031
G1 X-12.435 Y9.769 E0.63062
G1 X-12.435 Y8.863 E0.07031
G1 X-5.786 Y15.512 E0.73006
G1 X-4.880 Y15.512 E0.07031
G1 X-12.435 Y7.957 E0.82950
G1 X-11.633 Y7.854 E0.06280
G1 X-3.975 Y15.512 E0.84085
G1 X-3.069 Y15.512 E0.07031
G1 X-10.727 Y7.854 E0.84085
G1 X-9.821 Y7.854 E0.07031
G1 X-2.163 Y15.512 E0.84085
G1 X-1.258 Y15.512 E0.07031
G1 X-8.916 Y7.854 E0.84085
G1 X-8.010 Y7.854 E0.07031
G1 X-0.352 Y15.512 E0.84085
G1 X0.553 Y15.512 E0.07031
G1 X-7.104 Y7.854 E0.84085
G1 X-6.199 Y7.854 E0.07031
G1 X1.459 Y15.512 E0.84085
G1 X2.365 Y15.512 E0.07031
G1 X-5.293 Y7.854 E0.84085
G1 X-4.388 Y7.854 E0.07031
G1 X3.270 Y15.512 E0.84085
G1 X4.176 Y15.512 E0.07031
G1 X-3.482 Y7.854 E0.84085
G1 X-2.576 Y7.854 E0.07031
G1 X5.082 Y15.512 E0.84085
G1 X5.987 Y15.512 E0.07031
G1 X-1.671 Y7.854 E0.84085
G1 X-0.765 Y7.854 E0.07031
G1 X6.893 Y15.512 E0.84085
G1 X7.798 Y15.512 E0.07031
G1 X0.140 Y7.854 E0.84085
G1 X1.046 Y7.854 E0.07031
G1 X8.704 Y15.512 E0.84085
G1 X9.610 Y15.512 E0.07031
G1 X1.952 Y7.854 E0.84085
G1 X2.857 Y7.854 E0.07031
G1 X10.515 Y15.512 E0.84085
G1 X11.421 Y15.512 E0.07031
G1 X3.763 Y7.854 E0.84085
G1 X4.669 Y7.854 E0.07031
G1 X12.223 Y15.409 E0.82950
G1 X12.223 Y14.503 E0.07031
G1 X5.574 Y7.854 E0.73006
G1 X6.480 Y7.854 E0.07031
G1 X12.223 Y13.597 E0.63063
G1 X12.223 Y12.692 E0.07031
G1 X7.385 Y7.854 E0.53119
G1 X8.291 Y7.854 E0.07031
G1 X12.223 Y11.786 E0.43175
G1 X12.223 Y10.881 E0.07031
G1 X9.197 Y7.854 E0.33231
G1 X10.102 Y7.854 E0.07031
G1 X12.223 Y9.975 E0.23288
G1 X12.223 Y9.069 E0.07031
G1 X11.008 Y7.854 E0.13344
G1 X11.913 Y7.854 E0.07031
G1 X12.223 Y8.164 E0.03400
G1 E-3.50000 F1500.00000
G1 Z0.700 F15000.000
G1 X-9.946 Y-16.576 F15000.000
G1 Z0.500 F15000.000
G1 E3.50000 F1500.00000
G1 X13.499 Y-16.576 E0.67668 F3600.000
G1 X13.499 Y-6.790 E0.28245
G1 X-13.287 Y-6.790 E0.77311 F3600.000
G1 X-13.287 Y-16.576 E0.28245
G1 X-10.006 Y-16.576 E0.09470
G1 X-10.006 Y-16.933 F15000.000
G1 X13.856 Y-16.933 E0.68872 F3600.000
G1 X13.856 Y-6.433 E0.30306
G1 X-13.644 Y-6.433 E0.79372 F3600.000
G1 X-13.644 Y-16.933 E0.30306
G1 X-10.066 Y-16.933 E0.10327
G1 X-9.806 Y-16.587 F15000.000
G1 E-3.50000 F1500.00000
G1 Z0.900 F15000.000
G1 X-12.888 Y-16.368 F15000.000
G1 Z0.500 F15000.000
G1 E3.50000 F1500.00000
G1 X-13.079 Y-16.177 E0.00782 F4800.000
G1 X-13.079 Y-15.672 E0.01458
G1 X-12.383 Y-16.368 E0.02844
G1 X-11.878 Y-16.368 E0.01458
G1 X-13.079 Y-15.167 E0.04906
G1 X-13.079 Y-14.661 E0.01458
G1 X-11.373 Y-16.368 E0.06968
G1 X-10.867 Y-16.368 E0.01458
G1 X-13.079 Y-14.156 E0.09031
G1 X-13.079 Y-13.651 E0.01458
G1 X-10.362 Y-16.368 E0.11093
G1 X-9.857 Y-16.368 E0.01458
G1 X-13.079 Y-13.146 E0.13155
G1 X-13.079 Y-12.641 E0.01458
G1 X-9.352 Y-16.368 E0.15217
G1 X-8.847 Y-16.368 E0.01458
G1 X-13.079 Y-12.136 E0.17280
G1 X-13.079 Y-11.631 E0.01458
G1 X-8.342 Y-16.368 E0.19342
G1 X-7.837 Y-16.368 E0.01458
G1 X-13.079 Y-11.126 E0.21404
G1 X-13.079 Y-10.621 E0.01458
G1 X-7.332 Y-16.368 E0.23467
G1 X-6.827 Y-16.368 E0.01458
G1 X-13.079 Y-10.115 E0.25529
G1 X-13.079 Y-9.610 E0.01458
G1 X-6.321 Y-16.368 E0.27591
G1 X-5.816 Y-16.368 E0.01458
G1 X-13.079 Y-9.105 E0.29653
G1 X-13.079 Y-8.600 E0.01458
G1 X-5.311 Y-16.368 E0.31716
G1 X-4.806 Y-16.368 E0.01458
G1 X-13.079 Y-8.095 E0.33778
G1 X-13.079 Y-7.590 E0.01458
G1 X-4.301 Y-16.368 E0.35840
G1 X-3.796 Y-16.368 E0.01458
G1 X-13.079 Y-7.085 E0.37902
G1 X-12.661 Y-6.998 E0.01233
G1 X-3.291 Y-16.368 E0.38257
G1 X-2.786 Y-16.368 E0.01458
G1 X-12.156 Y-6.998 E0.38257
G1 X-11.651 Y-6.998 E0.01458
G1 X-2.281 Y-16.368 E0.38257
G1 X-1.775 Y-16.368 E0.01458
G1 X-11.146 Y-6.998 E0.38257
G1 X-10.641 Y-6.998 E0.01458
G1 X-1.270 Y-16.368 E0.38257
G1 X-0.765 Y-16.368 E0.01458
G1 X-10.136 Y-6.998 E0.38257
G1 X-9.630 Y-6.998 E0.01458
G1 X-0.260 Y-16.368 E0.38257
G1 X0.245 Y-16.368 E0.01458
G1 X-9.125 Y-6.998 E0.38257
G1 X-8.620 Y-6.998 E0.01458
G1 X0.750 Y-16.368 E0.38257
G1 X1.255 Y-16.368 E0.01458
G1 X-8.115 Y-6.998 E0.38257
G1 X-7.610 Y-6.998 E0.01458
G1 X1.760 Y-16.368 E0.38257
G1 X2.265 Y-16.368 E0.01458
G1 X-7.105 Y-6.998 E0.38257
G1 X-6.600 Y-6.998 E0.01458
G1 X2.771 Y-16.368 E0.38257
G1 X3.276 Y-16.368 E0.01458
G1 X-6.095 Y-6.998 E0.38257
G1 X-5.590 Y-6.998 E0.01458
G1 X3.781 Y-16.368 E0.38257
G1 X4.286 Y-16.368 E0.01458
G1 X-5.084 Y-6.998 E0.38257
G1 X-4.579 Y-6.998 E0.01458
G1 X4.791 Y-16.368 E0.38257
G1 X5.296 Y-16.368 E0.01458
G1 X-4.074 Y-6.998 E0.38257
G1 X-3.569 Y-6.998 E0.01458
G1 X5.801 Y-16.368 E0.38257
G1 X6.306 Y-16.368 E0.01458
G1 X-3.064 Y-6.998 E0.38257
G1 X-2.559 Y-6.998 E0.01458
G1 X6.811 Y-16.368 E0.38257
G1 X7.317 Y-16.368 E0.01458
G1 X-2.054 Y-6.998 E0.38257
G1 X-1.549 Y-6.998 E0.01458
G1 X7.822 Y-16.368 E0.38257
G1 X8.327 Y-16.368 E0.01458
G1 X-1.044 Y-6.998 E0.38257
G1 X-0.538 Y-6.998 E0.01458
G1 X8.832 Y-16.368 E0.38257
G1 X9.337 Y-16.368 E0.01458
G1 X-0.033 Y-6.998 E0.38257
G1 X0.472 Y-6.998 E0.01458
G1 X9.842 Y-16.368 E0.38257
G1 X10.347 Y-16.368 E0.01458
G1 X0.977 Y-6.998 E0.38257
G1 X1.482 Y-6.998 E0.01458
G1 X10.852 Y-16.368 E0.38257
G1 X11.357 Y-16.368 E0.01458
G1 X1.987 Y-6.998 E0.38257
G1 X2.492 Y-6.998 E0.01458
G1 X11.863 Y-16.368 E0.38257
G1 X12.368 Y-16.368 E0.01458
G1 X2.997 Y-6.998 E0.38257
G1 X3.502 Y-6.998 E0.01458
G1 X12.873 Y-16.368 E0.38257
G1 X13.291 Y-16.281 E0.01233
G1 X4.008 Y-6.998 E0.37903
G1 X4.513 Y-6.998 E0.01458
G1 X13.291 Y-15.776 E0.35840
G1 X13.291 Y-15.271 E0.01458
G1 X5.018 Y-6.998 E0.33778
G1 X5.523 Y-6.998 E0.01458
G1 X13.291 Y-14.766 E0.31716
G1 X13.291 Y-14.261 E0.01458
G1 X6.028 Y-6.998 E0.29654
G1 X6.533 Y-6.998 E0.01458
G1 X13.291 Y-13.756 E0.27591
G1 X13.291 Y-13.251 E0.01458
G1 X7.038 Y-6.998 E0.25529
G1 X7.543 Y-6.998 E0.01458
G1 X13.291 Y-12.746 E0.23467
G1 X13.291 Y-12.240 E0.01458
G1 X8.048 Y-6.998 E0.21405
G1 X8.554 Y-6.998 E0.01458
G1 X13.291 Y-11.735 E0.19342
G1 X13.291 Y-11.230 E0.01458
G1 X9.059 Y-6.998 E0.17280
G1 X9.564 Y-6.998 E0.01458
G1 X13.291 Y-10.725 E0.15218
G1 X13.291 Y-10.220 E0.01458
G1 X10.069 Y-6.998 E0.13155
G1 X10.574 Y-6.998 E0.01458
G1 X13.291 Y-9.715 E0.11093
G1 X13.291 Y-9.210 E0.01458
G1 X11.079 Y-6.998 E0.09031
G1 X11.584 Y-6.998 E0.01458
G1 X13.291 Y-8.705 E0.06969
G1 X13.291 Y-8.200 E0.01458
G1 X12.089 Y-6.998 E0.04906
G1 X12.594 Y-6.998 E0.01458
G1 X13.291 Y-7.694 E0.02844
G1 X13.291 Y-7.189 E0.01458
G1 X13.100 Y-6.998 E0.00782
G1 E-3.50000 F1500.00000
G1 Z0.900 F15000.000
G1 X-6.737 Y-4.815 F15000.000
G1 Z0.500 F15000.000
G1 E3.50000 F1500.00000
G1 X13.453 Y-4.815 E0.58271 F3600.000
G1 X13.453 Y4.971 E0.28245
G1 X-13.333 Y4.971 E0.77311 F3600.000
G1 X-13.333 Y-4.815 E0.28245
G1 X-6.797 Y-4.815 E0.18867
G1 X-6.797 Y-5.172 F15000.000
G1 X13.810 Y-5.172 E0.59475 F3600.000
G1 X13.810 Y5.328 E0.30306
G1 X-13.690 Y5.328 E0.79372 F3600.000
G1 X-13.690 Y-5.172 E0.30306
G1 X-6.857 Y-5.172 E0.19724
G1 X-6.597 Y-4.826 F15000.000
G1 E-3.50000 F1500.00000
G1 Z0.900 F15000.000
G1 X-12.934 Y-4.607 F15000.000
G1 Z0.500 F15000.000
G1 E3.50000 F1500.00000
G1 X-13.126 Y-4.416 E0.00782 F4800.000
G1 X-13.126 Y-3.911 E0.01458
G1 X-12.429 Y-4.607 E0.02844
G1 X-11.924 Y-4.607 E0.01458
G1 X-13.126 Y-3.405 E0.04906
G1 X-13.126 Y-2.900 E0.01458
G1 X-11.419 Y-4.607 E0.06968
G1 X-10.914 Y-4.607 E0.01458
G1 X-13.126 Y-2.395 E0.09031
G1 X-13.126 Y-1.890 E0.01458
G1 X-10.409 Y-4.607 E0.11093
G1 X-9.903 Y-4.607 E0.01458
G1 X-13.126 Y-1.385 E0.13155
G1 X-13.126 Y-0.880 E0.01458
G1 X-9.398 Y-4.607 E0.15217
G1 X-8.893 Y-4.607 E0.01458
G1 X-13.126 Y-0.375 E0.17280
G1 X-13.126 Y0.130 E0.01458
G1 X-8.388 Y-4.607 E0.19342
G1 X-7.883 Y-4.607 E0.01458
G1 X-13.126 Y0.635 E0.21404
G1 X-13.126 Y1.141 E0.01458
G1 X-7.378 Y-4.607 E0.23467
G1 X-6.873 Y-4.607 E0.01458
G1 X-13.126 Y1.646 E0.25529
G1 X-13.126 Y2.151 E0.01458
G1 X-6.368 Y-4.607 E0.27591
G1 X-5.863 Y-4.607 E0.01458
G1 X-13.126 Y2.656 E0.29653
G1 X-13.126 Y3.161 E0.01458
G1 X-5.357 Y-4.607 E0.31716
G1 X-4.852 Y-4.607 E0.01458
G1 X-13.126 Y3.666 E0.33778
G1 X-13.126 Y4.171 E0.01458
G1 X-4.347 Y-4.607 E0.35840
G1 X-3.842 Y-4.607 E0.01458
G1 X-13.126 Y4.676 E0.37902
G1 X-12.707 Y4.763 E0.01233
G1 X-3.337 Y-4.607 E0.38257
G1 X-2.832 Y-4.607 E0.01458
G1 X-12.202 Y4.763 E0.38257
G1 X-11.697 Y4.763 E0.01458
G1 X-2.327 Y-4.607 E0.38257
G1 X-1.822 Y-4.607 E0.01458
G1 X-11.192 Y4.763 E0.38257
G1 X-10.687 Y4.763 E0.01458
G1 X-1.317 Y-4.607 E0.38257
G1 X-0.811 Y-4.607 E0.01458
G1 X-10.182 Y4.763 E0.38257
G1 X-9.677 Y4.763 E0.01458
G1 X-0.306 Y-4.607 E0.38257
G1 X0.199 Y-4.607 E0.01458
G1 X-9.172 Y4.763 E0.38257
G1 X-8.666 Y4.763 E0.01458
G1 X0.704 Y-4.607 E0.38257
G1 X1.209 Y-4.607 E0.01458
G1 X-8.161 Y4.763 E0.38257
G1 X-7.656 Y4.763 E0.01458
G1 X1.714 Y-4.607 E0.38257
G1 X2.219 Y-4.607 E0.01458
G1 X-7.151 Y4.763 E0.38257
G1 X-6.646 Y4.763 E0.01458
G1 X2.724 Y-4.607 E0.38257
G1 X3.229 Y-4.607 E0.01458
G1 X-6.141 Y4.763 E0.38257
G1 X-5.636 Y4.763 E0.01458
G1 X3.735 Y-4.607 E0.38257
G1 X4.240 Y-4.607 E0.01458
G1 X-5.131 Y4.763 E0.38257
G1 X-4.626 Y4.763 E0.01458
G1 X4.745 Y-4.607 E0.38257
G1 X5.250 Y-4.607 E0.01458
G1 X-4.120 Y4.763 E0.38257
G1 X-3.615 Y4.763 E0.01458
