; generated by Slic3r 1.2.9 on 2018-03-23 at 16:49:28

; external perimeters extrusion width = 0.40mm
; perimeters extrusion width = 0.40mm
; infill extrusion width = 0.40mm
; solid infill extrusion width = 0.40mm
; top infill extrusion width = 0.40mm

M107
M83
T0
M116
G21 ; set units to millimeters
G90 ; use absolute coordinates
M83 ; use relative distances for extrusion
G1 E-3.50000 F1500.00000
G1 Z0.400 F15000.000
G1 X17.284 Y-6.146 F15000.000
G1 Z0.300 F15000.000
G1 E3.50000 F1500.00000
G1 X20.506 Y2.913 E0.74095 F960.000
G1 X20.832 Y3.940 E0.08309
G1 X20.942 Y4.382 E0.03512
G1 X21.585 Y7.912 E0.27647
G1 X21.637 Y8.342 E0.03337
G1 X21.681 Y9.052 E0.05487
G1 X21.686 Y9.768 E0.05513
G1 X21.431 Y13.346 E0.27647
G1 X21.377 Y13.763 E0.03237
G1 X21.269 Y14.338 E0.04515
G1 X21.068 Y15.169 E0.06585
G1 X19.931 Y18.571 E0.27647
G1 X19.759 Y18.995 E0.03526
G1 X19.349 Y19.849 E0.07301
G1 X19.126 Y20.246 E0.03511
G1 X17.179 Y23.259 E0.27647
G1 X16.915 Y23.617 E0.03421
G1 X16.388 Y24.248 E0.06337
G1 X15.982 Y24.682 E0.04580
G1 X13.347 Y27.116 E0.27647
G1 X13.012 Y27.390 E0.03337
G1 X12.435 Y27.807 E0.05487
G1 X11.834 Y28.195 E0.05513
G1 X8.676 Y29.898 E0.27647
G1 X8.260 Y30.089 E0.03525
G1 X7.377 Y30.430 E0.07301
G1 X6.942 Y30.567 E0.03512
G1 X3.460 Y31.431 E0.27647
G1 X3.010 Y31.513 E0.03525
G1 X2.069 Y31.624 E0.07301
G1 X1.614 Y31.648 E0.03512
G1 X-1.973 Y31.619 E0.27647
G1 X-2.429 Y31.586 E0.03525
G1 X-3.368 Y31.460 E0.07301
G1 X-3.823 Y31.368 E0.03574
G1 X-7.281 Y30.442 E0.27590
G1 X-8.150 Y30.135 E0.07101
G1 X-8.634 Y29.932 E0.04047
G1 X-9.005 Y29.751 E0.03177
G1 X-12.134 Y27.997 E0.27647
G1 X-12.518 Y27.749 E0.03525
G1 X-13.280 Y27.185 E0.07301
G1 X-13.628 Y26.892 E0.03512
G1 X-16.223 Y24.415 E0.27647
G1 X-16.533 Y24.078 E0.03526
G1 X-17.131 Y23.343 E0.07300
G1 X-17.396 Y22.973 E0.03511
G1 X-19.293 Y19.928 E0.27647
G1 X-19.510 Y19.525 E0.03525
G1 X-19.906 Y18.665 E0.07301
G1 X-20.070 Y18.240 E0.03512
G1 X-21.151 Y14.819 E0.27647
G1 X-21.247 Y14.445 E0.02974
G1 X-21.435 Y13.417 E0.08051
G1 X-21.484 Y12.990 E0.03313
G1 X-21.679 Y9.408 E0.27647
G1 X-21.676 Y8.951 E0.03525
G1 X-21.608 Y8.006 E0.07301
G1 X-21.547 Y7.554 E0.03512
G1 X-20.846 Y4.036 E0.27647
G1 X-20.732 Y3.604 E0.03446
G1 X-11.989 Y-22.796 E2.14312
G1 X-11.646 Y-23.742 E0.07757
G1 X-11.505 Y-24.078 E0.02811
G1 X-11.146 Y-24.821 E0.06360
G1 X-10.971 Y-25.141 E0.02810
G1 X-10.501 Y-25.909 E0.06937
G1 X-10.295 Y-26.210 E0.02811
G1 X-9.796 Y-26.867 E0.06360
G1 X-9.571 Y-27.134 E0.02689
G1 X-8.762 Y-27.985 E0.09046
G1 X-8.147 Y-28.534 E0.06360
G1 X-7.863 Y-28.763 E0.02811
G1 X-7.134 Y-29.292 E0.06937
G1 X-6.829 Y-29.491 E0.02811
G1 X-6.116 Y-29.907 E0.06360
G1 X-5.807 Y-30.068 E0.02688
G1 X-4.734 Y-30.544 E0.09046
G1 X-3.955 Y-30.816 E0.06360
G1 X-2.819 Y-31.112 E0.09046
G1 X-1.660 Y-31.297 E0.09046
G1 X-1.301 Y-31.331 E0.02775
G1 X-0.425 Y-31.370 E0.06758
G1 X-0.061 Y-31.368 E0.02806
G1 X1.138 Y-31.284 E0.09266 F960.000
G1 X1.954 Y-31.159 E0.06360
G1 X3.096 Y-30.886 E0.09046
G1 X3.444 Y-30.779 E0.02811
G1 X4.290 Y-30.471 E0.06937
G1 X4.626 Y-30.329 E0.02811
G1 X5.369 Y-29.971 E0.06360
G1 X5.686 Y-29.798 E0.02775
G1 X6.434 Y-29.341 E0.06758
G1 X6.735 Y-29.136 E0.02806
G1 X7.682 Y-28.396 E0.09266
G1 X8.533 Y-27.587 E0.09046
G1 X9.082 Y-26.971 E0.06360
G1 X9.790 Y-26.035 E0.09046
G1 X10.404 Y-25.035 E0.09046
G1 X10.575 Y-24.712 E0.02810
G1 X11.086 Y-23.578 E0.09587
G1 X17.264 Y-6.203 E1.42116
G1 E-3.50000 F1500.00000
G1 Z0.700 F15000.000
G1 X2.279 Y-17.102 F15000.000
G1 Z0.300 F15000.000
G1 E3.50000 F1500.00000
G1 X1.957 Y-16.743 E0.03710 F600.000
G1 X1.649 Y-16.484 E0.03104
G1 X1.311 Y-16.265 E0.03104
G1 X0.949 Y-16.089 E0.03104
G1 X0.567 Y-15.957 E0.03110
G1 X0.145 Y-15.869 E0.03326
G1 X-0.314 Y-15.837 E0.03541
G1 X-0.772 Y-15.869 E0.03541
G1 X-1.195 Y-15.957 E0.03331
G1 X-1.603 Y-16.100 E0.03332
G1 X-2.012 Y-16.308 E0.03536
G1 X-2.371 Y-16.557 E0.03364
G1 X-2.709 Y-16.867 E0.03538
G1 X-3.066 Y-17.315 E0.04409
G1 X-3.342 Y-17.824 E0.04464
G1 X-3.530 Y-18.393 E0.04616
G1 X-3.610 Y-18.963 E0.04439
G1 X-3.590 Y-19.542 E0.04463
G1 X-3.463 Y-20.127 E0.04617
G1 X-3.273 Y-20.588 E0.03843
G1 X-4.314 Y-20.588 E0.08020
G1 X-4.314 Y-25.388 E0.36991
G1 X-1.945 Y-25.388 E0.18256
G1 X3.761 Y-25.388 E0.43970 F600.000
G1 X3.761 Y-20.588 E0.36991
G1 X2.665 Y-20.588 E0.08445
G1 X2.852 Y-20.073 E0.04227
G1 X2.942 Y-19.680 E0.03104
G1 X2.984 Y-19.279 E0.03104
G1 X2.977 Y-18.877 E0.03104
G1 X2.920 Y-18.478 E0.03104
G1 X2.815 Y-18.086 E0.03124
G1 X2.593 Y-17.561 E0.04394
G1 X2.314 Y-17.150 E0.03829
G1 X2.420 Y-16.727 F15000.000
G1 E-3.50000 F1500.00000
G1 Z0.700 F15000.000
G1 X-2.218 Y-26.024 F15000.000
G1 Z0.300 F15000.000
G1 E3.50000 F1500.00000
G1 X-2.698 Y-26.024 E0.03704 F600.000
G1 X-2.752 Y-26.341 E0.02483
G1 X-2.476 Y-26.438 E0.02256
G1 X-1.766 Y-26.612 E0.05630
G1 X-1.045 Y-26.716 E0.05618
G1 X-0.267 Y-26.751 E0.06000
G1 X0.483 Y-26.710 E0.05788
G1 X1.204 Y-26.599 E0.05624 F600.000
G1 X1.910 Y-26.419 E0.05613
G1 X2.131 Y-26.339 E0.01810
G1 X2.075 Y-26.024 E0.02466
G1 X-2.158 Y-26.024 E0.32623
G1 E-3.50000 F1500.00000
G1 Z0.700 F15000.000
G1 X5.699 Y-14.480 F15000.000
G1 Z0.300 F15000.000
G1 E3.50000 F1500.00000
G1 X5.562 Y-14.297 E0.01756 F720.000
G1 X5.021 Y-13.707 E0.06174
G1 X4.478 Y-13.222 E0.05613
G1 X3.890 Y-12.791 E0.05613
G1 X3.200 Y-12.384 E0.06174
G1 X2.538 Y-12.079 E0.05613
G1 X1.849 Y-11.838 E0.05630
G1 X1.141 Y-11.665 E0.05618
G1 X0.370 Y-11.556 E0.06000
G1 X-0.381 Y-11.525 E0.05788
G1 X-1.109 Y-11.567 E0.05625
G1 X-1.830 Y-11.678 E0.05618
G1 X-2.584 Y-11.872 E0.06000
G1 X-3.289 Y-12.130 E0.05788
G1 X-3.946 Y-12.448 E0.05624
G1 X-4.571 Y-12.827 E0.05630
G1 X-5.154 Y-13.262 E0.05613
G1 X-5.745 Y-13.804 E0.06174
G1 X-6.230 Y-14.347 E0.05613
G1 X-6.662 Y-14.936 E0.05630
G1 X-7.035 Y-15.562 E0.05613
G1 X-7.373 Y-16.287 E0.06163
G1 X-7.626 Y-17.021 E0.05984
G1 X-7.799 Y-17.751 E0.05788
G1 X-7.898 Y-18.475 E0.05624
G1 X-7.927 Y-19.205 E0.05630
G1 X-7.885 Y-19.934 E0.05630
G1 X-7.774 Y-20.656 E0.05630
G1 X-7.595 Y-21.362 E0.05613
G1 X-7.321 Y-22.115 E0.06174
G1 X-7.005 Y-22.769 E0.05597
G1 X-6.587 Y-23.452 E0.06174
G1 X-6.146 Y-24.032 E0.05613
G1 X-5.650 Y-24.568 E0.05630
G1 X-4.949 Y-25.194 E0.07237
G1 X-4.949 Y-19.953 E0.40391
G1 X-4.152 Y-19.953 E0.06147 F720.000
G1 X-4.223 Y-19.621 E0.02617
G1 X-4.247 Y-18.929 E0.05332
G1 X-4.151 Y-18.247 E0.05306
G1 X-3.928 Y-17.571 E0.05493
G1 X-3.598 Y-16.962 E0.05333
G1 X-3.176 Y-16.432 E0.05223
G1 X-2.769 Y-16.059 E0.04254
G1 X-2.339 Y-15.761 E0.04029
G1 X-1.853 Y-15.514 E0.04201
G1 X-1.365 Y-15.344 E0.03984
G1 X-0.859 Y-15.238 E0.03984
G1 X-0.314 Y-15.200 E0.04215
G1 X0.232 Y-15.238 E0.04215
G1 X0.736 Y-15.343 E0.03967
G1 X1.192 Y-15.500 E0.03720
G1 X1.624 Y-15.711 E0.03703
G1 X2.027 Y-15.972 E0.03703
G1 X2.396 Y-16.281 E0.03703
G1 X2.724 Y-16.632 E0.03703
G1 X3.159 Y-17.266 E0.05923
G1 X3.418 Y-17.879 E0.05132
G1 X3.544 Y-18.350 E0.03760
G1 X3.611 Y-18.826 E0.03703
G1 X3.620 Y-19.307 E0.03703
G1 X3.553 Y-19.953 E0.05005
G1 X4.396 Y-19.953 E0.06500
G1 X4.396 Y-25.140 E0.39978
G1 X5.117 Y-24.474 E0.07558
G1 X5.603 Y-23.929 E0.05630
G1 X6.035 Y-23.340 E0.05630
G1 X6.407 Y-22.714 E0.05613
G1 X6.746 Y-21.988 E0.06174
G1 X6.986 Y-21.300 E0.05613
G1 X7.160 Y-20.591 E0.05630
G1 X7.264 Y-19.870 E0.05613
G1 X7.299 Y-19.070 E0.06174
G1 X7.258 Y-18.344 E0.05602
G1 X7.137 Y-17.575 E0.06000
G1 X6.947 Y-16.848 E0.05788
G1 X6.694 Y-16.163 E0.05624
G1 X6.377 Y-15.505 E0.05630
G1 X5.998 Y-14.881 E0.05630
G1 X5.734 Y-14.528 E0.03395
G1 X6.244 Y-14.148 F15000.000
G1 X6.052 Y-13.891 E0.02464 F720.000
G1 X5.468 Y-13.254 E0.06666
G1 X4.878 Y-12.727 E0.06095
G1 X4.240 Y-12.259 E0.06095
G1 X3.495 Y-11.820 E0.06666
G1 X2.777 Y-11.489 E0.06095
G1 X2.029 Y-11.228 E0.06101
G1 X1.261 Y-11.040 E0.06096
G1 X0.427 Y-10.922 E0.06489
G1 X-0.386 Y-10.889 E0.06272
G1 X-1.176 Y-10.934 E0.06099
G1 X-1.958 Y-11.054 E0.06096
G1 X-2.773 Y-11.264 E0.06489
G1 X-3.537 Y-11.545 E0.06273
G1 X-4.250 Y-11.888 E0.06099
G1 X-4.927 Y-12.299 E0.06100
G1 X-5.560 Y-12.772 E0.06095
G1 X-6.198 Y-13.357 E0.06666
G1 X-6.725 Y-13.947 E0.06095
G1 X-7.193 Y-14.585 E0.06101
G1 X-7.597 Y-15.265 E0.06095
G1 X-7.963 Y-16.048 E0.06662
G1 X-8.237 Y-16.843 E0.06483
G1 X-8.425 Y-17.635 E0.06273
G1 X-8.532 Y-18.419 E0.06099
G1 X-8.563 Y-19.210 E0.06101
G1 X-8.518 Y-20.001 E0.06101
G1 X-8.398 Y-20.783 E0.06101
G1 X-8.203 Y-21.549 E0.06095
G1 X-7.907 Y-22.362 E0.06666
G1 X-7.564 Y-23.074 E0.06089
G1 X-7.112 Y-23.811 E0.06666
G1 X-6.633 Y-24.441 E0.06095
G1 X-6.096 Y-25.022 E0.06101
G1 X-5.506 Y-25.549 E0.06095
G1 X-4.806 Y-26.057 E0.06666
G1 X-4.123 Y-26.456 E0.06095
G1 X-3.404 Y-26.787 E0.06101
G1 X-2.657 Y-27.048 E0.06100
G1 X-1.888 Y-27.236 E0.06100
G1 X-1.105 Y-27.350 E0.06096
G1 X-0.264 Y-27.388 E0.06489
G1 X0.549 Y-27.343 E0.06273
G1 X1.331 Y-27.222 E0.06099 F720.000
G1 X2.098 Y-27.028 E0.06095
G1 X2.910 Y-26.732 E0.06666
G1 X3.622 Y-26.388 E0.06090
G1 X4.341 Y-25.949 E0.06489
G1 X4.989 Y-25.458 E0.06273
G1 X5.570 Y-24.920 E0.06099
G1 X6.098 Y-24.330 E0.06100
G1 X6.566 Y-23.691 E0.06100
G1 X6.970 Y-23.012 E0.06095
G1 X7.336 Y-22.228 E0.06666
G1 X7.596 Y-21.481 E0.06095
G1 X7.784 Y-20.712 E0.06100
G1 X7.898 Y-19.930 E0.06095
G1 X7.936 Y-19.065 E0.06666
G1 X7.891 Y-18.276 E0.06090
G1 X7.760 Y-17.445 E0.06489
G1 X7.554 Y-16.657 E0.06273
G1 X7.280 Y-15.915 E0.06099
G1 X6.936 Y-15.202 E0.06100
G1 X6.526 Y-14.525 E0.06100
G1 X6.280 Y-14.196 E0.03168
G1 X5.926 Y-14.185 F15000.000
G1 X-2.624 Y-12.355 F15000.000
G1 X-7.098 Y-16.829 E0.49262 F960.000
G1 X-7.435 Y-18.074 E0.10042
G1 X-1.381 Y-12.021 E0.66650
G1 X-0.371 Y-11.919 E0.07905
G1 X-7.530 Y-19.078 E0.78826
G1 X-5.744 Y-14.568 F15000.000
G1 X-4.901 Y-13.725 E0.09281 F960.000
G1 X-5.900 Y-23.805 F15000.000
G1 X-5.335 Y-23.239 E0.06229 F960.000
G1 X-5.335 Y-22.331 E0.07070
G1 X-6.293 Y-23.290 E0.10556
G1 X-6.638 Y-22.727 E0.05141
G1 X-5.335 Y-21.423 E0.14355
G1 X-5.335 Y-20.515 E0.07070
G1 X-6.940 Y-22.120 E0.17679
G1 X-7.189 Y-21.461 E0.05487
G1 X-4.629 Y-18.901 E0.28180
G1 X-4.473 Y-17.837 E0.08375
G1 X-7.383 Y-20.747 E0.32039
G1 X-7.505 Y-19.961 E0.06194
G1 X0.509 Y-11.947 E0.88231
G1 X1.293 Y-12.070 E0.06185
G1 X-1.605 Y-14.969 E0.31911
G1 X-0.549 Y-14.820 E0.08305
G1 X2.008 Y-12.263 E0.28153
G1 X2.666 Y-12.514 E0.05478
G1 X0.297 Y-14.883 E0.26085
G1 X1.017 Y-15.071 E0.05796
G1 X3.272 Y-12.816 E0.24824
G1 X3.835 Y-13.162 E0.05140
G1 X1.651 Y-15.345 E0.24044
G1 X2.210 Y-15.694 E0.05131
G1 X4.352 Y-13.552 E0.23587
G1 X4.816 Y-13.997 E0.05000
G1 X2.694 Y-16.118 E0.23355
G1 X3.111 Y-16.609 E0.05016
G1 X5.262 Y-14.458 E0.23683
G1 X5.654 Y-14.974 E0.05046
G1 X3.481 Y-17.147 E0.23926
G1 X3.751 Y-17.786 E0.05394
G1 X6.003 Y-15.534 E0.24789
G1 X6.305 Y-16.140 E0.05270
G1 X3.938 Y-18.507 E0.26064
G1 X4.004 Y-19.349 E0.06575
G1 X6.558 Y-16.795 E0.28114
G1 X6.752 Y-17.509 E0.05757
G1 X4.694 Y-19.567 E0.22665
G1 X4.782 Y-20.387 E0.06421
G1 X6.876 Y-18.292 E0.23063
G1 X6.903 Y-19.174 E0.06867
G1 X4.782 Y-21.295 E0.23353
G1 X4.782 Y-22.203 E0.07070
G1 X6.810 Y-20.176 E0.22326
G1 X6.485 Y-21.408 E0.09921
G1 X4.782 Y-23.111 E0.18756
G1 X4.782 Y-24.019 E0.07070
G1 X5.321 Y-23.480 E0.05936
G1 E-3.50000 F1500.00000
G1 Z0.700 F15000.000
G1 X-3.738 Y-25.987 F15000.000
G1 Z0.300 F15000.000
G1 E3.50000 F1500.00000
G1 X-4.631 Y-25.745 E0.07133 F960.000
G1 X3.115 Y-25.978 F15000.000
G1 X4.075 Y-25.721 E0.07656 F960.000
G1 E-3.50000 F1500.00000
G1 Z0.700 F15000.000
G1 X0.489 Y-4.165 F15000.000
G1 Z0.300 F15000.000
G1 E3.50000 F1500.00000
G1 X0.585 Y-4.149 E0.00751 F720.000
G1 X1.107 Y-3.866 E0.04574
G1 X1.508 Y-3.429 E0.04572
G1 X1.729 Y-2.922 E0.04267
G1 X2.905 Y4.409 E0.57219
G1 X2.927 Y4.942 E0.04108
G1 X3.427 Y4.691 E0.04313
G1 X10.210 Y2.100 E0.55952
G1 X10.475 Y2.026 E0.02124
G1 X10.826 Y1.994 E0.02713
G1 X11.324 Y2.069 E0.03883
G1 X11.803 Y2.298 E0.04092
G1 X12.194 Y2.656 E0.04088
G1 X12.463 Y3.114 E0.04089
G1 X12.588 Y3.631 E0.04102
G1 X12.553 Y4.170 E0.04162
G1 X12.362 Y4.669 E0.04118
G1 X12.058 Y5.061 E0.03821
G1 X6.203 Y9.816 E0.58130
G1 X5.764 Y10.008 E0.03692
G1 X6.278 Y10.283 E0.04496
G1 X12.038 Y14.965 E0.57199
G1 X12.258 Y15.219 E0.02591
G1 X12.433 Y15.526 E0.02729
G1 X12.543 Y15.856 E0.02675
G1 X12.587 Y16.207 E0.02729
G1 X12.563 Y16.553 E0.02675
G1 X12.470 Y16.895 E0.02729
G1 X12.315 Y17.206 E0.02676
G1 X12.084 Y17.504 E0.02910
G1 X11.700 Y17.807 E0.03767
G1 X11.236 Y17.996 E0.03864
G1 X10.738 Y18.049 E0.03862
G1 X10.289 Y17.971 E0.03513
G1 X3.419 Y15.347 E0.56667
G1 X2.911 Y15.090 E0.04389
G1 X2.906 Y15.629 E0.04158
G1 X1.737 Y22.923 E0.56928
G1 X1.556 Y23.387 E0.03839
G1 X1.223 Y23.806 E0.04123
G1 X0.773 Y24.111 E0.04189
G1 X0.281 Y24.260 E0.03962
G1 X-0.078 Y24.277 E0.02768
G1 X-0.402 Y24.233 E0.02524
G1 X-0.713 Y24.131 E0.02521
G1 X-1.000 Y23.974 E0.02519
G1 X-1.253 Y23.767 E0.02520
G1 X-1.463 Y23.520 E0.02493
G1 X-1.622 Y23.246 E0.02447
G1 X-1.733 Y22.938 E0.02522
G1 X-2.906 Y15.628 E0.57052
G1 X-2.924 Y15.096 E0.04104
G1 X-3.419 Y15.347 E0.04282
G1 X-10.289 Y17.971 E0.56667
G1 X-10.740 Y18.050 E0.03528
G1 X-11.247 Y17.994 E0.03933
G1 X-11.710 Y17.801 E0.03864
G1 X-12.085 Y17.503 E0.03692
G1 X-12.314 Y17.207 E0.02884
G1 X-12.469 Y16.897 E0.02670
G1 X-12.561 Y16.564 E0.02662
G1 X-12.588 Y16.209 E0.02745
G1 X-12.543 Y15.856 E0.02745
G1 X-12.433 Y15.527 E0.02674
G1 X-12.258 Y15.219 E0.02729
G1 X-12.038 Y14.965 E0.02590
G1 X-6.280 Y10.284 E0.57185
G1 X-5.804 Y10.027 E0.04167
G1 X-6.244 Y9.783 E0.03878
G1 X-12.058 Y5.061 E0.57722
G1 X-12.363 Y4.670 E0.03820
G1 X-12.552 Y4.174 E0.04088
G1 X-12.589 Y3.645 E0.04089
G1 X-12.469 Y3.128 E0.04088
G1 X-12.204 Y2.669 E0.04088
G1 X-11.816 Y2.307 E0.04088
G1 X-11.338 Y2.073 E0.04102
G1 X-10.835 Y1.995 E0.03925
G1 X-10.488 Y2.024 E0.02682
G1 X-10.213 Y2.099 E0.02193
G1 X-3.428 Y4.691 E0.55980
G1 X-2.909 Y4.951 E0.04475
G1 X-2.907 Y4.422 E0.04083
G1 X-1.732 Y-2.910 E0.57228
G1 X-1.517 Y-3.416 E0.04232
G1 X-1.119 Y-3.856 E0.04573
G1 X-0.598 Y-4.145 E0.04586
G1 X-0.004 Y-4.247 E0.04647 F720.000
G1 X0.429 Y-4.175 E0.03389
G1 E-3.50000 F1500.00000
G1 Z0.700 F15000.000
G1 X0.429 Y14.271 F15000.000
G1 Z0.300 F15000.000
G1 E3.50000 F1500.00000
G1 X1.158 Y14.271 E0.05619 F600.000
G1 X1.396 Y14.299 E0.01842
G1 X1.706 Y14.421 E0.02571
G1 X1.979 Y14.638 E0.02689
G1 X2.174 Y14.928 E0.02693
G1 X2.274 Y15.262 E0.02688
G1 X2.271 Y15.576 E0.02414
G1 X1.120 Y22.756 E0.56039
G1 X0.999 Y23.067 E0.02572
G1 X0.786 Y23.334 E0.02638
G1 X0.496 Y23.531 E0.02696
G1 X0.172 Y23.629 E0.02609
G1 X-0.050 Y23.639 E0.01716
G1 X-0.259 Y23.611 E0.01623
G1 X-0.459 Y23.545 E0.01622
G1 X-0.643 Y23.444 E0.01621
G1 X-0.806 Y23.311 E0.01622
G1 X-0.941 Y23.152 E0.01606
G1 X-1.043 Y22.976 E0.01568
G1 X-1.115 Y22.778 E0.01622
G1 X-2.272 Y15.567 E0.56284
G1 X-2.280 Y15.336 E0.01785
G1 X-2.237 Y15.097 E0.01870
G1 X-2.141 Y14.867 E0.01919
G1 X-1.999 Y14.664 E0.01909
G1 X-1.821 Y14.499 E0.01871
G1 X-1.607 Y14.372 E0.01920
G1 X-1.372 Y14.294 E0.01908
G1 X-1.150 Y14.271 E0.01722 F600.000
G1 X0.369 Y14.271 E0.11704
G1 X0.629 Y13.924 F15000.000
G1 X-2.974 Y13.898 F15000.000
G1 X-3.094 Y14.246 E0.02843 F600.000
G1 X-3.306 Y14.525 E0.02700
G1 X-3.494 Y14.673 E0.01841
G1 X-3.677 Y14.766 E0.01583
G1 X-10.458 Y17.355 E0.55940
G1 X-10.760 Y17.408 E0.02358
G1 X-11.087 Y17.372 E0.02536
G1 X-11.384 Y17.248 E0.02478
G1 X-11.629 Y17.053 E0.02417
G1 X-11.773 Y16.867 E0.01814
G1 X-11.873 Y16.668 E0.01715
G1 X-11.932 Y16.455 E0.01707
G1 X-11.949 Y16.226 E0.01770
G1 X-11.920 Y15.998 E0.01770
G1 X-11.850 Y15.787 E0.01711
G1 X-11.737 Y15.588 E0.01766
G1 X-11.594 Y15.423 E0.01681
G1 X-5.925 Y10.815 E0.56298
G1 X-5.621 Y10.651 E0.02670
G1 X-5.256 Y10.588 E0.02854 F600.000
G1 X-4.980 Y10.619 E0.02138
G1 X-4.734 Y10.707 E0.02009
G1 X-4.515 Y10.847 E0.02008
G1 X-4.326 Y11.042 E0.02088
G1 X-3.077 Y13.194 E0.19179
G1 X-2.970 Y13.528 E0.02702
G1 X-2.973 Y13.838 E0.02387
G1 X-2.703 Y14.149 F15000.000
G1 X-2.208 Y13.396 F15000.000
G1 X-4.157 Y10.021 E0.30035 F600.000
G1 X-2.079 Y6.421 E0.32035
G1 X2.078 Y6.421 E0.32036 F600.000
G1 X4.157 Y10.021 E0.32035
G1 X2.078 Y13.621 E0.32036
G1 X-2.079 Y13.621 E0.32036
G1 X-2.178 Y13.448 E0.01538
G1 X-2.608 Y13.396 F15000.000
