; generated by Slic3r 1.2.9 on 2018-02-01 at 14:36:20

; external perimeters extrusion width = 0.40mm
; perimeters extrusion width = 0.40mm
; infill extrusion width = 0.40mm
; solid infill extrusion width = 0.40mm
; top infill extrusion width = 0.40mm

M107
M83
T0
M116
G21 ; set units to millimeters
G90 ; use absolute coordinates
M83 ; use relative distances for extrusion
G1 E-3.50000 F1500.00000
G1 Z0.400 F15000.000
G1 X0.194 Y11.713 F15000.000
G1 Z0.300 F15000.000
G1 E3.50000 F1500.00000
G1 X-0.322 Y11.716 E0.03971 F960.000
G1 X-1.085 Y11.685 E0.05890
G1 X-24.466 Y10.256 E1.80520
G1 X-25.260 Y10.142 E0.06181
G1 X-25.863 Y9.985 E0.04804
G1 X-26.066 Y9.913 E0.01659
G1 X-26.705 Y9.620 E0.05417
G1 X-27.126 Y9.367 E0.03788
G1 X-27.728 Y8.898 E0.05879
G1 X-27.891 Y8.745 E0.01722
G1 X-28.328 Y8.250 E0.05085
G1 X-28.539 Y7.962 E0.02756
G1 X-28.876 Y7.403 E0.05031
G1 X-29.165 Y6.733 E0.05620
G1 X-29.359 Y6.040 E0.05546
G1 X-29.404 Y5.797 E0.01906
G1 X-29.459 Y5.362 E0.03377
G1 X-29.481 Y4.890 E0.03643
G1 X-29.478 Y-4.999 E0.76208
G1 X-29.436 Y-5.550 E0.04264
G1 X-29.378 Y-5.924 E0.02916
G1 X-29.240 Y-6.503 E0.04589
G1 X-28.973 Y-7.203 E0.05769
G1 X-28.864 Y-7.425 E0.01909
G1 X-28.474 Y-8.062 E0.05755
G1 X-28.009 Y-8.624 E0.05617
G1 X-27.618 Y-8.994 E0.04154
G1 X-27.438 Y-9.141 E0.01786
G1 X-26.819 Y-9.556 E0.05746
G1 X-26.237 Y-9.840 E0.04987
G1 X-25.902 Y-9.967 E0.02768
G1 X-25.180 Y-10.160 E0.05757
G1 X-24.466 Y-10.256 E0.05552
G1 X-1.059 Y-11.687 E1.80721
G1 X0.185 Y-11.718 E0.09592
G1 X1.470 Y-11.666 E0.09909 F960.000
G1 X2.318 Y-11.581 E0.06566
G1 X3.353 Y-11.423 E0.08073
G1 X4.687 Y-11.129 E0.10523
G1 X5.734 Y-10.827 E0.08401
G1 X7.031 Y-10.355 E0.10635
G1 X8.138 Y-9.863 E0.09340
G1 X9.276 Y-9.262 E0.09916
G1 X10.413 Y-8.553 E0.10328
G1 X11.551 Y-7.723 E0.10849
G1 X12.537 Y-6.886 E0.09974
G1 X13.220 Y-6.231 E0.07288
G1 X13.997 Y-5.398 E0.08782
G1 X14.778 Y-4.444 E0.09500
G1 X15.461 Y-3.491 E0.09039
G1 X16.105 Y-2.447 E0.09450
G1 X16.438 Y-1.735 E0.06062
G1 X16.545 Y-1.423 E0.02541
G1 X16.726 Y-0.568 E0.06735
G1 X16.751 Y-0.285 E0.02189
G1 X16.727 Y0.566 E0.06559
G1 X16.685 Y0.846 E0.02183
G1 X16.487 Y1.606 E0.06055
G1 X16.387 Y1.872 E0.02186
G1 X16.114 Y2.437 E0.04837
G1 X15.725 Y3.084 E0.05819
G1 X15.294 Y3.737 E0.06033
G1 X14.766 Y4.460 E0.06899
G1 X14.255 Y5.098 E0.06298
G1 X13.741 Y5.685 E0.06013
G1 X13.132 Y6.320 E0.06776
G1 X12.543 Y6.883 E0.06284
G1 X11.838 Y7.493 E0.07179
G1 X10.988 Y8.152 E0.08295
G1 X10.467 Y8.519 E0.04906
G1 X9.810 Y8.945 E0.06039
G1 X8.832 Y9.508 E0.08697
G1 X7.772 Y10.036 E0.09128
G1 X6.866 Y10.422 E0.07587
G1 X5.707 Y10.835 E0.09478
G1 X4.532 Y11.169 E0.09419
G1 X3.103 Y11.467 E0.11251
G1 X1.996 Y11.617 E0.08608
G1 X1.079 Y11.691 E0.07085
G1 X0.254 Y11.712 E0.06367
G1 E-3.50000 F1500.00000
G1 Z0.700 F15000.000
G1 X-14.440 Y-1.257 F15000.000
G1 Z0.300 F15000.000
G1 E3.50000 F1500.00000
G1 X-14.030 Y-0.936 E0.04011 F720.000
G1 X-14.152 Y-0.448 E0.03876 F720.000
G1 X-14.143 Y0.017 E0.03580
G1 X-13.964 Y0.527 E0.04168
G1 X-13.774 Y0.708 E0.02026
G1 X-14.280 Y0.955 E0.04344
G1 X-14.630 Y1.348 E0.04052
G1 X-14.810 Y1.814 E0.03854
G1 X-14.838 Y2.293 E0.03696
G1 X-14.737 Y2.761 E0.03690
G1 X-14.478 Y3.237 E0.04177
G1 X-14.135 Y3.571 E0.03692
G1 X-13.768 Y3.794 E0.03312
G1 X-13.355 Y3.951 E0.03407
G1 X-12.936 Y4.045 E0.03309
G1 X-12.605 Y4.084 E0.02563
G1 X-12.107 Y4.091 E0.03844
G1 X-11.617 Y4.043 E0.03794
G1 X-11.043 Y3.887 E0.04582
G1 X-10.497 Y3.597 E0.04765
G1 X-10.029 Y3.196 E0.04751
G1 X-9.855 Y2.960 E0.02256
G1 X-9.529 Y3.493 E0.04812
G1 X-9.169 Y3.785 E0.03573
G1 X-8.802 Y3.923 E0.03022
G1 X-8.407 Y3.956 E0.03055
G1 X-7.932 Y3.912 E0.03675
G1 X-7.133 Y3.920 E0.06159
G1 X-6.542 Y3.889 E0.04564
G1 X-5.892 Y3.785 E0.05073
G1 X-5.327 Y3.594 E0.04597
G1 X-4.981 Y3.399 E0.03062
G1 X-4.890 Y3.553 E0.01376
G1 X-4.626 Y3.855 E0.03096
G1 X-4.244 Y4.138 E0.03664
G1 X-3.894 Y4.294 E0.02947
G1 X-3.546 Y4.379 E0.02761
G1 X-3.188 Y4.403 E0.02765
G1 X-2.831 Y4.364 E0.02772
G1 X-2.462 Y4.256 E0.02962
G1 X-2.028 Y4.014 E0.03832
G1 X-1.848 Y3.852 E0.01863
G1 X-1.263 Y4.102 E0.04903
G1 X-0.700 Y4.123 E0.04335
G1 X-0.130 Y3.862 E0.04837
G1 X0.075 Y3.642 E0.02316
G1 X0.541 Y3.991 E0.04481
G1 X1.012 Y4.135 E0.03798
G1 X1.447 Y4.124 E0.03355
G1 X1.230 Y4.960 E0.06658
G1 X1.325 Y5.566 E0.04725
G1 X1.585 Y6.057 E0.04278
G1 X1.835 Y6.317 E0.02783
G1 X2.157 Y6.526 E0.02957
G1 X2.401 Y6.589 E0.01945
G1 X2.384 Y6.901 E0.02409
G1 X1.594 Y7.013 E0.06146
G1 X0.739 Y7.082 E0.06612
G1 X-0.169 Y7.097 E0.07001
G1 X-0.814 Y7.072 E0.04973
G1 X-24.131 Y5.647 E1.80023
G1 X-24.396 Y5.602 E0.02076
G1 X-24.534 Y5.541 E0.01159
G1 X-24.654 Y5.446 E0.01179
G1 X-24.759 Y5.301 E0.01379
G1 X-24.828 Y5.126 E0.01451
G1 X-24.860 Y4.860 E0.02068
G1 X-24.860 Y3.132 E0.13312
G1 X-24.445 Y3.475 E0.04145
G1 X-23.919 Y3.778 E0.04681
G1 X-23.589 Y3.908 E0.02734
G1 X-23.230 Y4.007 E0.02866
G1 X-22.883 Y4.066 E0.02717
G1 X-22.365 Y4.093 E0.03995
G1 X-21.871 Y4.061 E0.03812
G1 X-21.417 Y3.973 E0.03564
G1 X-20.985 Y3.819 E0.03536
G1 X-20.592 Y3.600 E0.03466
G1 X-20.245 Y3.318 E0.03449
G1 X-19.955 Y2.975 E0.03460
G1 X-19.742 Y2.603 E0.03301
G1 X-19.601 Y2.216 E0.03179
G1 X-19.592 Y1.839 E0.02902
G1 X-19.770 Y1.266 E0.04624
G1 X-20.217 Y0.798 E0.04991
G1 X-20.767 Y0.549 E0.04649
G1 X-21.245 Y0.494 E0.03706
G1 X-21.679 Y0.567 E0.03391
G1 X-21.990 Y0.708 E0.02633
G1 X-22.245 Y0.898 E0.02455
G1 X-22.346 Y1.018 E0.01207
G1 X-22.553 Y1.008 E0.01595
G1 X-22.701 Y0.926 E0.01305
G1 X-22.799 Y0.758 E0.01502
G1 X-22.850 Y0.575 E0.01460
G1 X-22.886 Y0.323 E0.01965
G1 X-22.902 Y-0.073 E0.03049
G1 X-22.882 Y-0.428 E0.02746
G1 X-22.844 Y-0.669 E0.01879
G1 X-22.796 Y-0.835 E0.01330
G1 X-22.686 Y-1.017 E0.01634
G1 X-22.507 Y-1.109 E0.01557
G1 X-21.823 Y-0.716 E0.06080
G1 X-21.408 Y-0.584 E0.03355
G1 X-20.945 Y-0.560 E0.03577
G1 X-20.482 Y-0.702 E0.03732
G1 X-20.157 Y-0.922 E0.03025
G1 X-19.952 Y-1.161 E0.02423
G1 X-19.706 Y-1.001 E0.02265
G1 X-19.213 Y-0.912 E0.03855
G1 X-18.754 Y-0.960 E0.03560
G1 X-18.736 Y1.897 E0.22019
G1 X-18.777 Y2.409 E0.03954
G1 X-18.757 Y2.839 E0.03321
G1 X-18.536 Y3.358 E0.04346
G1 X-18.234 Y3.650 E0.03235
G1 X-17.906 Y3.834 E0.02896
G1 X-17.342 Y3.960 E0.04455
G1 X-16.752 Y3.881 E0.04590
G1 X-16.305 Y3.637 E0.03925
G1 X-15.975 Y3.265 E0.03828
G1 X-15.797 Y2.854 E0.03452
G1 X-15.722 Y2.436 E0.03275
G1 X-15.736 Y-0.963 E0.26191
G1 X-15.478 Y-0.959 E0.01992
G1 X-15.020 Y-1.007 E0.03552
G1 X-14.591 Y-1.141 E0.03459
G1 X-14.487 Y-1.221 E0.01009
G1 E-3.50000 F1500.00000
G1 Z0.700 F15000.000
G1 X-18.873 Y-5.968 F15000.000
G1 Z0.300 F15000.000
G1 E3.50000 F1500.00000
G1 X-0.793 Y-7.074 E1.39593 F720.000
G1 X0.056 Y-7.098 E0.06548
G1 X1.042 Y-7.064 E0.07602
G1 X1.830 Y-6.985 E0.06103 F720.000
G1 X2.600 Y-6.864 E0.06005
G1 X3.634 Y-6.629 E0.08174
G1 X4.391 Y-6.405 E0.06081
G1 X5.392 Y-6.034 E0.08227
G1 X6.199 Y-5.668 E0.06834
G1 X7.063 Y-5.204 E0.07557
G1 X7.742 Y-4.782 E0.06163
G1 X8.610 Y-4.158 E0.08239
G1 X9.363 Y-3.528 E0.07563
G1 X9.999 Y-2.917 E0.06796
G1 X10.337 Y-2.550 E0.03849
G1 X7.878 Y-2.555 E0.18951
G1 X7.568 Y-2.533 E0.02396
G1 X7.185 Y-2.450 E0.03018
G1 X6.742 Y-2.231 E0.03807
G1 X6.561 Y-2.373 E0.01772
G1 X6.218 Y-2.518 E0.02869
G1 X5.769 Y-2.567 E0.03478
G1 X5.251 Y-2.413 E0.04166
G1 X4.880 Y-2.121 E0.03641
G1 X4.595 Y-1.757 E0.03565
G1 X4.128 Y-2.220 E0.05068
G1 X3.825 Y-2.399 E0.02711
G1 X3.433 Y-2.530 E0.03189
G1 X2.872 Y-2.552 E0.04322
G1 X2.380 Y-2.395 E0.03983
G1 X2.153 Y-2.203 E0.02292
G1 X1.670 Y-2.511 E0.04408
G1 X1.000 Y-2.566 E0.05183
G1 X0.451 Y-2.331 E0.04605
G1 X0.181 Y-2.107 E0.02703
G1 X0.004 Y-2.277 E0.01893
G1 X-0.484 Y-2.520 E0.04202
G1 X-0.948 Y-2.565 E0.03592
G1 X-1.460 Y-2.450 E0.04041
G1 X-1.905 Y-2.180 E0.04013
G1 X-2.251 Y-1.724 E0.04415
G1 X-2.370 Y-1.296 E0.03419
G1 X-2.342 Y-0.781 E0.03979
G1 X-2.205 Y-0.375 E0.03305
G1 X-2.075 Y-0.112 E0.02259
G1 X-1.654 Y0.629 E0.06567
G1 X-1.886 Y0.834 E0.02387
G1 X-2.159 Y0.630 E0.02629
G1 X-2.482 Y0.467 E0.02785
G1 X-2.852 Y0.358 E0.02972
G1 X-3.357 Y0.326 E0.03899
G1 X-3.343 Y-0.020 E0.02666
G1 X-3.366 Y-0.607 E0.04528
G1 X-3.476 Y-1.304 E0.05437
G1 X-3.575 Y-1.659 E0.02838
G1 X-3.758 Y-2.123 E0.03847
G1 X-4.077 Y-2.667 E0.04857
G1 X-4.446 Y-3.097 E0.04370
G1 X-4.920 Y-3.475 E0.04671
G1 X-5.453 Y-3.736 E0.04575
G1 X-6.053 Y-3.892 E0.04779
G1 X-6.600 Y-3.964 E0.04249
G1 X-8.305 Y-4.003 E0.13145
G1 X-8.764 Y-3.954 E0.03557
G1 X-9.306 Y-3.744 E0.04476
G1 X-9.900 Y-3.163 E0.06409
G1 X-10.222 Y-3.509 E0.03643
G1 X-10.487 Y-3.714 E0.02583
G1 X-10.865 Y-3.917 E0.03308
G1 X-11.178 Y-4.029 E0.02564
G1 X-11.600 Y-4.120 E0.03325
G1 X-11.967 Y-4.159 E0.02847
G1 X-12.473 Y-4.161 E0.03896
G1 X-12.873 Y-4.117 E0.03099
G1 X-13.309 Y-4.019 E0.03449
G1 X-13.718 Y-3.858 E0.03383
G1 X-14.001 Y-3.701 E0.02497
G1 X-14.196 Y-3.554 E0.01881
G1 X-14.429 Y-3.763 E0.02417
G1 X-14.815 Y-3.937 E0.03264
G1 X-15.138 Y-3.991 E0.02526
G1 X-18.488 Y-3.980 E0.25816
G1 X-19.152 Y-4.027 E0.05124
G1 X-19.651 Y-3.962 E0.03884
G1 X-20.058 Y-3.722 E0.03639
G1 X-20.317 Y-3.448 E0.02909
G1 X-20.502 Y-3.606 E0.01872
G1 X-21.003 Y-3.896 E0.04462
G1 X-21.462 Y-4.055 E0.03743
G1 X-21.972 Y-4.145 E0.03993
G1 X-22.712 Y-4.154 E0.05704
G1 X-23.115 Y-4.101 E0.03128
G1 X-23.538 Y-3.997 E0.03357
G1 X-24.105 Y-3.757 E0.04747
G1 X-24.512 Y-3.496 E0.03725
G1 X-24.857 Y-3.209 E0.03464
G1 X-24.857 Y-4.922 E0.13203
G1 X-24.823 Y-5.141 E0.01712
G1 X-24.747 Y-5.325 E0.01531
G1 X-24.640 Y-5.460 E0.01330
G1 X-24.511 Y-5.552 E0.01218
G1 X-24.353 Y-5.612 E0.01304
G1 X-24.136 Y-5.647 E0.01690
G1 X-18.933 Y-5.965 E0.40176
G1 E-3.50000 F1500.00000
G1 Z0.700 F15000.000
G1 X4.708 Y5.843 F15000.000
G1 Z0.300 F15000.000
G1 E3.50000 F1500.00000
G1 X4.862 Y5.670 E0.01784 F600.000
G1 X5.091 Y5.304 E0.03331
G1 X5.247 Y4.985 E0.02734
G1 X5.982 Y3.091 E0.15661
G1 X6.262 Y3.100 E0.02158
G1 X6.309 Y3.272 E0.01377 F600.000
G1 X6.530 Y3.628 E0.03226
G1 X6.856 Y3.916 E0.03352
G1 X7.193 Y4.074 E0.02866
G1 X7.600 Y4.142 E0.03186
G1 X8.222 Y4.111 E0.04799
G1 X8.316 Y4.382 E0.02208
G1 X7.824 Y4.729 E0.04639
G1 X7.334 Y5.043 E0.04482
G1 X6.722 Y5.397 E0.05453
G1 X5.930 Y5.798 E0.06840
G1 X5.084 Y6.158 E0.07085
G1 X4.687 Y6.297 E0.03237
G1 X4.523 Y6.052 E0.02272
G1 X4.668 Y5.888 E0.01684
G1 E-3.50000 F1500.00000
G1 Z0.700 F15000.000
G1 X11.408 Y-0.392 F15000.000
G1 Z0.300 F15000.000
G1 E3.50000 F1500.00000
G1 X11.536 Y-1.068 E0.05299 F600.000
G1 X12.100 Y-0.139 E0.08379
G1 X12.138 Y0.007 E0.01162 F600.000
G1 X12.097 Y0.152 E0.01157
G1 X11.856 Y0.557 E0.03631
G1 X11.452 Y1.169 E0.05654
G1 X11.179 Y1.539 E0.03542
G1 X10.858 Y1.295 E0.03104
G1 X10.445 Y1.139 E0.03402
G1 X10.954 Y0.424 E0.06760
G1 X11.239 Y-0.012 E0.04017
G1 X11.383 Y-0.338 E0.02742
G1 X10.798 Y-0.586 F15000.000
G1 X10.858 Y-0.905 E0.02499 F720.000
G1 X10.842 Y-1.205 E0.02317
G1 X10.733 Y-1.525 E0.02601
G1 X10.500 Y-1.779 E0.02657
G1 X10.253 Y-1.882 E0.02060
G1 X10.057 Y-1.915 E0.01530
G1 X7.900 Y-1.919 E0.16628
G1 X7.658 Y-1.902 E0.01868
G1 X7.396 Y-1.845 E0.02062
G1 X7.161 Y-1.729 E0.02023
G1 X6.972 Y-1.532 E0.02101
G1 X6.771 Y-1.049 E0.04037
G1 X6.566 Y-1.506 E0.03865
G1 X6.437 Y-1.664 E0.01569
G1 X6.236 Y-1.820 E0.01962
G1 X6.056 Y-1.896 E0.01508
G1 X5.828 Y-1.922 E0.01768
G1 X5.549 Y-1.838 E0.02243
G1 X5.333 Y-1.669 E0.02114
G1 X5.156 Y-1.443 E0.02213
G1 X5.045 Y-1.244 E0.01757
G1 X4.909 Y-0.919 E0.02713
G1 X4.543 Y0.141 E0.08642
G1 X4.233 Y-0.659 E0.06614
G1 X4.083 Y-1.211 E0.04403
G1 X3.930 Y-1.521 E0.02665
G1 X3.737 Y-1.713 E0.02097
G1 X3.559 Y-1.817 E0.01587
G1 X3.317 Y-1.899 E0.01971
G1 X2.959 Y-1.913 E0.02756
G1 X2.693 Y-1.827 E0.02154
G1 X2.491 Y-1.657 E0.02040
G1 X2.386 Y-1.479 E0.01591
G1 X2.318 Y-1.217 E0.02085
G1 X2.037 Y-1.204 E0.02168
G1 X1.952 Y-1.441 E0.01942
G1 X1.766 Y-1.695 E0.02426
G1 X1.461 Y-1.890 E0.02789
G1 X1.105 Y-1.919 E0.02754
G1 X0.786 Y-1.783 E0.02677
G1 X0.565 Y-1.600 E0.02208
G1 X0.359 Y-1.350 E0.02497
G1 X0.190 Y-1.045 E0.02689
G1 X-0.161 Y-1.553 E0.04760
G1 X-0.367 Y-1.752 E0.02204
G1 X-0.662 Y-1.899 E0.02542
G1 X-0.908 Y-1.923 E0.01906
G1 X-1.219 Y-1.853 E0.02453
G1 X-1.472 Y-1.700 E0.02278
G1 X-1.671 Y-1.437 E0.02545
G1 X-1.730 Y-1.226 E0.01683
G1 X-1.712 Y-0.902 E0.02505
G1 X-1.617 Y-0.618 E0.02307
G1 X-1.514 Y-0.410 E0.01789
G1 X-1.044 Y0.415 E0.07312
G1 X-0.812 Y0.766 E0.03246
G1 X-1.138 Y1.226 E0.04348
G1 X-1.746 Y2.294 E0.09470
G1 X-1.994 Y1.710 E0.04886
G1 X-2.128 Y1.501 E0.01914
G1 X-2.298 Y1.320 E0.01915
G1 X-2.495 Y1.173 E0.01894
G1 X-2.717 Y1.061 E0.01915
G1 X-2.963 Y0.988 E0.01978
G1 X-3.317 Y0.965 E0.02735
G1 X-3.568 Y1.004 E0.01958
G1 X-4.115 Y1.190 E0.04451
G1 X-3.994 Y0.351 E0.06535
G1 X-3.979 Y-0.020 E0.02857
G1 X-4.000 Y-0.545 E0.04049
G1 X-4.098 Y-1.168 E0.04865
G1 X-4.179 Y-1.456 E0.02302
G1 X-4.332 Y-1.844 E0.03214
G1 X-4.597 Y-2.296 E0.04039
G1 X-4.890 Y-2.638 E0.03469
G1 X-5.262 Y-2.935 E0.03668
G1 X-5.675 Y-3.137 E0.03547
G1 X-6.175 Y-3.267 E0.03984
G1 X-6.649 Y-3.329 E0.03679
G1 X-8.279 Y-3.366 E0.12567
G1 X-8.613 Y-3.331 E0.02592
G1 X-8.955 Y-3.199 E0.02819
G1 X-9.202 Y-2.957 E0.02667
G1 X-9.300 Y-2.674 E0.02304
G1 X-9.305 Y-2.405 E0.02077
G1 X-9.266 Y-1.942 E0.03584
G1 X-9.270 Y1.663 E0.27775
G1 X-9.288 Y2.272 E0.04699
G1 X-9.261 Y2.575 E0.02343
G1 X-9.182 Y2.842 E0.02151
G1 X-9.044 Y3.068 E0.02040
G1 X-8.849 Y3.227 E0.01937
G1 X-8.661 Y3.297 E0.01546
G1 X-8.410 Y3.318 E0.01938
G1 X-7.959 Y3.276 E0.03494
G1 X-7.147 Y3.284 E0.06262
G1 X-6.609 Y3.256 E0.04148
G1 X-6.045 Y3.166 E0.04400
G1 X-5.587 Y3.011 E0.03731
G1 X-5.259 Y2.826 E0.02899
G1 X-5.051 Y2.669 E0.02007
G1 X-4.661 Y2.310 E0.04082
G1 X-4.584 Y2.733 E0.03311
G1 X-4.499 Y2.964 E0.01898
G1 X-4.372 Y3.180 E0.01925
G1 X-4.192 Y3.385 E0.02104
G1 X-3.921 Y3.586 E0.02600
G1 X-3.688 Y3.690 E0.01972
G1 X-3.448 Y3.749 E0.01900
G1 X-3.201 Y3.765 E0.01907
G1 X-2.956 Y3.739 E0.01903
G1 X-2.710 Y3.666 E0.01976
G1 X-2.399 Y3.493 E0.02741
G1 X-2.208 Y3.322 E0.01975
G1 X-2.051 Y3.120 E0.01976
G1 X-1.918 Y2.839 E0.02394
G1 X-1.451 Y3.331 E0.05228
G1 X-1.121 Y3.471 E0.02759
G1 X-0.828 Y3.482 E0.02265
G1 X-0.509 Y3.336 E0.02703
G1 X-0.260 Y3.070 E0.02810
G1 X0.137 Y2.478 E0.05489
G1 X0.404 Y2.960 E0.04243
G1 X0.617 Y3.254 E0.02800
G1 X0.833 Y3.415 E0.02076
G1 X1.099 Y3.497 E0.02150
G1 X1.387 Y3.490 E0.02215
G1 X1.662 Y3.400 E0.02230
G1 X1.928 Y3.185 E0.02642
G1 X2.061 Y2.919 E0.02290
G1 X2.098 Y2.628 E0.02260
G1 X2.053 Y2.326 E0.02352
G1 X1.901 Y1.988 E0.02856
G1 X1.222 Y0.858 E0.10156
G1 X1.185 Y0.708 E0.01195
G1 X1.260 Y0.482 E0.01836
G1 X1.945 Y-0.678 E0.10378
G1 X2.033 Y-0.919 E0.01976
G1 X2.332 Y-0.883 E0.02325
G1 X2.352 Y-0.711 E0.01336
G1 X2.414 Y-0.491 E0.01759
G1 X2.750 Y0.344 E0.06939
G1 X3.345 Y1.951 E0.13207
G1 X3.617 Y2.571 E0.05213
G1 X3.647 Y2.721 E0.01181
G1 X3.602 Y2.884 E0.01304
G1 X3.417 Y3.270 E0.03304
G1 X3.201 Y3.836 E0.04665
G1 X3.084 Y4.031 E0.01755
G1 X2.930 Y4.160 E0.01546
G1 X2.803 Y4.217 E0.01076
G1 X2.309 Y4.360 E0.03961
G1 X2.101 Y4.496 E0.01918
G1 X1.963 Y4.666 E0.01686
G1 X1.878 Y4.992 E0.02600
G1 X1.936 Y5.362 E0.02886
G1 X2.105 Y5.681 E0.02775
G1 X2.243 Y5.824 E0.01530
G1 X2.416 Y5.936 E0.01595
G1 X2.752 Y6.023 E0.02670
G1 X3.141 Y5.993 E0.03007
G1 X3.596 Y5.856 E0.03663
G1 X3.896 Y5.708 E0.02579
G1 X4.145 Y5.520 E0.02404
G1 X4.351 Y5.288 E0.02391
G1 X4.535 Y4.994 E0.02672
G1 X4.665 Y4.728 E0.02283
G1 X5.295 Y3.129 E0.13246
G1 X6.405 Y-0.027 E0.25785
G1 X6.615 Y-0.485 E0.03880
G1 X6.761 Y-0.902 E0.03404
G1 X7.061 Y-0.407 E0.04458
G1 X7.355 Y-0.224 E0.02670
G1 X7.725 Y-0.145 E0.02915
G1 X8.387 Y-0.111 E0.05110
G1 X7.236 Y1.474 E0.15100
G1 X7.008 Y1.816 E0.03168
G1 X6.875 Y2.091 E0.02355
G1 X6.804 Y2.370 E0.02215
G1 X6.801 Y2.668 E0.02295
G1 X6.897 Y3.014 E0.02773
G1 X7.021 Y3.214 E0.01808
G1 X7.208 Y3.379 E0.01926
G1 X7.383 Y3.461 E0.01486
G1 X7.638 Y3.503 E0.01990
G1 X8.234 Y3.474 E0.04605
G1 X10.340 Y3.480 E0.16223
G1 X9.809 Y3.982 E0.05623
G1 X9.249 Y4.463 E0.05692
G1 X8.686 Y4.898 E0.05487
G1 X8.178 Y5.256 E0.04786
G1 X7.665 Y5.585 E0.04700
G1 X7.025 Y5.956 E0.05703
G1 X6.198 Y6.374 E0.07139
G1 X5.314 Y6.751 E0.07409
G1 X4.404 Y7.069 E0.07424
G1 X3.478 Y7.326 E0.07408
G1 X2.532 Y7.522 E0.07444
G1 X1.664 Y7.645 E0.06754
