; generated by Slic3r 1.2.9 on 2017-10-30 at 11:24:33

; external perimeters extrusion width = 0.40mm
; perimeters extrusion width = 0.40mm
; infill extrusion width = 0.40mm
; solid infill extrusion width = 0.40mm
; top infill extrusion width = 0.40mm

M107
M83
T0
M116
G21 ; set units to millimeters
G90 ; use absolute coordinates
M83 ; use relative distances for extrusion
G1 E-3.50000 F1500.00000
G1 Z0.400 F15000.000
G1 X0.000 Y9.491 F15000.000
G1 Z0.300 F15000.000
G1 E3.50000 F1500.00000
G1 X-8.684 Y9.491 E0.66921 F960.000
G1 X-10.331 Y9.097 E0.13052
G1 X-11.620 Y7.999 E0.13052
G1 X-12.319 Y5.856 E0.17373
G1 X-12.319 Y-8.014 E1.06890
G1 X-11.925 Y-9.662 E0.13052
G1 X-10.827 Y-10.951 E0.13052
G1 X-8.684 Y-11.650 E0.17373
G1 X8.684 Y-11.650 E1.33841
G1 X10.331 Y-11.256 E0.13052
G1 X11.620 Y-10.158 E0.13052 F960.000
G1 X12.319 Y-8.014 E0.17373
G1 X12.319 Y5.856 E1.06890
G1 X11.925 Y7.503 E0.13052
G1 X10.827 Y8.792 E0.13052
G1 X8.684 Y9.491 E0.17373
G1 X0.060 Y9.491 E0.66458
G1 E-3.50000 F1500.00000
G1 Z0.700 F15000.000
G1 X1.646 Y1.883 F15000.000
G1 Z0.300 F15000.000
G1 E3.50000 F1500.00000
G1 X1.646 Y-7.029 E0.68679 F600.000
G1 X7.698 Y-7.029 E0.46638
G1 X7.698 Y4.870 E0.91698
G1 X1.646 Y4.870 E0.46638 F600.000
G1 X1.646 Y1.943 E0.22557
G1 X1.011 Y1.943 F15000.000
G1 X1.011 Y-7.665 E0.74040 F720.000
G1 X8.334 Y-7.665 E0.56434
G1 X8.334 Y5.505 E1.01495
G1 X1.011 Y5.505 E0.56434 F720.000
G1 X1.011 Y2.003 E0.26993
G1 X1.357 Y1.743 F15000.000
G1 X2.341 Y4.484 F15000.000
G1 X2.032 Y4.175 E0.03487 F960.000
G1 X2.032 Y3.246 E0.07396
G1 X3.270 Y4.484 E0.13946
G1 X4.199 Y4.484 E0.07396
G1 X2.032 Y2.317 E0.24405
G1 X2.032 Y1.388 E0.07396
G1 X5.128 Y4.484 E0.34865
G1 X6.057 Y4.484 E0.07396
G1 X2.032 Y0.460 E0.45324
G1 X2.032 Y-0.469 E0.07396
G1 X6.985 Y4.484 E0.55783
G1 X7.313 Y3.883 E0.05453
G1 X2.032 Y-1.398 E0.59468
G1 X2.032 Y-2.327 E0.07396
G1 X7.313 Y2.954 E0.59468
G1 X7.313 Y2.025 E0.07396
G1 X2.032 Y-3.256 E0.59468
G1 X2.032 Y-4.184 E0.07396
G1 X7.313 Y1.097 E0.59468
G1 X7.313 Y0.168 E0.07396
G1 X2.032 Y-5.113 E0.59468
G1 X2.032 Y-6.042 E0.07396
G1 X7.313 Y-0.761 E0.59468
G1 X7.313 Y-1.690 E0.07396
G1 X2.359 Y-6.643 E0.55783
G1 X3.288 Y-6.643 E0.07396
G1 X7.313 Y-2.619 E0.45324
G1 X7.313 Y-3.547 E0.07396
G1 X4.217 Y-6.643 E0.34865
G1 X5.145 Y-6.643 E0.07396
G1 X7.313 Y-4.476 E0.24406
G1 X7.313 Y-5.405 E0.07396
G1 X6.074 Y-6.643 E0.13946
G1 X7.003 Y-6.643 E0.07396
G1 X7.313 Y-6.334 E0.03487
G1 E-3.50000 F1500.00000
G1 Z0.700 F15000.000
G1 X-7.698 Y-0.281 F15000.000
G1 Z0.300 F15000.000
G1 E3.50000 F1500.00000
G1 X-7.698 Y-7.029 E0.52001 F600.000
G1 X-1.646 Y-7.029 E0.46638
G1 X-1.646 Y4.870 E0.91698
G1 X-7.698 Y4.870 E0.46638 F600.000
G1 X-7.698 Y-0.221 E0.39235
G1 X-8.334 Y-0.221 F15000.000
G1 X-8.334 Y-7.665 E0.57362 F720.000
G1 X-1.011 Y-7.665 E0.56434
G1 X-1.011 Y5.505 E1.01495
G1 X-8.334 Y5.505 E0.56434 F720.000
G1 X-8.334 Y-0.161 E0.43671
G1 X-7.987 Y-0.421 F15000.000
G1 X-7.003 Y4.484 F15000.000
G1 X-7.313 Y4.175 E0.03487 F960.000
G1 X-7.313 Y3.246 E0.07396
G1 X-6.074 Y4.484 E0.13946
G1 X-5.145 Y4.484 E0.07396
G1 X-7.313 Y2.317 E0.24405
G1 X-7.313 Y1.388 E0.07396
G1 X-4.217 Y4.484 E0.34865
G1 X-3.288 Y4.484 E0.07396
G1 X-7.313 Y0.460 E0.45324
G1 X-7.313 Y-0.469 E0.07396
G1 X-2.359 Y4.484 E0.55783
G1 X-2.032 Y3.883 E0.05453
G1 X-7.313 Y-1.398 E0.59468
G1 X-7.313 Y-2.327 E0.07396
G1 X-2.032 Y2.954 E0.59468
G1 X-2.032 Y2.025 E0.07396
G1 X-7.313 Y-3.256 E0.59468
G1 X-7.313 Y-4.184 E0.07396
G1 X-2.032 Y1.097 E0.59468
G1 X-2.032 Y0.168 E0.07396
G1 X-7.313 Y-5.113 E0.59468
G1 X-7.313 Y-6.042 E0.07396
G1 X-2.032 Y-0.761 E0.59468
G1 X-2.032 Y-1.690 E0.07396
G1 X-6.985 Y-6.643 E0.55783
G1 X-6.057 Y-6.643 E0.07396
G1 X-2.032 Y-2.619 E0.45324
G1 X-2.032 Y-3.547 E0.07396
G1 X-5.128 Y-6.643 E0.34865
G1 X-4.199 Y-6.643 E0.07396
G1 X-2.032 Y-4.476 E0.24406
G1 X-2.032 Y-5.405 E0.07396
G1 X-3.270 Y-6.643 E0.13946
G1 X-2.341 Y-6.643 E0.07396
G1 X-2.032 Y-6.334 E0.03487
G1 E-3.50000 F1500.00000
G1 Z0.700 F15000.000
G1 X8.127 Y2.174 F15000.000
G1 Z0.500 F15000.000
G1 E3.50000 F1500.00000
G1 X8.127 Y5.298 E0.09019 F2400.000
G1 X1.218 Y5.298 E0.19941 F2400.000
G1 X1.218 Y-7.457 E0.36817
G1 X8.127 Y-7.457 E0.19941
G1 X8.127 Y2.114 E0.27625
G1 X8.484 Y2.114 F15000.000
G1 X8.484 Y5.655 E0.10222 F2400.000
G1 X0.861 Y5.655 E0.22002 F2400.000
G1 X0.861 Y-7.815 E0.38878
G1 X8.484 Y-7.815 E0.22002
G1 X8.484 Y2.054 E0.28482
G1 X8.137 Y2.314 F15000.000
G1 X7.727 Y5.091 F15000.000
G1 X7.919 Y4.899 E0.00793 F2400.000
G1 X7.919 Y4.387 E0.01501
G1 X7.215 Y5.091 E0.02917
G1 X6.702 Y5.091 E0.01501
G1 X7.919 Y3.874 E0.05040
G1 X7.919 Y3.362 E0.01501
G1 X6.190 Y5.091 E0.07163
G1 X5.677 Y5.091 E0.01501
G1 X7.919 Y2.849 E0.09286
G1 X7.919 Y2.337 E0.01501
G1 X5.165 Y5.091 E0.11409
G1 X4.652 Y5.091 E0.01501
G1 X7.919 Y1.824 E0.13532
G1 X7.919 Y1.312 E0.01501
G1 X4.140 Y5.091 E0.15656
G1 X3.627 Y5.091 E0.01501
G1 X7.919 Y0.799 E0.17779
G1 X7.919 Y0.287 E0.01501
G1 X3.115 Y5.091 E0.19902
G1 X2.602 Y5.091 E0.01501
G1 X7.919 Y-0.226 E0.22025
G1 X7.919 Y-0.739 E0.01501
G1 X2.090 Y5.091 E0.24148
G1 X1.577 Y5.091 E0.01501
G1 X7.919 Y-1.251 E0.26272
G1 X7.919 Y-1.764 E0.01501
G1 X1.426 Y4.730 E0.26899
G1 X1.426 Y4.217 E0.01501
G1 X7.919 Y-2.276 E0.26899
G1 X7.919 Y-2.789 E0.01501
G1 X1.426 Y3.705 E0.26899
G1 X1.426 Y3.192 E0.01501
G1 X7.919 Y-3.301 E0.26899
G1 X7.919 Y-3.814 E0.01501
G1 X1.426 Y2.680 E0.26899
G1 X1.426 Y2.167 E0.01501
G1 X7.919 Y-4.326 E0.26899
G1 X7.919 Y-4.839 E0.01501
G1 X1.426 Y1.655 E0.26899
G1 X1.426 Y1.142 E0.01501
G1 X7.919 Y-5.351 E0.26899
G1 X7.919 Y-5.864 E0.01501
G1 X1.426 Y0.630 E0.26899
G1 X1.426 Y0.117 E0.01501
G1 X7.919 Y-6.376 E0.26899
G1 X7.919 Y-6.889 E0.01501
G1 X1.426 Y-0.395 E0.26899
G1 X1.426 Y-0.908 E0.01501
G1 X7.767 Y-7.250 E0.26272
G1 X7.255 Y-7.250 E0.01501
G1 X1.426 Y-1.421 E0.24148
G1 X1.426 Y-1.933 E0.01501
G1 X6.742 Y-7.250 E0.22025
G1 X6.230 Y-7.250 E0.01501
G1 X1.426 Y-2.446 E0.19902
G1 X1.426 Y-2.958 E0.01501
G1 X5.717 Y-7.250 E0.17779
G1 X5.205 Y-7.250 E0.01501
G1 X1.426 Y-3.471 E0.15656
G1 X1.426 Y-3.983 E0.01501
G1 X4.692 Y-7.250 E0.13532
G1 X4.180 Y-7.250 E0.01501
G1 X1.426 Y-4.496 E0.11409
G1 X1.426 Y-5.008 E0.01501
G1 X3.667 Y-7.250 E0.09286
G1 X3.155 Y-7.250 E0.01501
G1 X1.426 Y-5.521 E0.07163
G1 X1.426 Y-6.033 E0.01501
G1 X2.642 Y-7.250 E0.05040
G1 X2.129 Y-7.250 E0.01501
G1 X1.426 Y-6.546 E0.02916
G1 X1.426 Y-7.058 E0.01501
G1 X1.617 Y-7.250 E0.00793
G1 E-3.50000 F1500.00000
G1 Z0.900 F15000.000
G1 X-1.218 Y1.031 F15000.000
G1 Z0.500 F15000.000
G1 E3.50000 F1500.00000
G1 X-1.218 Y5.298 E0.12316 F2400.000
G1 X-8.127 Y5.298 E0.19941 F2400.000
G1 X-8.127 Y-7.457 E0.36817
G1 X-1.218 Y-7.457 E0.19941
G1 X-1.218 Y0.971 E0.24328
G1 X-0.861 Y0.971 F15000.000
G1 X-0.861 Y5.655 E0.13520 F2400.000
G1 X-8.484 Y5.655 E0.22002 F2400.000
G1 X-8.484 Y-7.815 E0.38878
G1 X-0.861 Y-7.815 E0.22002
G1 X-0.861 Y0.911 E0.25185
G1 X-1.207 Y1.171 F15000.000
G1 X-1.617 Y5.091 F15000.000
G1 X-1.426 Y4.899 E0.00793 F2400.000
G1 X-1.426 Y4.387 E0.01501
G1 X-2.130 Y5.091 E0.02917
G1 X-2.642 Y5.091 E0.01501
G1 X-1.426 Y3.874 E0.05040
G1 X-1.426 Y3.362 E0.01501
G1 X-3.155 Y5.091 E0.07163
G1 X-3.667 Y5.091 E0.01501
G1 X-1.426 Y2.849 E0.09286
G1 X-1.426 Y2.337 E0.01501
G1 X-4.180 Y5.091 E0.11409
G1 X-4.692 Y5.091 E0.01501
G1 X-1.426 Y1.824 E0.13532
G1 X-1.426 Y1.312 E0.01501
G1 X-5.205 Y5.091 E0.15656
G1 X-5.717 Y5.091 E0.01501
G1 X-1.426 Y0.799 E0.17779
G1 X-1.426 Y0.287 E0.01501
G1 X-6.230 Y5.091 E0.19902
G1 X-6.742 Y5.091 E0.01501
G1 X-1.426 Y-0.226 E0.22025
G1 X-1.426 Y-0.739 E0.01501
G1 X-7.255 Y5.091 E0.24148
G1 X-7.767 Y5.091 E0.01501
G1 X-1.426 Y-1.251 E0.26272
G1 X-1.426 Y-1.764 E0.01501
G1 X-7.919 Y4.730 E0.26899
G1 X-7.919 Y4.217 E0.01501
G1 X-1.426 Y-2.276 E0.26899
G1 X-1.426 Y-2.789 E0.01501
G1 X-7.919 Y3.705 E0.26899
G1 X-7.919 Y3.192 E0.01501
G1 X-1.426 Y-3.301 E0.26899
G1 X-1.426 Y-3.814 E0.01501
G1 X-7.919 Y2.680 E0.26899
G1 X-7.919 Y2.167 E0.01501
G1 X-1.426 Y-4.326 E0.26899
G1 X-1.426 Y-4.839 E0.01501
G1 X-7.919 Y1.655 E0.26899
G1 X-7.919 Y1.142 E0.01501
G1 X-1.426 Y-5.351 E0.26899
G1 X-1.426 Y-5.864 E0.01501
G1 X-7.919 Y0.630 E0.26899
G1 X-7.919 Y0.117 E0.01501
G1 X-1.426 Y-6.376 E0.26899
G1 X-1.426 Y-6.889 E0.01501
G1 X-7.919 Y-0.395 E0.26899
G1 X-7.919 Y-0.908 E0.01501
G1 X-1.577 Y-7.250 E0.26272
G1 X-2.090 Y-7.250 E0.01501
G1 X-7.919 Y-1.421 E0.24148
G1 X-7.919 Y-1.933 E0.01501
G1 X-2.602 Y-7.250 E0.22025
G1 X-3.115 Y-7.250 E0.01501
G1 X-7.919 Y-2.446 E0.19902
G1 X-7.919 Y-2.958 E0.01501
G1 X-3.627 Y-7.250 E0.17779
G1 X-4.140 Y-7.250 E0.01501
G1 X-7.919 Y-3.471 E0.15656
G1 X-7.919 Y-3.983 E0.01501
G1 X-4.652 Y-7.250 E0.13532
G1 X-5.165 Y-7.250 E0.01501
G1 X-7.919 Y-4.496 E0.11409
G1 X-7.919 Y-5.008 E0.01501
G1 X-5.677 Y-7.250 E0.09286
G1 X-6.190 Y-7.250 E0.01501
G1 X-7.919 Y-5.521 E0.07163
G1 X-7.919 Y-6.033 E0.01501
G1 X-6.702 Y-7.250 E0.05040
G1 X-7.215 Y-7.250 E0.01501
G1 X-7.919 Y-6.546 E0.02916
G1 X-7.919 Y-7.058 E0.01501
G1 X-7.727 Y-7.250 E0.00793
G1 E-3.50000 F1500.00000
G1 Z0.900 F15000.000
G1 X8.127 Y2.328 F15000.000
G1 Z0.700 F15000.000
G1 E3.50000 F1500.00000
G1 X8.127 Y5.298 E0.08573 F2400.000
G1 X1.218 Y5.298 E0.19941 F2400.000
G1 X1.218 Y-7.457 E0.36817
G1 X8.127 Y-7.457 E0.19941
G1 X8.127 Y2.268 E0.28070
G1 X8.484 Y2.268 F15000.000
G1 X8.484 Y5.655 E0.09777 F2400.000
G1 X0.861 Y5.655 E0.22002 F2400.000
G1 X0.861 Y-7.815 E0.38878
G1 X8.484 Y-7.815 E0.22002
G1 X8.484 Y2.208 E0.28928
G1 X8.137 Y2.468 F15000.000
G1 X2.739 Y5.091 F15000.000
G1 X1.426 Y3.777 E0.05362 F2400.000
G1 X1.426 Y1.572 E0.06364
G1 X6.561 Y5.091 E0.17968
G1 X7.789 Y5.091 E0.03544
G1 X1.426 Y-1.273 E0.25975
G1 X1.426 Y-2.659 E0.04000
G1 X7.919 Y1.777 E0.22697
G1 X7.919 Y0.170 E0.04637
G1 X1.426 Y-6.323 E0.26504
G1 X1.426 Y-6.890 E0.01636
G1 X7.919 Y-2.454 E0.22697
G1 X7.919 Y-4.879 E0.07001
G1 X5.549 Y-7.250 E0.09675
G1 X7.155 Y-7.250 E0.04637
G1 X7.919 Y-6.685 E0.02742
G1 E-3.50000 F1500.00000
G1 Z1.100 F15000.000
G1 X-1.218 Y1.699 F15000.000
G1 Z0.700 F15000.000
G1 E3.50000 F1500.00000
G1 X-1.218 Y5.298 E0.10390 F2400.000
G1 X-8.127 Y5.298 E0.19941 F2400.000
G1 X-8.127 Y-7.457 E0.36817
G1 X-1.218 Y-7.457 E0.19941
G1 X-1.218 Y1.639 E0.26253
G1 X-0.861 Y1.639 F15000.000
G1 X-0.861 Y5.655 E0.11594 F2400.000
G1 X-8.484 Y5.655 E0.22002 F2400.000
G1 X-8.484 Y-7.815 E0.38878
G1 X-0.861 Y-7.815 E0.22002
G1 X-0.861 Y1.579 E0.27111
G1 X-1.207 Y1.839 F15000.000
G1 X-7.919 Y4.250 F15000.000
G1 X-6.732 Y5.091 E0.04197 F2400.000
G1 X-4.836 Y5.091 E0.05474
G1 X-7.919 Y2.007 E0.12585
G1 X-7.919 Y0.045 E0.05664
G1 X-1.426 Y4.417 E0.22593
G1 X-1.426 Y3.451 E0.02788
G1 X-7.919 Y-3.042 E0.26504
G1 X-7.919 Y-4.160 E0.03226
G1 X-1.426 Y0.212 E0.22593
G1 X-1.426 Y-1.599 E0.05226
G1 X-7.076 Y-7.250 E0.23065
G1 X-6.242 Y-7.250 E0.02406
G1 X-1.426 Y-3.993 E0.16781
G1 X-2.026 Y-7.250 E0.09557
G1 X-1.426 Y-6.649 E0.02452
M106 S255
G1 E-3.50000 F1500.00000
G1 Z1.100 F15000.000
G1 X1.218 Y-2.215 F15000.000
G1 Z0.900 F15000.000
G1 E3.50000 F1500.00000
G1 X1.218 Y-7.457 E0.15130 F2400.000
G1 X8.127 Y-7.457 E0.19941
G1 X8.127 Y5.298 E0.36817
G1 X1.218 Y5.298 E0.19941 F2400.000
G1 X1.218 Y-2.155 E0.21514
G1 X0.861 Y-2.155 F15000.000
G1 X0.861 Y-7.815 E0.16334 F2400.000
G1 X8.484 Y-7.815 E0.22002
G1 X8.484 Y5.655 E0.38878
G1 X0.861 Y5.655 E0.22002 F2400.000
G1 X0.861 Y-2.095 E0.22371
G1 X1.207 Y-2.355 F15000.000
G1 X1.612 Y-7.250 F15000.000
G1 X1.426 Y-7.045 E0.00799 F2400.000
G1 X1.426 Y-3.777 E0.09434
G1 X4.898 Y-7.250 E0.14175
G1 X5.817 Y-7.250 E0.02653
G1 X1.426 Y-0.726 E0.22698
G1 X1.426 Y1.273 E0.05770
G1 X7.919 Y-5.220 E0.26504
G1 X7.919 Y-4.088 E0.03267
G1 X1.760 Y5.091 E0.31904
G1 X2.658 Y5.091 E0.02591
G1 X7.919 Y-0.170 E0.21475
G1 X7.919 Y2.231 E0.06931
G1 X5.965 Y5.091 E0.09997
G1 X7.919 Y4.879 E0.05672
G1 X7.708 Y5.091 E0.00862
G1 E-3.50000 F1500.00000
G1 Z1.300 F15000.000
G1 X-1.218 Y-4.025 F15000.000
G1 Z0.900 F15000.000
G1 E3.50000 F1500.00000
G1 X-1.218 Y5.298 E0.26911 F2400.000
G1 X-8.127 Y5.298 E0.19941 F2400.000
G1 X-8.127 Y-7.457 E0.36817
G1 X-1.218 Y-7.457 E0.19941
G1 X-1.218 Y-4.085 E0.09733
G1 X-0.861 Y-4.085 F15000.000
G1 X-0.861 Y5.655 E0.28115 F2400.000
G1 X-8.484 Y5.655 E0.22002 F2400.000
G1 X-8.484 Y-7.815 E0.38878
G1 X-0.861 Y-7.815 E0.22002
G1 X-0.861 Y-4.145 E0.10590
G1 X-1.207 Y-3.885 F15000.000
G1 X-7.919 Y-4.532 F15000.000
G1 X-5.201 Y-7.250 E0.11091 F2400.000
G1 X-4.172 Y-7.250 E0.02970
G1 X-7.919 Y-1.777 E0.19141
G1 X-7.919 Y0.517 E0.06623
G1 X-1.426 Y-5.976 E0.26504
G1 X-1.426 Y-5.053 E0.02662
G1 X-7.919 Y4.485 E0.33304
G1 X-7.442 Y5.091 E0.02225
G1 X-1.426 Y-0.926 E0.24558
G1 X-1.426 Y1.209 E0.06162
G1 X-4.097 Y5.091 E0.13601
G1 X-1.426 Y4.124 E0.08200
G1 X-2.392 Y5.091 E0.03946
G1 E-3.50000 F1500.00000
G1 Z1.300 F15000.000
G1 X1.218 Y2.210 F15000.000
G1 Z1.100 F15000.000
G1 E3.50000 F1500.00000
G1 X1.218 Y-7.378 E0.27673 F2400.000
G1 X8.047 Y-7.378 E0.19711
G1 X8.047 Y5.298 E0.36587
G1 X1.218 Y5.298 E0.19711 F2400.000
G1 X1.218 Y2.270 E0.08741
G1 X0.861 Y2.270 F15000.000
G1 X0.861 Y-7.735 E0.28877 F2400.000
G1 X8.404 Y-7.735 E0.21772
G1 X8.404 Y5.655 E0.38648
G1 X0.861 Y5.655 E0.21772 F2400.000
G1 X0.861 Y2.330 E0.09598
G1 X1.207 Y2.070 F15000.000
G1 X2.739 Y5.091 F15000.000
G1 X1.426 Y3.777 E0.05362 F2400.000
G1 X1.426 Y1.579 E0.06343
G1 X6.558 Y5.091 E0.17948
G1 X7.789 Y5.091 E0.03554
G1 X1.426 Y-1.273 E0.25975
G1 X1.426 Y-2.649 E0.03971
G1 X7.839 Y1.727 E0.22409
G1 X7.839 Y0.091 E0.04722
G1 X1.426 Y-6.323 E0.26179
G1 X1.426 Y-6.877 E0.01599
G1 X7.839 Y-2.501 E0.22409
G1 X7.839 Y-4.959 E0.07094
G1 X5.628 Y-7.170 E0.09025
G1 X7.259 Y-7.170 E0.04707
G1 X7.839 Y-6.729 E0.02103
G1 E-3.50000 F1500.00000
G1 Z1.500 F15000.000
G1 X-8.047 Y-1.864 F15000.000
G1 Z1.100 F15000.000
G1 E3.50000 F1500.00000
G1 X-8.047 Y-7.378 E0.15915 F2400.000
G1 X-1.218 Y-7.378 E0.19711
G1 X-1.218 Y5.298 E0.36587
G1 X-8.047 Y5.298 E0.19711 F2400.000
G1 X-8.047 Y-1.804 E0.20499
G1 X-8.404 Y-1.804 F15000.000
G1 X-8.404 Y-7.735 E0.17119 F2400.000
G1 X-0.861 Y-7.735 E0.21772
G1 X-0.861 Y5.655 E0.38648
G1 X-8.404 Y5.655 E0.21772 F2400.000
G1 X-8.404 Y-1.744 E0.21356
G1 X-8.058 Y-2.004 F15000.000
G1 E-3.50000 F1500.00000
G1 Z1.500 F15000.000
G1 X-7.839 Y4.315 F15000.000
G1 Z1.100 F15000.000
G1 E3.50000 F1500.00000
G1 X-6.746 Y5.091 E0.03869 F2400.000
G1 X-4.836 Y5.091 E0.05514
G1 X-7.839 Y2.087 E0.12260
G1 X-7.839 Y0.115 E0.05691
G1 X-1.426 Y4.420 E0.22295
G1 X-1.426 Y3.451 E0.02797
G1 X-7.839 Y-2.963 E0.26179
G1 X-7.839 Y-4.084 E0.03237
G1 X-1.426 Y0.220 E0.22295
G1 X-1.426 Y-1.599 E0.05251
G1 X-6.997 Y-7.170 E0.22740
G1 X-6.160 Y-7.170 E0.02416
G1 X-1.426 Y-3.979 E0.16478
G1 X-1.947 Y-7.170 E0.09332
G1 X-1.426 Y-6.649 E0.02127
G1 E-3.50000 F1500.00000
G1 Z1.500 F15000.000
G1 X1.218 Y2.286 F15000.000
G1 Z1.300 F15000.000
G1 E3.50000 F1500.00000
G1 X1.218 Y-7.113 E0.27130 F2400.000
G1 X7.783 Y-7.113 E0.18948
G1 X7.783 Y2.207 E0.26901
G1 X7.783 Y5.298 E0.08923 F2400.000
G1 X1.218 Y5.298 E0.18948
G1 X1.218 Y2.346 E0.08521
G1 X0.861 Y2.346 F15000.000
G1 X0.861 Y-7.471 E0.28334 F2400.000
G1 X8.140 Y-7.471 E0.21009
G1 X8.140 Y2.207 E0.27931
G1 X8.140 Y5.655 E0.09954 F2400.000
G1 X0.861 Y5.655 E0.21009
G1 X0.861 Y2.406 E0.09378
G1 X1.207 Y2.146 F15000.000
G1 X5.183 Y5.091 F15000.000
G1 X7.575 Y2.699 E0.09764 F2400.000
G1 X7.575 Y-0.528 E0.09313
G1 X3.838 Y5.091 E0.19476
G1 X1.426 Y3.798 E0.07901
G1 X7.575 Y-2.351 E0.25100
G1 X7.559 Y-6.881 E0.13074
G1 X1.426 Y2.395 E0.32097
G1 X1.426 Y-1.252 E0.10526
G1 X7.079 Y-6.906 E0.23077
G1 X3.395 Y-6.906 E0.10633
G1 X1.426 Y-3.981 E0.10177
G1 X1.426 Y-6.302 E0.06699
G1 X2.029 Y-6.906 E0.02465
G1 E-3.50000 F1500.00000
G1 Z1.700 F15000.000
G1 X-7.783 Y1.724 F15000.000
G1 Z1.300 F15000.000
G1 E3.50000 F1500.00000
G1 X-7.783 Y-7.113 E0.25507 F2400.000
G1 X-1.218 Y-7.113 E0.18948
G1 X-1.218 Y5.298 E0.35824
G1 X-7.783 Y5.298 E0.18948 F2400.000
G1 X-7.783 Y1.784 E0.10143
G1 X-8.140 Y1.784 F15000.000
G1 X-8.140 Y-7.471 E0.26711 F2400.000
G1 X-0.861 Y-7.471 E0.21009
G1 X-0.861 Y5.655 E0.37885
G1 X-8.140 Y5.655 E0.21009 F2400.000
G1 X-8.140 Y1.844 E0.11001
G1 X-7.793 Y1.584 F15000.000
G1 E-3.50000 F1500.00000
