; generated by Slic3r 1.2.9 on 2018-04-16 at 14:40:30

; external perimeters extrusion width = 0.40mm
; perimeters extrusion width = 0.40mm
; infill extrusion width = 0.40mm
; solid infill extrusion width = 0.40mm
; top infill extrusion width = 0.40mm

M107
M83
T0
M116
G21 ; set units to millimeters
G90 ; use absolute coordinates
M83 ; use relative distances for extrusion
G1 E-3.50000 F1500.00000
G1 Z0.400 F15000.000
G1 X10.890 Y10.779 F15000.000
G1 Z0.300 F15000.000
G1 E3.50000 F1500.00000
G1 X10.303 Y11.354 E0.06326 F960.000
G1 X9.563 Y11.985 E0.07496
G1 X8.820 Y12.543 E0.07164
G1 X8.073 Y13.038 E0.06910
G1 X7.557 Y13.343 E0.04614
G1 X6.836 Y13.726 E0.06294
G1 X6.295 Y13.983 E0.04614
G1 X5.364 Y14.365 E0.07760
G1 X4.618 Y14.622 E0.06080
G1 X3.833 Y14.847 E0.06294
G1 X3.064 Y15.025 E0.06080
G1 X2.008 Y15.202 E0.08248
G1 X0.943 Y15.305 E0.08248
G1 X-0.063 Y15.335 E0.07760
G1 X-0.662 Y15.320 E0.04614
G1 X-1.477 Y15.263 E0.06294
G1 X-2.260 Y15.167 E0.06080
G1 X-3.064 Y15.025 E0.06294
G1 X-3.939 Y14.818 E0.06929
G1 X-4.859 Y14.544 E0.07399
G1 X-5.803 Y14.195 E0.07760
G1 X-6.665 Y13.811 E0.07271
G1 X-7.557 Y13.343 E0.07760
G1 X-8.073 Y13.038 E0.04614
G1 X-8.910 Y12.480 E0.07760
G1 X-9.540 Y12.005 E0.06080
G1 X-10.386 Y11.279 E0.08593
G1 X-11.146 Y10.527 E0.08235
G1 X-12.152 Y9.352 E0.11920
G1 X-12.640 Y8.680 E0.06402
G1 X-13.249 Y7.722 E0.08744
G1 X-13.726 Y6.836 E0.07760
G1 X-14.168 Y5.862 E0.08241
G1 X-14.452 Y5.125 E0.06087
G1 X-14.771 Y4.119 E0.08133
G1 X-14.971 Y3.313 E0.06402
G1 X-15.122 Y2.538 E0.06087
G1 X-15.258 Y1.540 E0.07760
G1 X-15.324 Y0.599 E0.07271
G1 X-15.328 Y-0.408 E0.07760
G1 X-15.263 Y-1.477 E0.08248
G1 X-15.122 Y-2.538 E0.08248
G1 X-14.976 Y-3.298 E0.05965
G1 X-14.774 Y-4.103 E0.06402
G1 X-14.432 Y-5.185 E0.08744
G1 X-14.059 Y-6.121 E0.07760
G1 X-13.456 Y-7.347 E0.10535
G1 X-12.650 Y-8.667 E0.11920
G1 X-12.161 Y-9.339 E0.06402
G1 X-11.675 Y-9.942 E0.05972
G1 X-11.235 Y-10.435 E0.05090
G1 X-10.723 Y-10.962 E0.05662
G1 X-10.082 Y-11.552 E0.06711
G1 X-9.518 Y-12.023 E0.05662
G1 X-8.910 Y-12.480 E0.05862
G1 X-8.073 Y-13.038 E0.07760
G1 X-7.567 Y-13.337 E0.04525
G1 X-6.958 Y-13.663 E0.05326
G1 X-5.885 Y-14.159 E0.09109
G1 X-5.305 Y-14.389 E0.04809
G1 X-4.348 Y-14.704 E0.07760
G1 X-3.312 Y-14.972 E0.08248
G1 X-2.538 Y-15.122 E0.06080
G1 X-1.540 Y-15.258 E0.07760
G1 X-0.898 Y-15.306 E0.04959
G1 X0.475 Y-15.324 E0.10585
G1 X1.446 Y-15.265 E0.07496 F960.000
G1 X2.537 Y-15.122 E0.08476
G1 X3.312 Y-14.972 E0.06087
G1 X4.104 Y-14.774 E0.06294
G1 X4.799 Y-14.565 E0.05591
G1 X5.364 Y-14.365 E0.04614
G1 X6.121 Y-14.059 E0.06294
G1 X6.665 Y-13.811 E0.04614
G1 X7.557 Y-13.343 E0.07760
G1 X8.714 Y-12.614 E0.10535
G1 X9.735 Y-11.846 E0.09846
G1 X10.354 Y-11.310 E0.06315
G1 X10.942 Y-10.743 E0.06294
G1 X11.354 Y-10.308 E0.04614
G1 X12.123 Y-9.391 E0.09226
G1 X12.480 Y-8.910 E0.04614
G1 X12.936 Y-8.233 E0.06294
G1 X13.249 Y-7.722 E0.04614
G1 X13.837 Y-6.608 E0.09714
G1 X14.259 Y-5.640 E0.08133
G1 X14.488 Y-5.021 E0.05090
G1 X14.713 Y-4.321 E0.05662
G1 X14.972 Y-3.312 E0.08030
G1 X15.122 Y-2.538 E0.06080
G1 X15.258 Y-1.540 E0.07760
G1 X15.305 Y-0.943 E0.04614
G1 X15.333 Y-0.127 E0.06294
G1 X15.320 Y0.662 E0.06080
G1 X15.244 Y1.666 E0.07760
G1 X15.167 Y2.260 E0.04614
G1 X15.025 Y3.064 E0.06294
G1 X14.818 Y3.939 E0.06929
G1 X14.614 Y4.645 E0.05662
G1 X14.264 Y5.626 E0.08030
G1 X13.811 Y6.665 E0.08737
G1 X13.343 Y7.557 E0.07760
G1 X12.936 Y8.233 E0.06080
G1 X12.480 Y8.910 E0.06294
G1 X12.123 Y9.391 E0.04614
G1 X11.480 Y10.166 E0.07760
G1 X10.932 Y10.737 E0.06097
G1 E-3.50000 F1500.00000
G1 Z0.700 F15000.000
G1 X2.111 Y2.186 F15000.000
G1 Z0.300 F15000.000
G1 E3.50000 F1500.00000
G1 X1.693 Y2.525 E0.04150 F600.000
G1 X1.139 Y2.820 E0.04833
G1 X0.536 Y2.992 E0.04832
G1 X-0.009 Y3.040 E0.04217
G1 X-0.632 Y2.975 E0.04833
G1 X-1.237 Y2.778 E0.04899
G1 X-1.780 Y2.465 E0.04833
G1 X-2.186 Y2.111 E0.04150
G1 X-2.525 Y1.693 E0.04150
G1 X-2.818 Y1.141 E0.04813
G1 X-2.987 Y0.565 E0.04625
G1 X-3.040 Y-0.003 E0.04399
G1 X-2.981 Y-0.595 E0.04583
G1 X-2.817 Y-1.144 E0.04419
G1 X-2.525 Y-1.693 E0.04791
G1 X-2.186 Y-2.111 E0.04150
G1 X-1.780 Y-2.465 E0.04150
G1 X-1.237 Y-2.778 E0.04833
G1 X-0.635 Y-2.974 E0.04880
G1 X-0.038 Y-3.040 E0.04625 F600.000
G1 X0.533 Y-2.993 E0.04419
G1 X1.139 Y-2.820 E0.04857
G1 X1.693 Y-2.525 E0.04833
G1 X2.118 Y-2.181 E0.04217
G1 X2.521 Y-1.701 E0.04832
G1 X2.820 Y-1.139 E0.04899
G1 X2.992 Y-0.536 E0.04833
G1 X3.040 Y0.009 E0.04217
G1 X2.975 Y0.632 E0.04833
G1 X2.778 Y1.237 E0.04899
G1 X2.465 Y1.780 E0.04833
G1 X2.151 Y2.141 E0.03687
G1 X1.671 Y1.724 F15000.000
G1 X1.340 Y1.993 E0.03283 F600.000
G1 X0.900 Y2.227 E0.03846
G1 X0.420 Y2.365 E0.03846
G1 X-0.003 Y2.402 E0.03273
G1 X-0.499 Y2.349 E0.03846
G1 X-0.977 Y2.194 E0.03870
G1 X-1.409 Y1.945 E0.03846
G1 X-1.727 Y1.668 E0.03250
G1 X-1.993 Y1.340 E0.03250
G1 X-2.227 Y0.901 E0.03839
G1 X-2.360 Y0.445 E0.03655
G1 X-2.402 Y-0.001 E0.03456
G1 X-2.355 Y-0.471 E0.03640
G1 X-2.226 Y-0.901 E0.03463
G1 X-1.993 Y-1.340 E0.03831
G1 X-1.727 Y-1.668 E0.03250
G1 X-1.409 Y-1.945 E0.03250
G1 X-0.977 Y-2.194 E0.03846
G1 X-0.500 Y-2.349 E0.03863
G1 X-0.029 Y-2.401 E0.03655 F600.000
G1 X0.419 Y-2.365 E0.03463
G1 X0.900 Y-2.227 E0.03855
G1 X1.340 Y-1.993 E0.03846
G1 X1.671 Y-1.725 E0.03273
G1 X1.991 Y-1.343 E0.03846
G1 X2.227 Y-0.900 E0.03870
G1 X2.365 Y-0.420 E0.03846
G1 X2.402 Y0.003 E0.03273
G1 X2.349 Y0.499 E0.03846
G1 X2.194 Y0.977 E0.03870
G1 X1.945 Y1.409 E0.03846
G1 X1.710 Y1.679 E0.02753
G1 X1.757 Y2.115 F15000.000
G1 X5.648 Y-9.091 F15000.000
G1 X6.182 Y-8.748 E0.04892 F720.000
G1 X6.897 Y-8.199 E0.06946
G1 X7.163 Y-7.968 E0.02718
G1 X7.713 Y-7.436 E0.05896
G1 X7.956 Y-7.176 E0.02749
G1 X8.448 Y-6.589 E0.05896
G1 X8.663 Y-6.305 E0.02749
G1 X9.091 Y-5.670 E0.05896
G1 X9.274 Y-5.364 E0.02749
G1 X9.629 Y-4.697 E0.05829
G1 X9.934 Y-4.012 E0.05779
G1 X10.144 Y-3.444 E0.04663
G1 X10.298 Y-2.957 E0.03937
G1 X10.482 Y-2.219 E0.05859
G1 X10.550 Y-1.869 E0.02749
G1 X10.656 Y-1.111 E0.05896
G1 X10.687 Y-0.756 E0.02749
G1 X10.714 Y0.009 E0.05896
G1 X10.708 Y0.365 E0.02749
G1 X10.654 Y1.128 E0.05896
G1 X10.611 Y1.483 E0.02749
G1 X10.479 Y2.230 E0.05845
G1 X10.335 Y2.817 E0.04663
G1 X10.191 Y3.307 E0.03937
G1 X9.931 Y4.022 E0.05859
G1 X9.788 Y4.358 E0.02816
G1 X9.634 Y4.689 E0.02816
G1 X9.274 Y5.364 E0.05896
G1 X9.091 Y5.670 E0.02749
G1 X8.663 Y6.305 E0.05896
G1 X8.448 Y6.589 E0.02749
G1 X7.966 Y7.164 E0.05782
G1 X7.272 Y7.865 E0.07604
G1 X6.591 Y8.446 E0.06895
G1 X6.107 Y8.802 E0.04631
G1 X5.674 Y9.089 E0.04003
G1 X5.364 Y9.274 E0.02779
G1 X4.689 Y9.634 E0.05896
G1 X4.366 Y9.784 E0.02749
G1 X3.656 Y10.071 E0.05896
G1 X3.319 Y10.187 E0.02749
G1 X2.584 Y10.398 E0.05896
G1 X2.236 Y10.478 E0.02749
G1 X1.491 Y10.610 E0.05829
G1 X0.747 Y10.688 E0.05763
G1 X-0.009 Y10.714 E0.05829
G1 X-0.365 Y10.708 E0.02749
G1 X-1.128 Y10.654 E0.05896
G1 X-1.483 Y10.611 E0.02749
G1 X-2.230 Y10.479 E0.05845
G1 X-2.817 Y10.335 E0.04663
G1 X-3.307 Y10.191 E0.03937
G1 X-4.022 Y9.931 E0.05859
G1 X-4.689 Y9.634 E0.05631
G1 X-5.364 Y9.274 E0.05896
G1 X-5.670 Y9.091 E0.02749
G1 X-6.305 Y8.663 E0.05896
G1 X-6.589 Y8.448 E0.02749
G1 X-7.164 Y7.966 E0.05782
G1 X-7.865 Y7.272 E0.07604
G1 X-8.446 Y6.591 E0.06895
G1 X-8.802 Y6.107 E0.04631
G1 X-9.274 Y5.364 E0.06781
G1 X-9.630 Y4.695 E0.05845
G1 X-9.879 Y4.143 E0.04663
G1 X-10.066 Y3.668 E0.03937
G1 X-10.299 Y2.951 E0.05808
G1 X-10.448 Y2.365 E0.04663
G1 X-10.550 Y1.864 E0.03937
G1 X-10.655 Y1.120 E0.05793
G1 X-10.707 Y0.374 E0.05763
G1 X-10.707 Y-0.374 E0.05763
G1 X-10.655 Y-1.120 E0.05763
G1 X-10.550 Y-1.869 E0.05829
G1 X-10.481 Y-2.221 E0.02765
G1 X-10.335 Y-2.817 E0.04729
G1 X-10.188 Y-3.315 E0.04003
G1 X-10.071 Y-3.656 E0.02779
G1 X-9.790 Y-4.352 E0.05782
G1 X-9.346 Y-5.233 E0.07604
G1 X-8.879 Y-5.996 E0.06895
G1 X-8.527 Y-6.484 E0.04631
G1 X-8.209 Y-6.885 E0.03953
G1 X-7.803 Y-7.340 E0.04692
G1 X-7.444 Y-7.706 E0.03953
G1 X-6.993 Y-8.115 E0.04692
G1 X-6.305 Y-8.663 E0.06781
G1 X-5.670 Y-9.091 E0.05896
G1 X-4.804 Y-9.575 E0.07647
G1 X-4.002 Y-9.938 E0.06784
G1 X-3.673 Y-10.065 E0.02723
G1 X-2.953 Y-10.299 E0.05829
G1 X-2.219 Y-10.482 E0.05829
G1 X-1.869 Y-10.550 E0.02749
G1 X-1.111 Y-10.656 E0.05896
G1 X-0.762 Y-10.687 E0.02702
G1 X0.233 Y-10.709 E0.07670
G1 X1.126 Y-10.654 E0.06895
G1 X1.721 Y-10.573 E0.04631 F720.000
G1 X2.224 Y-10.481 E0.03937
G1 X2.961 Y-10.297 E0.05859
G1 X3.311 Y-10.190 E0.02816
G1 X3.656 Y-10.071 E0.02816
G1 X4.366 Y-9.784 E0.05896
G1 X4.689 Y-9.634 E0.02749
G1 X5.352 Y-9.281 E0.05782
G1 X5.597 Y-9.124 E0.02249
G1 X5.941 Y-9.658 F15000.000
G1 X6.548 Y-9.269 E0.05560 F720.000
G1 X7.299 Y-8.692 E0.07301
G1 X7.592 Y-8.437 E0.02995
G1 X8.167 Y-7.882 E0.06152
G1 X8.433 Y-7.597 E0.03006
G1 X8.946 Y-6.985 E0.06152
G1 X9.180 Y-6.674 E0.03006
G1 X9.627 Y-6.012 E0.06152
G1 X9.828 Y-5.678 E0.03006
G1 X10.201 Y-4.975 E0.06129
G1 X10.524 Y-4.251 E0.06111
G1 X10.745 Y-3.650 E0.04938
G1 X10.910 Y-3.130 E0.04204
G1 X11.102 Y-2.357 E0.06139
G1 X11.177 Y-1.974 E0.03006
G1 X11.288 Y-1.183 E0.06152
G1 X11.322 Y-0.795 E0.03006
G1 X11.350 Y0.003 E0.06152
G1 X11.343 Y0.393 E0.03006
G1 X11.287 Y1.189 E0.06152
G1 X11.240 Y1.577 E0.03006
G1 X11.102 Y2.360 E0.06134
G1 X10.949 Y2.983 E0.04938
G1 X10.795 Y3.506 E0.04204
G1 X10.522 Y4.255 E0.06139
G1 X10.369 Y4.616 E0.03030
G1 X10.203 Y4.973 E0.03030
G1 X9.828 Y5.678 E0.06152
G1 X9.627 Y6.012 E0.03006
G1 X9.180 Y6.674 E0.06152
G1 X8.946 Y6.985 E0.03006
G1 X8.436 Y7.593 E0.06112
G1 X7.705 Y8.332 E0.08011
G1 X6.986 Y8.945 E0.07283
G1 X6.470 Y9.323 E0.04927
G1 X6.013 Y9.626 E0.04227
G1 X5.678 Y9.828 E0.03016
G1 X4.973 Y10.203 E0.06152
G1 X4.619 Y10.367 E0.03006
G1 X3.879 Y10.666 E0.06152
G1 X3.510 Y10.793 E0.03006
G1 X2.743 Y11.013 E0.06152
G1 X2.363 Y11.101 E0.03006
G1 X1.580 Y11.239 E0.06129
G1 X0.792 Y11.322 E0.06105
G1 X-0.003 Y11.350 E0.06129
G1 X-0.393 Y11.343 E0.03006
G1 X-1.189 Y11.287 E0.06152
G1 X-1.577 Y11.240 E0.03006
G1 X-2.360 Y11.102 E0.06134
G1 X-2.983 Y10.949 E0.04938
G1 X-3.506 Y10.795 E0.04204
G1 X-4.255 Y10.522 E0.06139
G1 X-4.973 Y10.203 E0.06058
G1 X-5.678 Y9.828 E0.06152
G1 X-6.012 Y9.627 E0.03006
G1 X-6.674 Y9.180 E0.06152
G1 X-6.985 Y8.946 E0.03006
G1 X-7.593 Y8.436 E0.06112
G1 X-8.332 Y7.705 E0.08011
G1 X-8.945 Y6.986 E0.07283
G1 X-9.323 Y6.470 E0.04927
G1 X-9.828 Y5.678 E0.07242
G1 X-10.201 Y4.975 E0.06134
G1 X-10.465 Y4.390 E0.04938
G1 X-10.665 Y3.883 E0.04204
G1 X-10.910 Y3.128 E0.06121
G1 X-11.068 Y2.507 E0.04938
G1 X-11.177 Y1.972 E0.04204
G1 X-11.288 Y1.186 E0.06116
G1 X-11.343 Y0.396 E0.06105
G1 X-11.343 Y-0.396 E0.06105
G1 X-11.288 Y-1.186 E0.06105
G1 X-11.177 Y-1.974 E0.06129
G1 X-11.102 Y-2.357 E0.03012
G1 X-10.949 Y-2.983 E0.04962
G1 X-10.794 Y-3.509 E0.04227
G1 X-10.666 Y-3.879 E0.03016
G1 X-10.369 Y-4.614 E0.06112
G1 X-9.902 Y-5.543 E0.08011
G1 X-9.408 Y-6.349 E0.07283
G1 X-9.035 Y-6.867 E0.04927
G1 X-8.695 Y-7.295 E0.04209
G1 X-8.267 Y-7.774 E0.04949
G1 X-7.885 Y-8.164 E0.04209
G1 X-7.409 Y-8.596 E0.04949
G1 X-6.674 Y-9.180 E0.07242
G1 X-6.012 Y-9.627 E0.06152
G1 X-5.086 Y-10.145 E0.08178
G1 X-4.248 Y-10.525 E0.07091
G1 X-3.885 Y-10.664 E0.02997
G1 X-3.128 Y-10.910 E0.06129
G1 X-2.357 Y-11.103 E0.06129
G1 X-1.974 Y-11.177 E0.03006
G1 X-1.183 Y-11.288 E0.06152
G1 X-0.797 Y-11.322 E0.02989
G1 X0.245 Y-11.345 E0.08034
G1 X1.189 Y-11.287 E0.07283
G1 X1.822 Y-11.201 E0.04927 F720.000
G1 X2.358 Y-11.102 E0.04204
G1 X3.131 Y-10.909 E0.06139
G1 X3.507 Y-10.794 E0.03030
G1 X3.879 Y-10.666 E0.03030
G1 X4.619 Y-10.367 E0.06152
G1 X4.973 Y-10.203 E0.03006
G1 X5.673 Y-9.830 E0.06112
G1 X5.890 Y-9.691 E0.01988
G1 X5.922 Y-9.259 F15000.000
G1 X4.010 Y-9.447 F15000.000
G1 X9.435 Y-4.023 E0.61012 F960.000
G1 X9.959 Y-2.571 F15000.000
G1 X2.571 Y-9.959 E0.83102 F960.000
G1 X1.393 Y-10.209 E0.09578
G1 X10.207 Y-1.395 E0.99139
G1 X10.311 Y-0.364 E0.08244
G1 X0.368 Y-10.306 E1.11829
G1 X-0.562 Y-10.309 E0.07399
G1 X10.316 Y0.570 E1.22356
G1 X10.245 Y1.426 E0.06836
G1 X-1.422 Y-10.241 E1.31228
G1 X-2.221 Y-10.112 E0.06437
G1 X10.111 Y2.220 E1.38710
G1 X9.925 Y2.961 E0.06080
G1 X-2.963 Y-9.927 E1.44964
G1 X-3.662 Y-9.698 E0.05849
G1 X9.693 Y3.657 E1.50221
G1 X9.429 Y4.321 E0.05679
G1 X-4.314 Y-9.422 E1.54572
G1 X-4.935 Y-9.116 E0.05510
G1 X0.826 Y-3.354 E0.64801
G1 X-0.148 Y-3.401 E0.07759
G1 X-5.530 Y-8.783 E0.60535
G1 X-6.084 Y-8.410 E0.05315
G1 X-0.923 Y-3.248 E0.58051
G1 X-1.574 Y-2.972 E0.05625
G1 X-6.607 Y-8.005 E0.56614
G1 X-7.093 Y-7.562 E0.05223
G1 X-2.129 Y-2.599 E0.55831
G1 X-2.593 Y-2.135 E0.05217
G1 X-7.556 Y-7.099 E0.55830
G1 X-8.001 Y-6.615 E0.05222
G1 X-2.967 Y-1.582 E0.56616
G1 X-3.248 Y-0.934 E0.05610
G1 X-8.402 Y-6.089 E0.57980
G1 X-8.771 Y-5.531 E0.05325
G1 X-3.399 Y-0.158 E0.60424
G1 X-3.363 Y0.805 E0.07669
G1 X-9.112 Y-4.944 E0.64663
G1 X-9.423 Y-4.327 E0.05495
G1 X4.329 Y9.425 E1.54675
G1 X4.946 Y9.114 E0.05494
G1 X-0.810 Y3.358 E0.64741
G1 X0.160 Y3.401 E0.07725
G1 X5.538 Y8.779 E0.60486
G1 X6.089 Y8.403 E0.05310
G1 X0.933 Y3.246 E0.57995
G1 X1.582 Y2.967 E0.05615
G1 X6.610 Y7.996 E0.56562
G1 X7.092 Y7.550 E0.05221
G1 X2.135 Y2.593 E0.55761
G1 X2.599 Y2.129 E0.05217
G1 X7.556 Y7.086 E0.55761
G1 X8.003 Y6.606 E0.05221
G1 X2.972 Y1.574 E0.56595
G1 X3.248 Y0.923 E0.05625
G1 X8.410 Y6.084 E0.58051
G1 X8.783 Y5.530 E0.05315
G1 X3.400 Y0.147 E0.60552
G1 X3.354 Y-0.826 E0.07747
G1 X9.119 Y4.938 E0.64833
G1 X3.670 Y9.694 F15000.000
G1 X-9.694 Y-3.670 E1.50308 F960.000
G1 X-9.922 Y-2.971 E0.05850
G1 X2.968 Y9.920 E1.44989
G1 X2.230 Y10.109 E0.06061
G1 X-10.110 Y-2.231 E1.38804
G1 X-10.240 Y-1.433 E0.06434
G1 X1.434 Y10.241 E1.31305
G1 X0.578 Y10.313 E0.06835
G1 X-10.316 Y-0.581 E1.22526
G1 X-10.313 Y0.349 E0.07399
G1 X-0.349 Y10.313 E1.12065
G1 X-1.378 Y10.212 E0.08217
G1 X-10.209 Y1.381 E0.99331
G1 X-9.964 Y2.553 E0.09526
G1 X-2.551 Y9.966 E0.83379
G1 X-3.988 Y9.457 F15000.000
G1 X-9.448 Y3.997 E0.61413 F960.000
G1 X-7.784 Y6.589 F15000.000
G1 X-6.545 Y7.828 E0.13928 F960.000
G1 E-3.50000 F1500.00000
G1 Z0.700 F15000.000
G1 X7.764 Y-6.621 F15000.000
G1 Z0.300 F15000.000
G1 E3.50000 F1500.00000
G1 X6.599 Y-7.786 E0.13103 F960.000
G1 E-3.50000 F1500.00000
G1 Z0.700 F15000.000
G1 X1.636 Y-1.701 F15000.000
G1 Z0.500 F15000.000
G1 E3.50000 F1500.00000
G1 X1.912 Y-1.383 E0.01215 F2400.000
G1 X2.154 Y-0.964 E0.01396
G1 X2.291 Y-0.566 E0.01215
G1 X2.359 Y-0.082 E0.01410
G1 X2.324 Y0.410 E0.01424
G1 X2.188 Y0.884 E0.01424
G1 X1.959 Y1.315 E0.01410
G1 X1.697 Y1.639 E0.01201
G1 X1.383 Y1.912 E0.01201
G1 X0.960 Y2.156 E0.01410
G1 X0.495 Y2.307 E0.01410
G1 X0.077 Y2.358 E0.01215
G1 X-0.410 Y2.324 E0.01410
G1 X-0.884 Y2.188 E0.01424
G1 X-1.315 Y1.959 E0.01410
G1 X-1.639 Y1.697 E0.01201
G1 X-1.912 Y1.383 E0.01201
G1 X-2.154 Y0.964 E0.01396
G1 X-2.291 Y0.566 E0.01215
G1 X-2.358 Y0.087 E0.01396
G1 X-2.336 Y-0.333 E0.01215
G1 X-2.218 Y-0.807 E0.01410
G1 X-2.002 Y-1.251 E0.01424
G1 X-1.701 Y-1.636 E0.01410
G1 X-1.383 Y-1.912 E0.01215
G1 X-0.964 Y-2.154 E0.01396
G1 X-0.566 Y-2.291 E0.01215
G1 X-0.087 Y-2.358 E0.01396 F2400.000
G1 X0.333 Y-2.336 E0.01215
G1 X0.807 Y-2.218 E0.01410
G1 X1.251 Y-2.002 E0.01424
G1 X1.588 Y-1.738 E0.01237
G1 X1.369 Y-1.456 F15000.000
G1 X1.620 Y-1.175 E0.01089 F2400.000
G1 X1.827 Y-0.815 E0.01197
G1 X1.942 Y-0.482 E0.01017
G1 X2.000 Y-0.070 E0.01202
G1 X1.971 Y0.347 E0.01207
G1 X1.855 Y0.750 E0.01207
G1 X1.660 Y1.117 E0.01202
G1 X1.439 Y1.390 E0.01012
G1 X1.175 Y1.620 E0.01012
G1 X0.814 Y1.828 E0.01202
G1 X0.418 Y1.957 E0.01202
G1 X0.068 Y2.000 E0.01017
G1 X-0.347 Y1.971 E0.01202
G1 X-0.750 Y1.855 E0.01207
G1 X-1.117 Y1.660 E0.01202
G1 X-1.390 Y1.439 E0.01012
G1 X-1.620 Y1.175 E0.01012
G1 X-1.827 Y0.815 E0.01197
G1 X-1.942 Y0.482 E0.01017
G1 X-2.000 Y0.072 E0.01197
G1 X-1.981 Y-0.280 E0.01017
G1 X-1.880 Y-0.684 E0.01202
G1 X-1.697 Y-1.060 E0.01207
G1 X-1.441 Y-1.389 E0.01202
G1 X-1.175 Y-1.620 E0.01017
G1 X-0.815 Y-1.827 E0.01197
G1 X-0.482 Y-1.942 E0.01017
G1 X-0.072 Y-2.000 E0.01197 F2400.000
G1 X0.280 Y-1.981 E0.01017
G1 X0.684 Y-1.880 E0.01202
G1 X1.060 Y-1.697 E0.01207
G1 X1.321 Y-1.493 E0.00955
G1 X1.733 Y-1.555 F15000.000
G1 E-3.50000 F1500.00000
G1 Z0.900 F15000.000
G1 X11.102 Y2.552 F15000.000
G1 Z0.500 F15000.000
G1 E3.50000 F1500.00000
