; generated by Slic3r 1.2.9 on 2018-04-24 at 11:05:23

; external perimeters extrusion width = 0.40mm
; perimeters extrusion width = 0.40mm
; infill extrusion width = 0.40mm
; solid infill extrusion width = 0.40mm
; top infill extrusion width = 0.40mm

M107
M83
T0
M116
G21 ; set units to millimeters
G90 ; use absolute coordinates
M83 ; use relative distances for extrusion
G1 E-3.50000 F1500.00000
G1 Z0.400 F15000.000
G1 X21.428 Y-4.123 F15000.000
G1 Z0.300 F15000.000
G1 E3.50000 F1500.00000
G1 X22.274 Y0.272 E0.34493 F960.000
G1 X22.334 Y0.770 E0.03867
G1 X22.770 Y12.170 E0.87917
G1 X22.734 Y13.021 E0.06567
G1 X22.673 Y13.490 E0.03648
G1 X22.579 Y13.963 E0.03712
G1 X22.458 Y14.420 E0.03647
G1 X22.304 Y14.877 E0.03712
G1 X22.131 Y15.300 E0.03526
G1 X21.934 Y15.705 E0.03465
G1 X21.709 Y16.103 E0.03526
G1 X21.447 Y16.507 E0.03712
G1 X21.163 Y16.886 E0.03647
G1 X20.850 Y17.252 E0.03712
G1 X20.520 Y17.591 E0.03648
G1 X20.162 Y17.913 E0.03712
G1 X19.790 Y18.207 E0.03648
G1 X19.394 Y18.480 E0.03712
G1 X19.001 Y18.715 E0.03526
G1 X18.602 Y18.921 E0.03465
G1 X18.183 Y19.106 E0.03526
G1 X17.385 Y19.379 E0.06502
G1 X5.040 Y22.546 E0.98214
G1 X3.601 Y22.854 E0.11344
G1 X2.313 Y23.043 E0.10033
G1 X1.000 Y23.154 E0.10154
G1 X-0.440 Y23.183 E0.11100
G1 X-1.380 Y23.149 E0.07247
G1 X-2.417 Y23.063 E0.08016
G1 X-3.403 Y22.934 E0.07671
G1 X-4.319 Y22.772 E0.07166
G1 X-5.242 Y22.566 E0.07290
G1 X-6.313 Y22.272 E0.08558
G1 X-7.138 Y22.005 E0.06683
G1 X-8.078 Y21.654 E0.07730
G1 X-9.252 Y21.142 E0.09873
G1 X-10.098 Y20.718 E0.07289
G1 X-11.057 Y20.180 E0.08478
G1 X-11.846 Y19.687 E0.07167
G1 X-12.625 Y19.150 E0.07290
G1 X-13.500 Y18.484 E0.08477
G1 X-14.224 Y17.875 E0.07289
G1 X-15.054 Y17.106 E0.08722
G1 X-15.806 Y16.331 E0.08324
G1 X-16.553 Y15.480 E0.08722
G1 X-17.474 Y14.287 E0.11619
G1 X-18.200 Y13.206 E0.10032
G1 X-18.857 Y12.089 E0.09991
G1 X-19.325 Y11.181 E0.07872
G1 X-19.815 Y10.097 E0.09165
G1 X-20.351 Y8.681 E0.11671
G1 X-20.730 Y7.435 E0.10032
G1 X-21.023 Y6.216 E0.09666
G1 X-22.252 Y-0.121 E0.49747
G1 X-22.351 Y-0.977 E0.06639
G1 X-22.770 Y-12.321 E0.87484
G1 X-22.760 Y-12.684 E0.02797
G1 X-22.684 Y-13.428 E0.05766
G1 X-22.544 Y-14.115 E0.05397
G1 X-22.334 Y-14.799 E0.05519
G1 X-22.037 Y-15.503 E0.05887
G1 X-21.669 Y-16.172 E0.05888
G1 X-21.243 Y-16.787 E0.05766
G1 X-20.789 Y-17.321 E0.05398
G1 X-20.274 Y-17.819 E0.05518
G1 X-19.688 Y-18.283 E0.05766
G1 X-19.085 Y-18.669 E0.05518
G1 X-18.745 Y-18.852 E0.02971
G1 X-18.091 Y-19.144 E0.05519
G1 X-17.258 Y-19.413 E0.06748
G1 X-4.513 Y-22.672 E1.01383
G1 X-3.250 Y-22.914 E0.09911
G1 X-2.128 Y-23.064 E0.08722
G1 X-0.835 Y-23.163 E0.09990
G1 X0.391 Y-23.183 E0.09450
G1 X1.587 Y-23.136 E0.09224 F960.000
G1 X2.662 Y-23.035 E0.08324
G1 X4.168 Y-22.801 E0.11741
G1 X5.223 Y-22.570 E0.08324
G1 X6.477 Y-22.222 E0.10032
G1 X7.915 Y-21.718 E0.11742
G1 X8.910 Y-21.299 E0.08324
G1 X10.080 Y-20.727 E0.10032
G1 X11.402 Y-19.970 E0.11741
G1 X12.304 Y-19.377 E0.08324
G1 X13.351 Y-18.602 E0.10033
G1 X14.513 Y-17.616 E0.11741
G1 X15.447 Y-16.710 E0.10032
G1 X16.180 Y-15.917 E0.08324
G1 X17.008 Y-14.912 E0.10033
G1 X17.905 Y-13.661 E0.11863
G1 X18.559 Y-12.614 E0.09512
G1 X19.069 Y-11.691 E0.08127
G1 X19.429 Y-10.966 E0.06238
G1 X19.741 Y-10.274 E0.05856
G1 X20.105 Y-9.366 E0.07533
G1 X20.507 Y-8.199 E0.09512
G1 X20.777 Y-7.260 E0.07533
G1 X21.028 Y-6.189 E0.08478
G1 X21.417 Y-4.182 E0.15750
G1 E-3.50000 F1500.00000
G1 Z0.700 F15000.000
G1 X10.512 Y-14.954 F15000.000
G1 Z0.300 F15000.000
G1 E3.50000 F1500.00000
G1 X11.335 Y-14.260 E0.08299 F720.000
G1 X12.071 Y-13.554 E0.07860
G1 X12.763 Y-12.805 E0.07860
G1 X13.408 Y-12.015 E0.07860
G1 X14.002 Y-11.188 E0.07843
G1 X14.624 Y-10.191 E0.09054
G1 X14.945 Y-9.607 E0.05137
G1 X15.230 Y-9.036 E0.04922
G1 X15.470 Y-8.508 E0.04468
G1 X15.744 Y-7.838 E0.05582
G1 X16.127 Y-6.723 E0.09082
G1 X16.322 Y-6.030 E0.05548
G1 X16.521 Y-5.169 E0.06815
G1 X17.268 Y-1.288 E0.30458
G1 X17.009 Y-1.158 E0.02228
G1 X16.780 Y-1.410 E0.02623
G1 X16.450 Y-1.708 E0.03425
G1 X16.117 Y-1.953 E0.03187
G1 X15.763 Y-2.163 E0.03170
G1 X15.390 Y-2.339 E0.03187
G1 X14.971 Y-2.488 E0.03425
G1 X14.569 Y-2.586 E0.03187
G1 X14.161 Y-2.646 E0.03176
G1 X13.737 Y-2.666 E0.03269
G1 X13.305 Y-2.642 E0.03341
G1 X12.897 Y-2.580 E0.03181
G1 X12.498 Y-2.479 E0.03170
G1 X12.111 Y-2.340 E0.03170
G1 X11.739 Y-2.165 E0.03170
G1 X11.383 Y-1.953 E0.03187
G1 X11.026 Y-1.689 E0.03425
G1 X10.719 Y-1.411 E0.03193
G1 X10.434 Y-1.096 E0.03269
G1 X10.176 Y-0.747 E0.03341
G1 X9.965 Y-0.393 E0.03181
G1 X9.790 Y-0.021 E0.03170
G1 X9.651 Y0.366 E0.03170
G1 X9.549 Y0.767 E0.03187
G1 X9.483 Y1.207 E0.03425
G1 X9.463 Y1.620 E0.03187
G1 X9.482 Y2.030 E0.03170
G1 X9.541 Y2.440 E0.03187
G1 X9.649 Y2.871 E0.03425
G1 X9.788 Y3.260 E0.03187
G1 X9.964 Y3.632 E0.03170
G1 X10.174 Y3.987 E0.03176
G1 X10.426 Y4.328 E0.03269
G1 X10.716 Y4.650 E0.03342
G1 X11.021 Y4.928 E0.03181
G1 X11.548 Y5.321 E0.05062
G1 X8.345 Y5.942 E0.25141
G1 X8.698 Y5.349 E0.05322
G1 X8.874 Y4.977 E0.03170
G1 X9.014 Y4.588 E0.03187
G1 X9.122 Y4.157 E0.03425
G1 X9.181 Y3.748 E0.03187
G1 X9.201 Y3.337 E0.03170
G1 X9.181 Y2.926 E0.03170
G1 X9.122 Y2.517 E0.03187
G1 X9.015 Y2.085 E0.03425
G1 X8.875 Y1.696 E0.03187
G1 X8.700 Y1.323 E0.03176
G1 X8.482 Y0.959 E0.03269
G1 X8.224 Y0.611 E0.03342
G1 X7.947 Y0.305 E0.03181
G1 X7.642 Y0.028 E0.03170
G1 X7.312 Y-0.218 E0.03176
G1 X6.949 Y-0.438 E0.03269
G1 X6.558 Y-0.624 E0.03341
G1 X6.167 Y-0.765 E0.03198
G1 X5.736 Y-0.872 E0.03425
G1 X5.326 Y-0.932 E0.03193
G1 X4.902 Y-0.952 E0.03269
G1 X4.469 Y-0.929 E0.03342
G1 X4.061 Y-0.866 E0.03181
G1 X3.662 Y-0.765 E0.03170
G1 X3.275 Y-0.626 E0.03170
G1 X2.902 Y-0.450 E0.03176
G1 X2.515 Y-0.219 E0.03478
G1 X2.580 Y-0.914 E0.05380
G1 X2.584 Y-1.771 E0.06605
G1 X2.504 Y-2.704 E0.07214
G1 X2.353 Y-3.548 E0.06605
G1 X2.130 Y-4.369 E0.06562
G1 X1.886 Y-5.046 E0.05543
G1 X1.586 Y-5.721 E0.05690
G1 X1.221 Y-6.395 E0.05908
G1 X0.850 Y-6.972 E0.05288
G1 X0.442 Y-7.521 E0.05271
G1 X-0.005 Y-8.041 E0.05288
G1 X-0.546 Y-8.583 E0.05897
G1 X-1.067 Y-9.033 E0.05304
G1 X-1.681 Y-9.489 E0.05897
G1 X-2.261 Y-9.856 E0.05288
G1 X-2.863 Y-10.180 E0.05271
G1 X-3.486 Y-10.462 E0.05271
G1 X-4.288 Y-10.746 E0.06558
G1 X-4.232 Y-11.081 E0.02613
G1 X-3.804 Y-11.060 E0.03301
G1 X-3.394 Y-11.080 E0.03170
G1 X-2.986 Y-11.139 E0.03170
G1 X-2.585 Y-11.237 E0.03187
G1 X-2.166 Y-11.385 E0.03425
G1 X-1.792 Y-11.561 E0.03187
G1 X-1.438 Y-11.771 E0.03170
G1 X-1.105 Y-12.016 E0.03187
G1 X-0.774 Y-12.313 E0.03425
G1 X-0.496 Y-12.620 E0.03193
G1 X-0.242 Y-12.960 E0.03269
G1 X-0.019 Y-13.332 E0.03341
G1 X0.157 Y-13.706 E0.03187
G1 X0.300 Y-14.105 E0.03269
G1 X0.405 Y-14.526 E0.03341
G1 X0.464 Y-14.934 E0.03181
G1 X0.484 Y-15.345 E0.03170
G1 X0.464 Y-15.758 E0.03187
G1 X0.399 Y-16.198 E0.03425
G1 X0.297 Y-16.599 E0.03187
G1 X0.158 Y-16.986 E0.03170
G1 X-0.017 Y-17.358 E0.03170
G1 X-0.228 Y-17.713 E0.03187
G1 X-0.492 Y-18.071 E0.03425
G1 X-0.917 Y-18.539 E0.04869
G1 X0.258 Y-18.564 E0.09059
G1 X1.185 Y-18.532 E0.07150
G1 X2.202 Y-18.437 E0.07870 F720.000
G1 X3.210 Y-18.280 E0.07860
G1 X4.206 Y-18.062 E0.07860
G1 X5.187 Y-17.784 E0.07860
G1 X6.150 Y-17.446 E0.07860
G1 X7.090 Y-17.051 E0.07860
G1 X8.004 Y-16.599 E0.07860
G1 X8.889 Y-16.091 E0.07860
G1 X9.741 Y-15.531 E0.07860
G1 X10.464 Y-14.990 E0.06957
G1 X-14.270 Y-9.534 F15000.000
G1 X-14.923 Y-9.408 E0.05124 F600.000
G1 X-15.347 Y-9.369 E0.03281
G1 X-15.752 Y-9.392 E0.03131
G1 X-16.098 Y-9.461 E0.02718
G1 X-16.410 Y-9.566 E0.02536
G1 X-16.709 Y-9.708 E0.02552
G1 X-16.988 Y-9.886 E0.02552
G1 X-17.242 Y-10.096 E0.02542
G1 X-17.481 Y-10.349 E0.02675
G1 X-17.682 Y-10.624 E0.02628
G1 X-17.844 Y-10.918 E0.02585
G1 X-17.948 Y-11.167 E0.02080
G1 X-18.026 Y-11.427 E0.02094
G1 X-18.112 Y-11.853 E0.03351
G1 X-18.149 Y-12.375 E0.04027
G1 X-18.127 Y-12.661 E0.02211
G1 X-18.082 Y-12.914 E0.01980
G1 X-18.012 Y-13.161 E0.01980
G1 X-17.908 Y-13.426 E0.02195
G1 X-17.779 Y-13.677 E0.02178
G1 X-17.622 Y-13.915 E0.02195
G1 X-17.460 Y-14.115 E0.01980
G1 X-17.280 Y-14.298 E0.01980
G1 X-17.060 Y-14.482 E0.02211
G1 X-16.849 Y-14.624 E0.01964
G1 X-16.596 Y-14.760 E0.02211
G1 X-16.359 Y-14.859 E0.01981
G1 X-16.089 Y-14.942 E0.02178
G1 X-7.729 Y-17.083 E0.66507
G1 X-7.902 Y-16.602 E0.03944
G1 X-8.004 Y-16.201 E0.03186 F600.000
G1 X-8.070 Y-15.762 E0.03425
G1 X-8.090 Y-15.346 E0.03203
G1 X-8.067 Y-14.903 E0.03425
G1 X-8.004 Y-14.494 E0.03187
G1 X-7.903 Y-14.095 E0.03170
G1 X-7.763 Y-13.706 E0.03187
G1 X-7.572 Y-13.305 E0.03425
G1 X-7.358 Y-12.951 E0.03187
G1 X-7.112 Y-12.622 E0.03170
G1 X-6.835 Y-12.317 E0.03170
G1 X-6.530 Y-12.040 E0.03176
G1 X-6.190 Y-11.786 E0.03269
G1 X-5.818 Y-11.563 E0.03341
G1 X-5.445 Y-11.387 E0.03181
G1 X-5.257 Y-11.320 E0.01540
G1 X-5.324 Y-10.995 E0.02552
G1 X-5.971 Y-11.037 E0.04997
G1 X-6.479 Y-11.016 E0.03913
G1 X-6.958 Y-10.951 E0.03731
G1 X-14.211 Y-9.546 E0.56932
G1 X-14.090 Y-8.922 F15000.000
G1 X-14.833 Y-8.778 E0.05832 F720.000
G1 X-15.336 Y-8.732 E0.03891
G1 X-15.833 Y-8.760 E0.03837
G1 X-16.262 Y-8.846 E0.03370
G1 X-16.649 Y-8.975 E0.03146
G1 X-17.018 Y-9.151 E0.03151
G1 X-17.363 Y-9.371 E0.03152
G1 X-17.678 Y-9.631 E0.03148
G1 X-17.971 Y-9.942 E0.03291
G1 X-18.218 Y-10.282 E0.03242
G1 X-18.417 Y-10.641 E0.03163
G1 X-18.547 Y-10.953 E0.02599
G1 X-18.643 Y-11.272 E0.02572
G1 X-18.740 Y-11.753 E0.03782
G1 X-18.778 Y-12.073 E0.02485
G1 X-18.785 Y-12.392 E0.02459
G1 X-18.758 Y-12.742 E0.02701
G1 X-18.702 Y-13.056 E0.02459
G1 X-18.616 Y-13.363 E0.02459
G1 X-18.488 Y-13.689 E0.02695
G1 X-18.328 Y-13.999 E0.02689
G1 X-18.136 Y-14.291 E0.02695
G1 X-17.935 Y-14.539 E0.02459
G1 X-17.711 Y-14.766 E0.02459
G1 X-17.442 Y-14.991 E0.02701
G1 X-17.178 Y-15.169 E0.02453
G1 X-16.870 Y-15.335 E0.02701
G1 X-16.575 Y-15.458 E0.02460
G1 X-16.261 Y-15.554 E0.02530
G1 X-6.684 Y-18.007 E0.76187
G1 X-6.534 Y-17.783 E0.02080
G1 X-6.828 Y-17.389 E0.03784
G1 X-7.011 Y-17.089 E0.02705
G1 X-7.174 Y-16.746 E0.02933
G1 X-7.293 Y-16.416 E0.02705
G1 X-7.380 Y-16.075 E0.02705
G1 X-7.436 Y-15.699 E0.02933
G1 X-7.453 Y-15.348 E0.02711
G1 X-7.433 Y-14.968 E0.02933
G1 X-7.380 Y-14.621 E0.02705
G1 X-7.294 Y-14.281 E0.02699
G1 X-7.176 Y-13.951 E0.02705
G1 X-7.012 Y-13.607 E0.02933
G1 X-6.830 Y-13.307 E0.02705
G1 X-6.620 Y-13.026 E0.02700
G1 X-6.385 Y-12.767 E0.02699
G1 X-6.126 Y-12.531 E0.02702
G1 X-5.836 Y-12.315 E0.02785
G1 X-5.518 Y-12.125 E0.02853
G1 X-5.201 Y-11.975 E0.02703
G1 X-4.871 Y-11.856 E0.02700
G1 X-4.531 Y-11.770 E0.02705
G1 X-4.155 Y-11.714 E0.02933
G1 X-3.804 Y-11.697 E0.02705
G1 X-3.454 Y-11.713 E0.02699
G1 X-3.108 Y-11.763 E0.02700
G1 X-2.767 Y-11.847 E0.02705
G1 X-2.408 Y-11.974 E0.02933
G1 X-2.090 Y-12.123 E0.02706
G1 X-1.789 Y-12.302 E0.02699
G1 X-1.506 Y-12.510 E0.02705
G1 X-1.223 Y-12.764 E0.02933
G1 X-0.987 Y-13.024 E0.02707
G1 X-0.771 Y-13.314 E0.02784
G1 X-0.581 Y-13.631 E0.02853
G1 X-0.431 Y-13.949 E0.02706
G1 X-0.309 Y-14.289 E0.02785
G1 X-0.220 Y-14.648 E0.02853
G1 X-0.169 Y-14.996 E0.02704
G1 X-0.152 Y-15.345 E0.02699
G1 X-0.169 Y-15.696 E0.02705
G1 X-0.225 Y-16.073 E0.02933
G1 X-0.311 Y-16.413 E0.02705
G1 X-0.430 Y-16.743 E0.02699
G1 X-0.579 Y-17.059 E0.02699
G1 X-0.758 Y-17.361 E0.02706
G1 X-0.985 Y-17.667 E0.02933
G1 X-1.221 Y-17.927 E0.02705
G1 X-1.480 Y-18.163 E0.02699
G1 X-1.760 Y-18.372 E0.02699
G1 X-2.060 Y-18.555 E0.02706
G1 X-2.428 Y-18.730 E0.03140
G1 X-2.385 Y-19.011 E0.02186
G1 X-1.795 Y-19.092 E0.04587
G1 X-0.739 Y-19.178 E0.08167
G1 X0.262 Y-19.200 E0.07716
G1 X1.226 Y-19.166 E0.07432
G1 X2.281 Y-19.068 E0.08162 F720.000
G1 X3.327 Y-18.905 E0.08159
G1 X4.361 Y-18.679 E0.08159
G1 X5.379 Y-18.390 E0.08159
G1 X6.378 Y-18.040 E0.08159
G1 X7.354 Y-17.629 E0.08159
G1 X8.303 Y-17.160 E0.08159
G1 X9.222 Y-16.633 E0.08159
G1 X10.106 Y-16.052 E0.08159
G1 X10.954 Y-15.417 E0.08159
G1 X11.761 Y-14.733 E0.08159
G1 X12.525 Y-14.000 E0.08159
G1 X13.243 Y-13.222 E0.08159
G1 X13.913 Y-12.401 E0.08159
G1 X14.530 Y-11.542 E0.08153
G1 X15.172 Y-10.513 E0.09349
G1 X15.508 Y-9.903 E0.05367
G1 X15.804 Y-9.310 E0.05107
G1 X16.054 Y-8.760 E0.04654
G1 X16.339 Y-8.061 E0.05817
G1 X16.734 Y-6.913 E0.09359
G1 X16.938 Y-6.188 E0.05805
G1 X17.143 Y-5.300 E0.07021
G1 X18.355 Y1.001 E0.49451
G1 X18.383 Y1.538 E0.04146
G1 X18.342 Y2.039 E0.03868
G1 X18.225 Y2.564 E0.04144
G1 X18.037 Y3.066 E0.04138
G1 X17.780 Y3.538 E0.04138
G1 X17.461 Y3.970 E0.04141
G1 X17.094 Y4.344 E0.04035
G1 X16.683 Y4.663 E0.04007
G1 X16.370 Y4.853 E0.02821
G1 X16.037 Y5.013 E0.02849
G1 X15.565 Y5.188 E0.03881
G1 X15.414 Y4.876 E0.02672
G1 X15.790 Y4.648 E0.03382
G1 X16.070 Y4.439 E0.02699
G1 X16.330 Y4.203 E0.02700
G1 X16.565 Y3.944 E0.02702
G1 X16.781 Y3.654 E0.02784
G1 X16.972 Y3.337 E0.02854
G1 X17.121 Y3.020 E0.02703
G1 X17.240 Y2.690 E0.02699
G1 X17.326 Y2.350 E0.02700
G1 X17.380 Y2.003 E0.02705
G1 X17.400 Y1.623 E0.02933
G1 X17.383 Y1.273 E0.02705
G1 X17.333 Y0.926 E0.02702
G1 X17.247 Y0.575 E0.02785
G1 X17.123 Y0.226 E0.02853
G1 X16.973 Y-0.092 E0.02706
G1 X16.788 Y-0.402 E0.02784
G1 X16.567 Y-0.699 E0.02854
G1 X16.331 Y-0.960 E0.02709
G1 X16.048 Y-1.214 E0.02933
G1 X15.765 Y-1.422 E0.02705
G1 X15.465 Y-1.601 E0.02699
G1 X15.147 Y-1.751 E0.02705
G1 X14.788 Y-1.878 E0.02933
G1 X14.447 Y-1.962 E0.02706
G1 X14.101 Y-2.012 E0.02701
G1 X13.740 Y-2.029 E0.02785
G1 X13.370 Y-2.009 E0.02853
G1 X13.023 Y-1.956 E0.02703
G1 X12.684 Y-1.870 E0.02700
G1 X12.354 Y-1.752 E0.02700
G1 X12.037 Y-1.603 E0.02699
G1 X11.735 Y-1.423 E0.02705
G1 X11.429 Y-1.197 E0.02933
G1 X11.169 Y-0.961 E0.02707
G1 X10.926 Y-0.693 E0.02785
G1 X10.707 Y-0.395 E0.02853
G1 X10.527 Y-0.094 E0.02703
G1 X10.378 Y0.223 E0.02699
G1 X10.259 Y0.553 E0.02699
G1 X10.172 Y0.893 E0.02705
G1 X10.116 Y1.269 E0.02933
G1 X10.099 Y1.620 E0.02705
G1 X10.116 Y1.970 E0.02699
G1 X10.166 Y2.317 E0.02705
G1 X10.258 Y2.686 E0.02933
G1 X10.376 Y3.017 E0.02705
G1 X10.526 Y3.334 E0.02699
G1 X10.705 Y3.635 E0.02702
G1 X10.919 Y3.926 E0.02784
G1 X11.167 Y4.201 E0.02854
G1 X11.426 Y4.437 E0.02703
G1 X11.707 Y4.647 E0.02700
G1 X12.007 Y4.829 E0.02705
G1 X12.350 Y4.993 E0.02933
G1 X12.681 Y5.112 E0.02705
G1 X13.021 Y5.198 E0.02705
G1 X13.492 Y5.269 E0.03669
G1 X13.499 Y5.590 E0.02477
G1 X6.635 Y6.922 E0.53883
G1 X6.520 Y6.622 E0.02470
G1 X6.937 Y6.374 E0.03740
G1 X7.235 Y6.153 E0.02854
G1 X7.494 Y5.917 E0.02703
G1 X7.730 Y5.658 E0.02705
G1 X7.957 Y5.352 E0.02933
G1 X8.137 Y5.050 E0.02705
G1 X8.286 Y4.733 E0.02699
G1 X8.405 Y4.403 E0.02705
G1 X8.497 Y4.034 E0.02933
G1 X8.548 Y3.686 E0.02705
G1 X8.565 Y3.336 E0.02699
G1 X8.548 Y2.987 E0.02700
G1 X8.498 Y2.639 E0.02705
G1 X8.406 Y2.270 E0.02933
G1 X8.287 Y1.939 E0.02705
G1 X8.138 Y1.622 E0.02702
G1 X7.953 Y1.312 E0.02784
G1 X7.732 Y1.015 E0.02854
G1 X7.496 Y0.755 E0.02704
G1 X7.237 Y0.519 E0.02699
G1 X6.956 Y0.309 E0.02702
G1 X6.647 Y0.122 E0.02784
G1 X6.313 Y-0.037 E0.02853
G1 X5.982 Y-0.156 E0.02709
G1 X5.613 Y-0.248 E0.02933
G1 X5.265 Y-0.298 E0.02707
G1 X4.904 Y-0.315 E0.02784
G1 X4.535 Y-0.296 E0.02854
G1 X4.188 Y-0.242 E0.02703
G1 X3.848 Y-0.156 E0.02700
G1 X3.519 Y-0.038 E0.02699
G1 X3.201 Y0.111 E0.02702
G1 X2.891 Y0.296 E0.02784
G1 X2.594 Y0.517 E0.02854
G1 X2.334 Y0.753 E0.02705
G1 X2.091 Y1.021 E0.02785
G1 X1.861 Y1.332 E0.02984
G1 X1.576 Y1.195 E0.02436
G1 X1.727 Y0.636 E0.04459
G1 X1.870 Y-0.150 E0.06155
G1 X1.944 Y-0.946 E0.06161
G1 X1.949 Y-1.746 E0.06167
G1 X1.873 Y-2.620 E0.06765
G1 X1.732 Y-3.408 E0.06167
G1 X1.523 Y-4.178 E0.06151
G1 X1.296 Y-4.809 E0.05165
G1 X1.015 Y-5.440 E0.05320
G1 X0.673 Y-6.071 E0.05537
G1 X0.327 Y-6.611 E0.04935
G1 X-0.055 Y-7.123 E0.04929
G1 X-0.472 Y-7.609 E0.04935
G1 X-0.979 Y-8.117 E0.05533
G1 X-1.464 Y-8.537 E0.04941
G1 X-2.041 Y-8.964 E0.05533
G1 X-2.582 Y-9.307 E0.04935
G1 X-3.145 Y-9.610 E0.04929
G1 X-3.728 Y-9.874 E0.04929
G1 X-4.328 Y-10.096 E0.04932
G1 X-4.944 Y-10.275 E0.04944
G1 X-5.458 Y-10.367 E0.04025
G1 X-5.979 Y-10.400 E0.04022
G1 X-6.423 Y-10.382 E0.03425
G1 X-6.855 Y-10.324 E0.03360
G1 X-14.031 Y-8.933 E0.56332
G1 X-14.352 Y-9.224 F15000.000
G1 E-3.50000 F1500.00000
G1 Z0.700 F15000.000
G1 X-2.756 Y-18.900 F15000.000
G1 Z0.300 F15000.000
G1 E3.50000 F1500.00000
G1 X-3.125 Y-18.908 E0.02846 F720.000
G1 X-3.759 Y-18.877 E0.04888
