; generated by Slic3r 1.2.9 on 2018-04-24 at 12:27:06

; external perimeters extrusion width = 0.40mm
; perimeters extrusion width = 0.40mm
; infill extrusion width = 0.40mm
; solid infill extrusion width = 0.40mm
; top infill extrusion width = 0.40mm

M107
M83
T0
M116
G21 ; set units to millimeters
G90 ; use absolute coordinates
M83 ; use relative distances for extrusion
G1 E-3.50000 F1500.00000
G1 Z0.400 F15000.000
G1 X13.294 Y0.293 F15000.000
G1 Z0.300 F15000.000
G1 E3.50000 F1500.00000
G1 X12.935 Y16.582 E1.25562 F960.000
G1 X12.913 Y17.245 E0.05115
G1 X12.834 Y18.106 E0.06661
G1 X12.699 Y18.960 E0.06661
G1 X12.506 Y19.802 E0.06661
G1 X12.258 Y20.630 E0.06662
G1 X11.955 Y21.440 E0.06661
G1 X11.598 Y22.227 E0.06661
G1 X11.066 Y23.198 E0.08532
G1 X10.594 Y23.923 E0.06662
G1 X10.075 Y24.614 E0.06661
G1 X9.674 Y25.088 E0.04790
G1 X9.079 Y25.715 E0.06661
G1 X8.257 Y26.458 E0.08533
G1 X7.574 Y26.987 E0.06662
G1 X6.857 Y27.470 E0.06661
G1 X6.322 Y27.786 E0.04790
G1 X5.334 Y28.286 E0.08533
G1 X4.762 Y28.528 E0.04790
G1 X3.948 Y28.820 E0.06661
G1 X2.880 Y29.112 E0.08532
G1 X2.271 Y29.236 E0.04790
G1 X1.415 Y29.359 E0.06662
G1 X0.311 Y29.433 E0.08532
G1 X-0.311 Y29.433 E0.04790
G1 X-1.174 Y29.383 E0.06661
G1 X-2.271 Y29.236 E0.08533
G1 X-2.880 Y29.112 E0.04790
G1 X-3.716 Y28.892 E0.06661
G1 X-4.762 Y28.528 E0.08532
G1 X-5.334 Y28.286 E0.04790
G1 X-6.109 Y27.903 E0.06661
G1 X-7.062 Y27.339 E0.08532
G1 X-7.574 Y26.987 E0.04790
G1 X-8.258 Y26.458 E0.06662
G1 X-9.079 Y25.715 E0.08532
G1 X-9.511 Y25.268 E0.04790
G1 X-10.075 Y24.614 E0.06662
G1 X-10.732 Y23.722 E0.08533
G1 X-11.066 Y23.198 E0.04790
G1 X-11.337 Y22.721 E0.04228
G1 X-11.598 Y22.227 E0.04305
G1 X-11.860 Y21.664 E0.04790
G1 X-12.258 Y20.630 E0.08533
G1 X-12.506 Y19.802 E0.06661
G1 X-12.650 Y19.198 E0.04790
G1 X-12.834 Y18.106 E0.08533
G1 X-12.913 Y17.245 E0.06661
G1 X-12.935 Y16.582 E0.05115
G1 X-13.585 Y-12.918 E2.27401
G1 X-13.582 Y-16.164 E0.25013
G1 X-13.539 Y-17.083 E0.07092
G1 X-13.381 Y-18.328 E0.09669
G1 X-13.109 Y-19.553 E0.09669
G1 X-12.725 Y-20.747 E0.09669
G1 X-12.233 Y-21.901 E0.09669
G1 X-11.636 Y-23.004 E0.09669
G1 X-10.940 Y-24.048 E0.09669
G1 X-10.150 Y-25.023 E0.09669
G1 X-9.274 Y-25.921 E0.09669
G1 X-8.319 Y-26.735 E0.09669
G1 X-7.293 Y-27.456 E0.09669
G1 X-6.204 Y-28.080 E0.09669
G1 X-5.063 Y-28.601 E0.09669
G1 X-3.878 Y-29.015 E0.09669
G1 X-2.661 Y-29.317 E0.09669
G1 X-1.420 Y-29.506 E0.09668
G1 X-1.043 Y-29.538 E0.02922
G1 X0.304 Y-29.573 E0.10382
G1 X1.420 Y-29.506 E0.08619 F960.000
G1 X2.661 Y-29.317 E0.09668
G1 X3.555 Y-29.107 E0.07083
G1 X4.750 Y-28.723 E0.09669
G1 X5.063 Y-28.601 E0.02588
G1 X6.204 Y-28.080 E0.09669
G1 X7.293 Y-27.456 E0.09669
G1 X8.051 Y-26.937 E0.07083
G1 X8.319 Y-26.735 E0.02588
G1 X9.138 Y-26.039 E0.08286
G1 X9.893 Y-25.302 E0.08129
G1 X10.150 Y-25.023 E0.02921
G1 X10.737 Y-24.316 E0.07083
G1 X10.940 Y-24.048 E0.02588
G1 X11.636 Y-23.004 E0.09668
G1 X12.083 Y-22.202 E0.07083
G1 X12.604 Y-21.060 E0.09669
G1 X13.017 Y-19.876 E0.09669
G1 X13.320 Y-18.658 E0.09669
G1 X13.508 Y-17.418 E0.09668
G1 X13.582 Y-16.164 E0.09678
G1 X13.585 Y-12.918 E0.25013
G1 X13.295 Y0.233 E1.01376
G1 E-3.50000 F1500.00000
G1 Z0.700 F15000.000
G1 X1.015 Y-4.098 F15000.000
G1 Z0.300 F15000.000
G1 E3.50000 F1500.00000
G1 X0.827 Y-4.072 E0.01460 F720.000
G1 X-0.000 Y-4.034 E0.06380
G1 X-0.827 Y-4.072 E0.06380
G1 X-1.647 Y-4.187 E0.06380
G1 X-2.453 Y-4.376 E0.06380
G1 X-3.238 Y-4.639 E0.06380
G1 X-3.995 Y-4.974 E0.06380
G1 X-4.719 Y-5.377 E0.06380
G1 X-5.402 Y-5.845 E0.06380
G1 X-6.039 Y-6.373 E0.06380
G1 X-6.624 Y-6.959 E0.06380
G1 X-7.153 Y-7.596 E0.06380
G1 X-7.621 Y-8.279 E0.06380
G1 X-8.024 Y-9.002 E0.06380
G1 X-8.358 Y-9.759 E0.06380
G1 X-8.621 Y-10.544 E0.06380
G1 X-8.811 Y-11.350 E0.06380
G1 X-8.925 Y-12.170 E0.06380
G1 X-8.964 Y-13.021 E0.06565
G1 X-8.964 Y-15.973 E0.22751
G1 X-8.925 Y-16.824 E0.06565
G1 X-8.811 Y-17.644 E0.06380
G1 X-8.621 Y-18.450 E0.06380
G1 X-8.358 Y-19.235 E0.06380
G1 X-8.024 Y-19.993 E0.06380
G1 X-7.621 Y-20.716 E0.06380
G1 X-7.153 Y-21.399 E0.06380
G1 X-6.624 Y-22.036 E0.06380
G1 X-6.039 Y-22.621 E0.06380
G1 X-5.402 Y-23.150 E0.06380
G1 X-4.719 Y-23.618 E0.06380
G1 X-3.995 Y-24.021 E0.06380
G1 X-3.238 Y-24.355 E0.06380
G1 X-2.453 Y-24.618 E0.06380
G1 X-1.647 Y-24.808 E0.06380
G1 X-0.833 Y-24.922 E0.06335
G1 X0.130 Y-24.955 E0.07426
G1 X0.827 Y-24.922 E0.05376
G1 X1.647 Y-24.808 E0.06380 F720.000
G1 X2.453 Y-24.618 E0.06380
G1 X3.238 Y-24.355 E0.06380
G1 X3.995 Y-24.021 E0.06380
G1 X4.719 Y-23.618 E0.06380
G1 X5.402 Y-23.150 E0.06380
G1 X5.938 Y-22.705 E0.05376
G1 X6.628 Y-22.031 E0.07426
G1 X7.153 Y-21.399 E0.06335
G1 X7.621 Y-20.716 E0.06380
G1 X8.024 Y-19.993 E0.06380
G1 X8.358 Y-19.235 E0.06380
G1 X8.621 Y-18.450 E0.06380
G1 X8.811 Y-17.644 E0.06380
G1 X8.925 Y-16.824 E0.06380
G1 X8.964 Y-15.973 E0.06565
G1 X8.964 Y-13.021 E0.22751
G1 X8.925 Y-12.170 E0.06565
G1 X8.811 Y-11.350 E0.06380
G1 X8.621 Y-10.544 E0.06380
G1 X8.358 Y-9.759 E0.06380
G1 X8.024 Y-9.002 E0.06380
G1 X7.621 Y-8.279 E0.06380
G1 X7.153 Y-7.596 E0.06380
G1 X6.624 Y-6.959 E0.06380
G1 X6.039 Y-6.373 E0.06380
G1 X5.402 Y-5.845 E0.06380
G1 X4.719 Y-5.377 E0.06380
G1 X3.995 Y-4.974 E0.06380
G1 X3.243 Y-4.642 E0.06335
G1 X2.326 Y-4.346 E0.07426
G1 X1.647 Y-4.187 E0.05376
G1 X1.074 Y-4.107 E0.04458
G1 X1.162 Y-3.477 F15000.000
G1 X0.886 Y-3.439 E0.02149 F720.000
G1 X-0.000 Y-3.398 E0.06833
G1 X-0.886 Y-3.439 E0.06833
G1 X-1.764 Y-3.561 E0.06833
G1 X-2.627 Y-3.764 E0.06833
G1 X-3.468 Y-4.046 E0.06833
G1 X-4.279 Y-4.404 E0.06833
G1 X-5.054 Y-4.836 E0.06833
G1 X-5.785 Y-5.337 E0.06833
G1 X-6.467 Y-5.903 E0.06833
G1 X-7.094 Y-6.530 E0.06833
G1 X-7.661 Y-7.212 E0.06833
G1 X-8.162 Y-7.944 E0.06833
G1 X-8.593 Y-8.718 E0.06833
G1 X-8.951 Y-9.530 E0.06833
G1 X-9.233 Y-10.370 E0.06833
G1 X-9.436 Y-11.233 E0.06833
G1 X-9.559 Y-12.112 E0.06833
G1 X-9.600 Y-13.007 E0.06905
G1 X-9.600 Y-15.988 E0.22977
G1 X-9.559 Y-16.883 E0.06905
G1 X-9.436 Y-17.761 E0.06833
G1 X-9.233 Y-18.624 E0.06833
G1 X-8.951 Y-19.465 E0.06833
G1 X-8.593 Y-20.276 E0.06833
G1 X-8.162 Y-21.051 E0.06833
G1 X-7.661 Y-21.782 E0.06833
G1 X-7.094 Y-22.465 E0.06833
G1 X-6.467 Y-23.092 E0.06833
G1 X-5.785 Y-23.658 E0.06833
G1 X-5.054 Y-24.159 E0.06833
G1 X-4.279 Y-24.591 E0.06833
G1 X-3.468 Y-24.949 E0.06833
G1 X-2.627 Y-25.230 E0.06833
G1 X-1.764 Y-25.433 E0.06833
G1 X-0.888 Y-25.556 E0.06817
G1 X0.134 Y-25.591 E0.07879
G1 X0.886 Y-25.556 E0.05799
G1 X1.764 Y-25.433 E0.06833 F720.000
G1 X2.627 Y-25.230 E0.06833
G1 X3.468 Y-24.949 E0.06833
G1 X4.279 Y-24.591 E0.06833
G1 X5.054 Y-24.159 E0.06833
G1 X5.785 Y-23.658 E0.06833
G1 X6.364 Y-23.177 E0.05799
G1 X7.096 Y-22.463 E0.07879
G1 X7.661 Y-21.782 E0.06817
G1 X8.162 Y-21.051 E0.06833
G1 X8.593 Y-20.276 E0.06833
G1 X8.951 Y-19.465 E0.06833
G1 X9.233 Y-18.624 E0.06833
G1 X9.436 Y-17.761 E0.06833
G1 X9.559 Y-16.883 E0.06833
G1 X9.600 Y-15.988 E0.06905
G1 X9.600 Y-13.007 E0.22977
G1 X9.559 Y-12.112 E0.06905
G1 X9.436 Y-11.233 E0.06833
G1 X9.233 Y-10.370 E0.06833
G1 X8.951 Y-9.530 E0.06833
G1 X8.593 Y-8.718 E0.06833
G1 X8.162 Y-7.944 E0.06833
G1 X7.661 Y-7.212 E0.06833
G1 X7.094 Y-6.530 E0.06833
G1 X6.467 Y-5.903 E0.06833
G1 X5.785 Y-5.337 E0.06833
G1 X5.054 Y-4.836 E0.06833
G1 X4.279 Y-4.404 E0.06833
G1 X3.470 Y-4.047 E0.06817
G1 X2.496 Y-3.734 E0.07879
G1 X1.764 Y-3.561 E0.05799
G1 X1.221 Y-3.486 E0.04222
G1 X0.990 Y-3.697 F15000.000
G1 X-5.386 Y-6.485 F15000.000
G1 X-6.512 Y-7.611 E0.12616 F960.000
G1 X-7.966 Y-9.989 F15000.000
G1 X-3.009 Y-5.032 E0.55535 F960.000
G1 X-1.679 Y-4.625 E0.11016
G1 X-8.372 Y-11.319 E0.74985
G1 X-8.544 Y-12.415 E0.08790
G1 X-0.582 Y-4.453 E0.89195
G1 X0.364 Y-4.431 E0.07500
G1 X-8.579 Y-13.374 E1.00189
G1 X-8.579 Y-14.298 E0.07319
G1 X1.220 Y-4.499 E1.09777
G1 X2.004 Y-4.639 E0.06310
G1 X-8.579 Y-15.222 E1.18562
G1 X-8.577 Y-16.144 E0.07302
G1 X2.724 Y-4.843 E1.26601
G1 X3.404 Y-5.087 E0.05722
G1 X-8.526 Y-17.017 E1.33654
G1 X-8.402 Y-17.817 E0.06411
G1 X4.034 Y-5.381 E1.39320
G1 X4.624 Y-5.715 E0.05370
G1 X-8.217 Y-18.556 E1.43854
G1 X-7.980 Y-19.243 E0.05758
G1 X5.172 Y-6.091 E1.47344
G1 X5.679 Y-6.508 E0.05200
G1 X-7.697 Y-19.884 E1.49849
G1 X-7.368 Y-20.478 E0.05384
G1 X6.141 Y-6.970 E1.51331
G1 X6.594 Y-7.440 E0.05177
G1 X-6.999 Y-21.034 E1.52289
G1 X-6.595 Y-21.554 E0.05216
G1 X6.999 Y-7.960 E1.52289
G1 X7.367 Y-8.516 E0.05281
G1 X-6.141 Y-22.024 E1.51333
G1 X-5.679 Y-22.486 E0.05176
G1 X7.697 Y-9.110 E1.49852
G1 X7.980 Y-9.751 E0.05550
G1 X-5.173 Y-22.904 E1.47348
G1 X-4.624 Y-23.279 E0.05265
G1 X8.217 Y-10.438 E1.43858
G1 X8.402 Y-11.177 E0.06034
G1 X-4.035 Y-23.613 E1.39326
G1 X-3.405 Y-23.907 E0.05507
G1 X8.526 Y-11.976 E1.33662
G1 X8.577 Y-12.850 E0.06932
G1 X-2.730 Y-24.157 E1.26670
G1 X-2.005 Y-24.356 E0.05956
G1 X8.579 Y-13.772 E1.18573
G1 X8.579 Y-14.696 E0.07319
G1 X-1.221 Y-24.496 E1.09789
G1 X-0.358 Y-24.557 E0.06853
G1 X8.579 Y-15.620 E1.00121
G1 X8.544 Y-16.578 E0.07600
G1 X0.581 Y-24.542 E0.89210
G1 X1.677 Y-24.370 E0.08788
G1 X8.372 Y-17.674 E0.75007
G1 X7.967 Y-19.004 E0.11011
G1 X3.006 Y-23.964 E0.55570
G1 X5.379 Y-22.516 F15000.000
G1 X6.518 Y-21.376 E0.12762 F960.000
G1 E-3.50000 F1500.00000
G1 Z0.700 F15000.000
G1 X-8.164 Y10.944 F15000.000
G1 Z0.300 F15000.000
G1 E3.50000 F1500.00000
G1 X-8.018 Y10.306 E0.05042 F720.000
G1 X-7.854 Y9.776 E0.04282
G1 X-7.654 Y9.257 E0.04282
G1 X-7.420 Y8.753 E0.04282
G1 X-7.153 Y8.266 E0.04282
G1 X-6.854 Y7.797 E0.04282
G1 X-6.525 Y7.350 E0.04282
G1 X-6.166 Y6.926 E0.04282
G1 X-5.780 Y6.526 E0.04282
G1 X-5.368 Y6.154 E0.04282
G1 X-4.932 Y5.809 E0.04282
G1 X-4.474 Y5.495 E0.04282
G1 X-3.995 Y5.212 E0.04282
G1 X-3.500 Y4.961 E0.04282
G1 X-2.988 Y4.744 E0.04282
G1 X-2.463 Y4.562 E0.04282
G1 X-1.927 Y4.415 E0.04282
G1 X-1.383 Y4.305 E0.04282
G1 X-0.832 Y4.231 E0.04282
G1 X-0.278 Y4.193 E0.04282
G1 X0.550 Y4.212 E0.06381
G1 X0.832 Y4.231 E0.02180 F720.000
G1 X1.383 Y4.305 E0.04282
G1 X1.927 Y4.415 E0.04282
G1 X2.463 Y4.562 E0.04282
G1 X2.988 Y4.744 E0.04282
G1 X3.500 Y4.961 E0.04282
G1 X3.995 Y5.212 E0.04282
G1 X4.474 Y5.495 E0.04282
G1 X4.932 Y5.809 E0.04282
G1 X5.368 Y6.154 E0.04282
G1 X5.780 Y6.526 E0.04282
G1 X6.166 Y6.926 E0.04282
G1 X6.525 Y7.350 E0.04282
G1 X6.854 Y7.797 E0.04282
G1 X7.153 Y8.266 E0.04282
G1 X7.420 Y8.753 E0.04282
G1 X7.654 Y9.257 E0.04282
G1 X7.854 Y9.776 E0.04282
G1 X8.018 Y10.306 E0.04282
G1 X8.147 Y10.847 E0.04282
G1 X8.240 Y11.395 E0.04282
G1 X8.295 Y11.947 E0.04282
G1 X8.314 Y12.520 E0.04415
G1 X8.314 Y16.485 E0.30559
G1 X8.295 Y17.058 E0.04415
G1 X8.240 Y17.611 E0.04282
G1 X8.147 Y18.159 E0.04282
G1 X8.018 Y18.699 E0.04282
G1 X7.854 Y19.230 E0.04282
G1 X7.654 Y19.748 E0.04282
G1 X7.420 Y20.252 E0.04282
G1 X7.153 Y20.740 E0.04282
G1 X6.854 Y21.208 E0.04282
G1 X6.525 Y21.655 E0.04282
G1 X6.166 Y22.079 E0.04282
G1 X5.780 Y22.479 E0.04282
G1 X5.368 Y22.852 E0.04282
G1 X4.932 Y23.196 E0.04282
G1 X4.239 Y23.649 E0.06381
G1 X3.995 Y23.793 E0.02180
G1 X3.500 Y24.044 E0.04282
G1 X2.988 Y24.261 E0.04282
G1 X2.463 Y24.443 E0.04282
G1 X1.927 Y24.590 E0.04282
G1 X1.383 Y24.701 E0.04282
G1 X0.832 Y24.775 E0.04282
G1 X0.278 Y24.812 E0.04282
G1 X-0.278 Y24.812 E0.04282
G1 X-0.832 Y24.775 E0.04282
G1 X-1.383 Y24.701 E0.04282
G1 X-1.927 Y24.590 E0.04282
G1 X-2.463 Y24.443 E0.04282
G1 X-3.239 Y24.154 E0.06381
G1 X-3.500 Y24.044 E0.02180
G1 X-3.995 Y23.793 E0.04282
G1 X-4.474 Y23.510 E0.04282
G1 X-4.932 Y23.196 E0.04282
G1 X-5.368 Y22.852 E0.04282
G1 X-5.780 Y22.479 E0.04282
G1 X-6.166 Y22.079 E0.04282
G1 X-6.525 Y21.655 E0.04282
G1 X-6.854 Y21.208 E0.04282
G1 X-7.284 Y20.500 E0.06381
G1 X-7.420 Y20.252 E0.02180
G1 X-7.654 Y19.748 E0.04282
G1 X-7.854 Y19.230 E0.04282
G1 X-8.018 Y18.699 E0.04282
G1 X-8.147 Y18.159 E0.04282
G1 X-8.240 Y17.611 E0.04282
G1 X-8.295 Y17.058 E0.04282
G1 X-8.314 Y16.485 E0.04415
G1 X-8.314 Y12.520 E0.30559
G1 X-8.295 Y11.947 E0.04415
G1 X-8.240 Y11.395 E0.04282
G1 X-8.174 Y11.003 E0.03058
G1 X-8.800 Y10.898 F15000.000
G1 X-8.632 Y10.138 E0.05994 F720.000
G1 X-8.455 Y9.567 E0.04609
G1 X-8.240 Y9.009 E0.04609
G1 X-7.988 Y8.466 E0.04609
G1 X-7.700 Y7.942 E0.04609
G1 X-7.379 Y7.438 E0.04609
G1 X-7.024 Y6.956 E0.04609
G1 X-6.638 Y6.499 E0.04609
G1 X-6.222 Y6.069 E0.04609
G1 X-5.778 Y5.668 E0.04609
G1 X-5.309 Y5.297 E0.04609
G1 X-4.816 Y4.959 E0.04609
G1 X-4.301 Y4.654 E0.04609
G1 X-3.767 Y4.384 E0.04609
G1 X-3.217 Y4.151 E0.04609
G1 X-2.652 Y3.955 E0.04609
G1 X-2.075 Y3.797 E0.04609
G1 X-1.489 Y3.678 E0.04609
G1 X-0.896 Y3.598 E0.04609
G1 X-0.299 Y3.558 E0.04609
G1 X0.299 Y3.558 E0.04609
G1 X0.592 Y3.578 E0.02266
G1 X0.896 Y3.598 E0.02343 F720.000
G1 X1.489 Y3.678 E0.04609
G1 X2.075 Y3.797 E0.04609
G1 X2.652 Y3.955 E0.04609
G1 X3.217 Y4.151 E0.04609
G1 X3.767 Y4.384 E0.04609
G1 X4.301 Y4.654 E0.04609
G1 X4.816 Y4.959 E0.04609
G1 X5.309 Y5.297 E0.04609
G1 X5.778 Y5.668 E0.04609
G1 X6.222 Y6.069 E0.04609
G1 X6.638 Y6.499 E0.04609
G1 X7.024 Y6.956 E0.04609
G1 X7.379 Y7.438 E0.04609
G1 X7.700 Y7.942 E0.04609
G1 X7.988 Y8.466 E0.04609
G1 X8.240 Y9.009 E0.04609
G1 X8.455 Y9.567 E0.04609
G1 X8.632 Y10.138 E0.04609
G1 X8.770 Y10.720 E0.04609
G1 X8.870 Y11.310 E0.04609
G1 X8.930 Y11.905 E0.04609
G1 X8.950 Y12.509 E0.04661
G1 X8.950 Y16.496 E0.30723
G1 X8.930 Y17.100 E0.04661
G1 X8.870 Y17.696 E0.04609
G1 X8.770 Y18.285 E0.04609
G1 X8.632 Y18.867 E0.04609
G1 X8.455 Y19.438 E0.04609
G1 X8.240 Y19.997 E0.04609
G1 X7.988 Y20.539 E0.04609
G1 X7.700 Y21.064 E0.04609
G1 X7.379 Y21.568 E0.04609
G1 X7.024 Y22.049 E0.04609
G1 X6.638 Y22.506 E0.04609
G1 X6.222 Y22.936 E0.04609
G1 X5.778 Y23.337 E0.04609
G1 X5.309 Y23.708 E0.04609
G1 X4.816 Y24.046 E0.04609
G1 X4.301 Y24.351 E0.04609
G1 X3.767 Y24.621 E0.04609
G1 X3.217 Y24.854 E0.04609
G1 X2.652 Y25.051 E0.04609
G1 X2.075 Y25.209 E0.04609
G1 X1.489 Y25.328 E0.04609
G1 X0.896 Y25.407 E0.04609
G1 X0.299 Y25.447 E0.04609
G1 X-0.299 Y25.447 E0.04609
G1 X-0.896 Y25.407 E0.04609
G1 X-1.489 Y25.328 E0.04609
G1 X-2.075 Y25.209 E0.04609
G1 X-2.652 Y25.051 E0.04609
G1 X-3.217 Y24.854 E0.04609
G1 X-3.767 Y24.621 E0.04609
G1 X-4.301 Y24.351 E0.04609
G1 X-4.816 Y24.046 E0.04609
G1 X-5.309 Y23.708 E0.04609
G1 X-5.778 Y23.337 E0.04609
G1 X-6.222 Y22.936 E0.04609
G1 X-6.638 Y22.506 E0.04609
G1 X-7.024 Y22.049 E0.04609
G1 X-7.379 Y21.568 E0.04609
G1 X-7.700 Y21.064 E0.04609
G1 X-7.842 Y20.806 E0.02266
G1 X-7.988 Y20.539 E0.02343
G1 X-8.240 Y19.997 E0.04609
G1 X-8.455 Y19.438 E0.04609
G1 X-8.632 Y18.867 E0.04609
G1 X-8.770 Y18.285 E0.04609
G1 X-8.870 Y17.696 E0.04609
G1 X-8.930 Y17.100 E0.04609
G1 X-8.950 Y16.496 E0.04661
G1 X-8.950 Y12.509 E0.30723
G1 X-8.930 Y11.905 E0.04661
G1 X-8.870 Y11.310 E0.04609
G1 X-8.810 Y10.957 E0.02760
G1 X-8.421 Y10.771 F15000.000
G1 X-6.002 Y21.492 F15000.000
G1 X-4.987 Y22.507 E0.11420 F960.000
G1 X-2.671 Y23.896 F15000.000
G1 X-7.406 Y19.160 E0.53278 F960.000
G1 X-7.783 Y17.855 E0.10805
G1 X-1.356 Y24.283 E0.72315
G1 X-0.295 Y24.415 E0.08501
G1 X-7.914 Y16.797 E0.85717
G1 X-7.929 Y15.853 E0.07505
G1 X0.628 Y24.411 E0.96280
G1 X1.462 Y24.316 E0.06671
G1 X-7.929 Y14.925 E1.05654
G1 X-7.929 Y13.997 E0.07383
G1 X2.217 Y24.143 E1.14149
G1 X2.918 Y23.916 E0.05863
G1 X-7.929 Y13.069 E1.22038
G1 X-7.921 Y12.150 E0.07318
G1 X3.562 Y23.633 E1.29195
G1 X4.162 Y23.305 E0.05440
G1 X-7.852 Y11.290 E1.35173
G1 X-7.700 Y10.514 E0.06291
G1 X4.722 Y22.936 E1.39760
G1 X5.238 Y22.524 E0.05253
G1 X-7.491 Y9.796 E1.43210
G1 X-7.222 Y9.137 E0.05663
G1 X5.703 Y22.061 E1.45416
G1 X6.153 Y21.583 E0.05223
G1 X-6.902 Y8.528 E1.46886
G1 X-6.554 Y7.949 E0.05379
G1 X6.554 Y21.056 E1.47474
G1 X6.909 Y20.484 E0.05362
G1 X-6.153 Y7.422 E1.46959
G1 X-5.703 Y6.944 E0.05223
G1 X7.222 Y19.869 E1.45416
G1 X7.491 Y19.210 E0.05663
G1 X-5.238 Y6.481 E1.43210
G1 X-4.722 Y6.069 E0.05253
G1 X7.700 Y18.491 E1.39760
G1 X7.852 Y17.715 E0.06291
G1 X-4.162 Y5.701 E1.35173
G1 X-3.562 Y5.373 E0.05440
G1 X7.921 Y16.856 E1.29195
G1 X7.929 Y15.936 E0.07318
G1 X-2.918 Y5.089 E1.22038
G1 X-2.217 Y4.862 E0.05863
G1 X7.929 Y15.008 E1.14150
G1 X7.929 Y14.080 E0.07383
G1 X-1.462 Y4.689 E1.05654
G1 X-0.628 Y4.595 E0.06671
G1 X7.929 Y13.152 E0.96281
G1 X7.914 Y12.209 E0.07505
G1 X0.300 Y4.595 E0.85667
G1 X1.355 Y4.723 E0.08461
