; generated by Slic3r 1.2.9 on 2019-05-22 at 11:04:47

; external perimeters extrusion width = 0.40mm
; perimeters extrusion width = 0.40mm
; infill extrusion width = 0.40mm
; solid infill extrusion width = 0.40mm
; top infill extrusion width = 0.40mm

M107
M83
T0
M116
G21 ; set units to millimeters
G90 ; use absolute coordinates
M83 ; use relative distances for extrusion
G1 E-4.20000 F1500.00000
G1 Z1.000 F15000.000
G1 X13.595 Y13.595 F15000.000
G1 Z0.300 F15000.000
G1 E4.20000 F1500.00000
G1 X8.228 Y18.961 E0.58488 F960.000
G1 X6.785 Y19.847 E0.13052
G1 X5.359 Y20.014 E0.11066
G1 X-17.954 Y18.090 E1.80271
G1 X-20.226 Y17.038 E0.19295
G1 X-31.822 Y5.441 E1.26387
G1 X-32.708 Y3.998 E0.13052
G1 X-32.844 Y2.309 E0.13052
G1 X-31.845 Y0.323 E0.17134
G1 X-11.677 Y-20.210 E2.21806
G1 X2.503 Y-34.390 E1.54536
G1 X3.946 Y-35.275 E0.13052
G1 X5.634 Y-35.411 E0.13052
G1 X7.644 Y-34.390 E0.17373
G1 X19.241 Y-22.793 E1.26387 F960.000
G1 X20.270 Y-20.726 E0.17795
G1 X23.414 Y1.730 E1.74751
G1 X23.252 Y3.416 E0.13052
G1 X22.385 Y4.805 E0.12620
G1 X13.637 Y13.552 E0.95334
G1 E-4.20000 F1500.00000
G1 Z1.300 F15000.000
G1 X0.930 Y-10.280 F15000.000
G1 Z0.300 F15000.000
G1 E4.20000 F1500.00000
G1 X-4.869 Y-16.079 E0.63194 F720.000
G1 X-2.405 Y-18.542 E0.26852
G1 X-2.405 Y-20.310 E0.13623 F720.000
G1 X0.452 Y-23.167 E0.31140
G1 X2.426 Y-25.141 E0.21507
G1 X4.193 Y-25.141 E0.13623
G1 X6.657 Y-27.604 E0.26852
G1 X12.456 Y-21.806 E0.63194
G1 X9.992 Y-19.342 E0.26852
G1 X9.992 Y-17.575 E0.13623
G1 X5.161 Y-12.744 E0.52646
G1 X3.393 Y-12.744 E0.13623
G1 X0.972 Y-10.323 E0.26390
G1 X0.647 Y-9.997 F15000.000
G1 E-4.20000 F1500.00000
G1 Z1.300 F15000.000
G1 X-6.491 Y-18.860 F15000.000
G1 Z0.300 F15000.000
G1 E4.20000 F1500.00000
G1 X5.073 Y-30.425 E1.26039 F720.000
G1 X6.826 Y-28.672 E0.19103
G1 X3.930 Y-25.776 E0.31562 F720.000
G1 X2.162 Y-25.776 E0.13623
G1 X-3.040 Y-20.573 E0.56704
G1 X-3.040 Y-18.806 E0.13623
G1 X-5.936 Y-15.910 E0.31562
G1 X-7.689 Y-17.663 E0.19103
G1 X-6.534 Y-18.818 E0.12593
G1 E-4.20000 F1500.00000
G1 Z1.300 F15000.000
G1 X6.145 Y-11.092 F15000.000
G1 Z0.300 F15000.000
G1 E4.20000 F1500.00000
G1 X2.514 Y-7.460 E0.39581 F720.000
G1 X0.761 Y-9.213 E0.19103
G1 X3.657 Y-12.108 E0.31562
G1 X5.425 Y-12.108 E0.13623
G1 X10.627 Y-17.311 E0.56704
G1 X10.627 Y-19.079 E0.13623
G1 X13.523 Y-21.975 E0.31561
G1 X15.276 Y-20.222 E0.19103
G1 X6.188 Y-11.134 E0.99050 F720.000
G1 X6.637 Y-10.685 F15000.000
G1 X2.514 Y-6.561 E0.44942 F720.000
G1 X-1.298 Y-10.373 E0.41542
G1 X-1.011 Y-11.443 E0.08543
G1 X-3.706 Y-14.138 E0.29366
G1 X-4.776 Y-13.851 E0.08543
G1 X-8.588 Y-17.663 E0.41542
G1 X5.073 Y-31.324 E1.48891
G1 X7.401 Y-28.997 E0.25365
G1 X8.885 Y-27.512 E0.16178 F720.000
G1 X8.598 Y-26.441 E0.08543
G1 X11.293 Y-23.747 E0.29366
G1 X12.363 Y-24.034 E0.08542
G1 X16.175 Y-20.222 E0.41542
G1 X6.680 Y-10.727 E1.03486
G1 X6.251 Y-10.788 F15000.000
G1 X5.781 Y-11.221 F15000.000
G1 X5.279 Y-11.723 E0.06351 F960.000
G1 X5.259 Y-10.699 E0.09166
G1 X4.235 Y-11.723 E0.12960
G1 X3.478 Y-11.436 E0.07246
G1 X4.737 Y-10.177 E0.15930
G1 X4.215 Y-9.655 E0.06609
G1 X2.956 Y-10.914 E0.15930
G1 X2.434 Y-10.392 E0.06609
G1 X3.693 Y-9.133 E0.15930
G1 X3.170 Y-8.611 E0.06609
G1 X1.912 Y-9.869 E0.15930
G1 X1.390 Y-9.347 E0.06609
G1 X2.648 Y-8.089 E0.15930
G1 X0.621 Y-9.522 F15000.000
G1 X-0.813 Y-10.955 E0.32828 F960.000
G1 X-4.194 Y-14.336 F15000.000
G1 X-5.627 Y-15.769 E0.32828 F960.000
G1 X-7.060 Y-17.797 F15000.000
G1 X-5.802 Y-16.539 E0.15931 F960.000
G1 X-5.279 Y-17.061 E0.06609
G1 X-6.538 Y-18.319 E0.15931
G1 X-6.016 Y-18.841 E0.06609
G1 X-4.757 Y-17.583 E0.15930
G1 X-4.235 Y-18.105 E0.06609
G1 X-5.494 Y-19.364 E0.15931
G1 X-4.972 Y-19.886 E0.06609
G1 X-3.713 Y-18.627 E0.15931
G1 X-3.426 Y-19.384 E0.07246
G1 X-4.450 Y-20.408 E0.12960
G1 X-3.928 Y-20.930 E0.06609
G1 X-3.426 Y-20.428 E0.06351
G1 X-3.358 Y-21.125 F15000.000
G1 X1.611 Y-26.094 E1.13810 F960.000
G1 X1.806 Y-26.663 F15000.000
G1 X2.308 Y-26.162 E0.06351 F960.000
G1 X3.352 Y-26.162 E0.09347
G1 X2.328 Y-27.185 E0.12960
G1 X2.850 Y-27.707 E0.06609
G1 X4.109 Y-26.449 E0.15930
G1 X4.631 Y-26.971 E0.06609
G1 X3.372 Y-28.230 E0.15930
G1 X3.894 Y-28.752 E0.06609
G1 X5.153 Y-27.493 E0.15930
G1 X5.675 Y-28.015 E0.06609
G1 X4.416 Y-29.274 E0.15930
G1 X4.938 Y-29.796 E0.06609
G1 X6.197 Y-28.537 E0.15930
G1 X6.966 Y-28.363 F15000.000
G1 X8.400 Y-26.930 E0.32828 F960.000
G1 X11.781 Y-23.549 F15000.000
G1 X13.214 Y-22.115 E0.32828 F960.000
G1 X14.647 Y-20.087 F15000.000
G1 X13.388 Y-21.346 E0.15930 F960.000
G1 X12.866 Y-20.824 E0.06609
G1 X14.125 Y-19.565 E0.15930
G1 X13.603 Y-19.043 E0.06609
G1 X12.344 Y-20.302 E0.15930
G1 X11.822 Y-19.780 E0.06609
G1 X13.081 Y-18.521 E0.15930
G1 X12.559 Y-17.999 E0.06609
G1 X11.300 Y-19.258 E0.15930
G1 X11.013 Y-18.501 E0.07246
G1 X12.036 Y-17.477 E0.12960
G1 X11.514 Y-16.955 E0.06609
G1 X11.013 Y-17.457 E0.06351
G1 X10.945 Y-16.760 F15000.000
G1 X5.976 Y-11.791 E1.13810 F960.000
G1 E-4.20000 F1500.00000
G1 Z1.300 F15000.000
G1 X9.801 Y-5.148 F15000.000
G1 Z0.300 F15000.000
G1 E4.20000 F1500.00000
G1 X15.599 Y0.650 E0.63194 F720.000
G1 X13.136 Y3.114 E0.26852
G1 X13.136 Y4.882 E0.13623
G1 X8.305 Y9.713 E0.52646
G1 X6.537 Y9.713 E0.13623
G1 X4.074 Y12.176 E0.26852
G1 X-1.725 Y6.378 E0.63194
G1 X0.739 Y3.914 E0.26852
G1 X0.739 Y2.146 E0.13623 F720.000
G1 X3.596 Y-0.711 E0.31140
G1 X5.570 Y-2.684 E0.21507
G1 X7.337 Y-2.684 E0.13623
G1 X9.759 Y-5.105 E0.26390
G1 X10.084 Y-5.431 F15000.000
G1 X-3.389 Y3.638 F15000.000
G1 X8.217 Y-7.968 E1.26497 F720.000
G1 X9.970 Y-6.216 E0.19103
G1 X7.074 Y-3.320 E0.31562 F720.000
G1 X5.306 Y-3.320 E0.13623
G1 X0.104 Y1.883 E0.56704
G1 X0.104 Y3.651 E0.13623
G1 X-2.792 Y6.547 E0.31562
G1 X-4.545 Y4.794 E0.19103
G1 X-3.432 Y3.681 E0.12134
G1 E-4.20000 F1500.00000
G1 Z1.300 F15000.000
G1 X13.771 Y3.378 F15000.000
G1 Z0.300 F15000.000
G1 E4.20000 F1500.00000
G1 X16.667 Y0.482 E0.31561 F720.000
G1 X18.420 Y2.234 E0.19103
G1 X5.658 Y14.997 E1.39094 F720.000
G1 X3.905 Y13.244 E0.19103
G1 X6.801 Y10.348 E0.31562
G1 X8.568 Y10.348 E0.13623
G1 X13.771 Y5.145 E0.56704
G1 X13.771 Y3.438 E0.13161
G1 X15.944 Y5.610 F15000.000
G1 X5.658 Y15.896 E1.12104 F720.000
G1 X1.846 Y12.084 E0.41542
G1 X2.133 Y11.013 E0.08543
G1 X-0.562 Y8.319 E0.29366
G1 X-1.632 Y8.606 E0.08543
G1 X-5.444 Y4.794 E0.41542
G1 X8.217 Y-8.867 E1.48891
G1 X10.545 Y-6.540 E0.25365
G1 X12.029 Y-5.056 E0.16178 F720.000
G1 X11.742 Y-3.985 E0.08543
G1 X14.437 Y-1.290 E0.29366
G1 X15.507 Y-1.577 E0.08542
G1 X19.319 Y2.234 E0.41542
G1 X15.986 Y5.567 E0.36324
G1 X15.557 Y5.506 F15000.000
G1 X14.089 Y5.696 F15000.000
G1 X9.120 Y10.666 E1.13810 F960.000
G1 X8.925 Y11.235 F15000.000
G1 X8.423 Y10.734 E0.06351 F960.000
G1 X8.403 Y11.757 E0.09166
G1 X7.379 Y10.734 E0.12960
G1 X6.622 Y11.021 E0.07246
G1 X7.881 Y12.279 E0.15930
G1 X7.359 Y12.801 E0.06609
G1 X6.100 Y11.543 E0.15930
G1 X5.578 Y12.065 E0.06609
G1 X6.837 Y13.323 E0.15930
G1 X6.314 Y13.846 E0.06609
G1 X5.056 Y12.587 E0.15930
G1 X4.534 Y13.109 E0.06609
G1 X5.792 Y14.368 E0.15930
G1 X3.764 Y12.935 F15000.000
G1 X2.331 Y11.501 E0.32828 F960.000
G1 X-1.050 Y8.121 F15000.000
G1 X-2.483 Y6.687 E0.32828 F960.000
G1 X-3.916 Y4.659 F15000.000
G1 X-2.658 Y5.918 E0.15931 F960.000
G1 X-2.135 Y5.396 E0.06609
G1 X-3.394 Y4.137 E0.15931
G1 X-2.872 Y3.615 E0.06609
G1 X-1.613 Y4.874 E0.15930
G1 X-1.091 Y4.351 E0.06609
G1 X-2.350 Y3.093 E0.15931
G1 X-1.828 Y2.571 E0.06609
G1 X-0.569 Y3.829 E0.15931
G1 X-0.282 Y3.073 E0.07246
G1 X-1.306 Y2.049 E0.12960
G1 X-0.784 Y1.527 E0.06609
G1 X-0.282 Y2.029 E0.06351
G1 X-0.214 Y1.332 F15000.000
G1 X4.755 Y-3.637 E1.13810 F960.000
G1 X4.950 Y-4.207 F15000.000
G1 X5.452 Y-3.705 E0.06351 F960.000
G1 X6.496 Y-3.705 E0.09347
G1 X5.472 Y-4.729 E0.12960
G1 X5.994 Y-5.251 E0.06609
G1 X7.253 Y-3.992 E0.15930
G1 X7.775 Y-4.515 E0.06609
G1 X6.516 Y-5.773 E0.15930
G1 X7.038 Y-6.295 E0.06609
G1 X8.297 Y-5.037 E0.15930
G1 X8.819 Y-5.559 E0.06609
G1 X7.560 Y-6.817 E0.15930
G1 X8.082 Y-7.339 E0.06609
G1 X9.341 Y-6.081 E0.15930
G1 X10.110 Y-5.906 F15000.000
G1 X11.544 Y-4.473 E0.32828 F960.000
G1 X14.925 Y-1.092 F15000.000
G1 X16.358 Y0.341 E0.32828 F960.000
G1 X17.791 Y2.369 F15000.000
G1 X16.532 Y1.111 E0.15930 F960.000
G1 X16.010 Y1.633 E0.06609
G1 X17.269 Y2.891 E0.15930
G1 X16.747 Y3.413 E0.06609
G1 X15.488 Y2.155 E0.15930
G1 X14.966 Y2.677 E0.06609
G1 X16.225 Y3.935 E0.15930
G1 X15.703 Y4.457 E0.06609
G1 X14.444 Y3.199 E0.15930
G1 X14.157 Y3.956 E0.07246
G1 X15.180 Y4.980 E0.12960
G1 X14.658 Y5.502 E0.06609
G1 X14.157 Y5.000 E0.06351
G1 E-4.20000 F1500.00000
G1 Z1.300 F15000.000
G1 X-7.713 Y-1.273 F15000.000
G1 Z0.300 F15000.000
G1 E4.20000 F1500.00000
G1 X-10.177 Y1.191 E0.26852 F720.000
G1 X-10.177 Y2.958 E0.13623
G1 X-15.007 Y7.789 E0.52646
G1 X-16.775 Y7.789 E0.13623
G1 X-19.239 Y10.253 E0.26852
G1 X-25.037 Y4.454 E0.63194
G1 X-22.574 Y1.991 E0.26852
G1 X-22.574 Y0.223 E0.13623 F720.000
G1 X-19.716 Y-2.634 E0.31140
G1 X-17.743 Y-4.608 E0.21507
G1 X-15.975 Y-4.608 E0.13623
G1 X-13.511 Y-7.072 E0.26852
G1 X-7.756 Y-1.316 E0.62731
G1 X-7.430 Y-0.990 F15000.000
G1 E-4.20000 F1500.00000
G1 Z1.300 F15000.000
G1 X-18.057 Y-6.930 F15000.000
G1 Z0.300 F15000.000
G1 E4.20000 F1500.00000
G1 X-15.095 Y-9.892 E0.32283 F720.000
G1 X-13.343 Y-8.139 E0.19103
G1 X-16.239 Y-5.243 E0.31562 F720.000
G1 X-18.006 Y-5.243 E0.13623
G1 X-23.209 Y-0.041 E0.56704
G1 X-23.209 Y1.727 E0.13623
G1 X-26.105 Y4.623 E0.31562
G1 X-27.858 Y2.870 E0.19103
G1 X-18.100 Y-6.888 E1.06348
G1 E-4.20000 F1500.00000
G1 Z1.300 F15000.000
G1 X-8.329 Y3.747 F15000.000
G1 Z0.300 F15000.000
G1 E4.20000 F1500.00000
G1 X-17.655 Y13.073 E1.01642 F720.000
G1 X-19.408 Y11.320 E0.19103
G1 X-16.512 Y8.424 E0.31562
G1 X-14.744 Y8.424 E0.13623
G1 X-9.541 Y3.222 E0.56704
G1 X-9.541 Y1.454 E0.13623
G1 X-6.645 Y-1.442 E0.31561
G1 X-4.893 Y0.311 E0.19103
G1 X-8.287 Y3.705 E0.36990 F720.000
G1 X-7.837 Y4.154 F15000.000
G1 X-17.655 Y13.972 E1.07002 F720.000
G1 X-21.467 Y10.160 E0.41542
G1 X-21.180 Y9.090 E0.08543
G1 X-23.874 Y6.395 E0.29366
G1 X-24.945 Y6.682 E0.08543
G1 X-28.757 Y2.870 E0.41542
G1 X-15.095 Y-10.791 E1.48891
G1 X-12.768 Y-8.464 E0.25365
G1 X-11.284 Y-6.979 E0.16178 F720.000
G1 X-11.571 Y-5.909 E0.08543
G1 X-8.876 Y-3.214 E0.29366
G1 X-7.805 Y-3.501 E0.08542
G1 X-3.994 Y0.311 E0.41542
G1 X-7.795 Y4.112 E0.41426
G1 X-8.224 Y4.051 F15000.000
G1 X-9.224 Y3.773 F15000.000
G1 X-14.193 Y8.742 E1.13810 F960.000
G1 X-14.388 Y9.311 F15000.000
G1 X-14.890 Y8.810 E0.06351 F960.000
G1 X-14.910 Y9.834 E0.09166
G1 X-15.934 Y8.810 E0.12960
G1 X-16.690 Y9.097 E0.07246
G1 X-15.432 Y10.356 E0.15930
G1 X-15.954 Y10.878 E0.06609
G1 X-17.212 Y9.619 E0.15930
G1 X-17.735 Y10.141 E0.06609
G1 X-16.476 Y11.400 E0.15930
G1 X-16.998 Y11.922 E0.06609
G1 X-18.257 Y10.663 E0.15930
G1 X-18.779 Y11.185 E0.06609
G1 X-17.520 Y12.444 E0.15930
G1 X-19.548 Y11.011 F15000.000
G1 X-20.982 Y9.578 E0.32828 F960.000
G1 X-24.362 Y6.197 F15000.000
G1 X-25.796 Y4.763 E0.32828 F960.000
G1 X-27.229 Y2.736 F15000.000
G1 X-25.970 Y3.994 E0.15931 F960.000
G1 X-25.448 Y3.472 E0.06609
G1 X-26.707 Y2.213 E0.15931
G1 X-26.184 Y1.691 E0.06609
G1 X-24.926 Y2.950 E0.15930
G1 X-24.404 Y2.428 E0.06609
G1 X-25.662 Y1.169 E0.15931
G1 X-25.140 Y0.647 E0.06609
G1 X-23.882 Y1.906 E0.15931
G1 X-23.595 Y1.149 E0.07246
G1 X-24.618 Y0.125 E0.12960
G1 X-24.096 Y-0.397 E0.06609
G1 X-23.595 Y0.105 E0.06351
G1 X-23.527 Y-0.592 F15000.000
G1 X-18.557 Y-5.561 E1.13810 F960.000
G1 X-18.363 Y-6.130 F15000.000
G1 X-17.861 Y-5.629 E0.06351 F960.000
G1 X-16.817 Y-5.629 E0.09347
G1 X-17.841 Y-6.653 E0.12960
G1 X-17.318 Y-7.175 E0.06609
G1 X-16.060 Y-5.916 E0.15930
G1 X-15.538 Y-6.438 E0.06609
G1 X-16.796 Y-7.697 E0.15930
G1 X-16.274 Y-8.219 E0.06609
G1 X-15.016 Y-6.960 E0.15930
G1 X-14.494 Y-7.482 E0.06609
G1 X-15.752 Y-8.741 E0.15930
G1 X-15.230 Y-9.263 E0.06609
G1 X-13.972 Y-8.004 E0.15930
G1 X-13.202 Y-7.830 F15000.000
G1 X-11.769 Y-6.397 E0.32828 F960.000
G1 X-8.388 Y-3.016 F15000.000
G1 X-6.955 Y-1.582 E0.32828 F960.000
G1 X-5.522 Y0.445 F15000.000
G1 X-6.780 Y-0.813 E0.15930 F960.000
G1 X-7.302 Y-0.291 E0.06609
G1 X-6.044 Y0.968 E0.15930
G1 X-6.566 Y1.490 E0.06609
G1 X-7.824 Y0.231 E0.15930
G1 X-8.346 Y0.753 E0.06609
G1 X-7.088 Y2.012 E0.15930
G1 X-7.610 Y2.534 E0.06609
G1 X-8.869 Y1.275 E0.15930
G1 X-9.156 Y2.032 E0.07246
G1 X-8.132 Y3.056 E0.12960
G1 X-8.654 Y3.578 E0.06609
G1 X-9.156 Y3.076 E0.06351
G1 E-4.20000 F1500.00000
G1 Z1.300 F15000.000
G1 X1.106 Y-10.164 F15000.000
G1 Z0.500 F15000.000
G1 E4.20000 F1500.00000
G1 X-4.985 Y-16.255 E0.24863 F2872.371
G1 X-2.612 Y-18.628 E0.09685
G1 X-2.612 Y-20.042 E0.04082
G1 X2.693 Y-25.348 E0.21655
G1 X4.108 Y-25.348 E0.04082
G1 X6.480 Y-27.721 E0.09685 F2872.371
G1 X12.572 Y-21.629 E0.24863
G1 X10.199 Y-19.257 E0.09685
G1 X10.199 Y-17.842 E0.04082
G1 X4.893 Y-12.537 E0.21655
G1 X3.479 Y-12.537 E0.04082
G1 X1.149 Y-10.207 E0.09512
G1 X1.106 Y-10.669 F15000.000
G1 X-4.480 Y-16.255 E0.22802 F2872.371
G1 X-2.255 Y-18.480 E0.09081
G1 X-2.255 Y-19.894 E0.04082
G1 X2.841 Y-24.991 E0.20802
G1 X4.256 Y-24.991 E0.04082
G1 X6.480 Y-27.216 E0.09081 F2872.371
G1 X12.067 Y-21.629 E0.22802
G1 X9.842 Y-19.405 E0.09081
G1 X9.842 Y-17.990 E0.04082
G1 X4.746 Y-12.894 E0.20802
G1 X3.331 Y-12.894 E0.04082
G1 X1.149 Y-10.712 E0.08908
G1 X0.824 Y-10.386 F15000.000
G1 E-4.20000 F1500.00000
G1 Z1.500 F15000.000
G1 X12.413 Y-23.833 F15000.000
G1 Z0.500 F15000.000
G1 E4.20000 F1500.00000
G1 X16.130 Y-20.116 E0.15171 F2872.371
G1 X2.620 Y-6.606 E0.55145
G1 X-1.097 Y-10.323 E0.15171
G1 X-0.780 Y-11.505 E0.03533
G1 X-1.050 Y-11.775 E0.01103
G1 X-3.644 Y-14.369 E0.10586
G1 X-4.826 Y-14.052 E0.03533
G1 X-8.543 Y-17.769 E0.15171
G1 X4.967 Y-31.278 E0.55145
G1 X8.684 Y-27.562 E0.15171
G1 X8.367 Y-26.380 E0.03533 F2872.371
G1 X11.231 Y-23.516 E0.11688
G1 X12.355 Y-23.817 E0.03360
G1 X12.263 Y-24.162 F15000.000
G1 X12.520 Y-24.231 E0.00768 F2872.371
G1 X16.635 Y-20.116 E0.16796
G1 X2.620 Y-6.101 E0.57206
G1 X-1.495 Y-10.216 E0.16796
G1 X-1.178 Y-11.399 E0.03533
G1 X-1.303 Y-11.523 E0.00508
G1 X-3.750 Y-13.970 E0.09991
G1 X-4.933 Y-13.654 E0.03533
G1 X-9.048 Y-17.769 E0.16796
G1 X4.967 Y-31.783 E0.57206
G1 X9.082 Y-27.669 E0.16796
G1 X8.765 Y-26.486 E0.03533 F2872.371
G1 X11.337 Y-23.914 E0.10498
G1 X12.205 Y-24.147 E0.02591
G1 X12.451 Y-23.974 F15000.000
G1 X11.491 Y-23.348 F15000.000
G1 X11.297 Y-23.154 E0.00833 F3829.827
G1 X11.562 Y-22.888 E0.01142
G1 X12.217 Y-23.542 E0.02811
G1 X12.587 Y-23.381 E0.01227
G1 X11.828 Y-22.622 E0.03260
G1 X12.094 Y-22.356 E0.01142
G1 X12.853 Y-23.115 E0.03260
G1 X13.118 Y-22.849 E0.01142
G1 X12.360 Y-22.091 E0.03260
G1 X12.625 Y-21.825 E0.01142
G1 X13.384 Y-22.584 E0.03260
G1 X13.650 Y-22.318 E0.01142
G1 X12.891 Y-21.559 E0.03260
G1 X10.407 Y-18.543 F15000.000
G1 X13.916 Y-22.052 E0.15076 F3829.827
G1 X14.182 Y-21.786 E0.01142
G1 X10.407 Y-18.012 E0.16218
G1 E-4.20000 F1500.00000
G1 Z1.500 F15000.000
G1 X-0.418 Y-11.439 F15000.000
G1 Z0.500 F15000.000
G1 E4.20000 F1500.00000
G1 X-0.612 Y-11.245 E0.00833 F3829.827
G1 X-0.806 Y-10.519 E0.02283
G1 X-0.152 Y-11.173 E0.02811
G1 X0.114 Y-10.908 E0.01142
G1 X-0.645 Y-10.149 E0.03260
G1 X-0.379 Y-9.883 E0.01142
G1 X0.379 Y-10.642 E0.03260
G1 X0.645 Y-10.376 E0.01142
G1 X-0.114 Y-9.617 E0.03260
G1 X0.152 Y-9.352 E0.01142
G1 X0.911 Y-10.110 E0.03260
G1 X1.177 Y-9.845 E0.01142
G1 X0.418 Y-9.086 E0.03260
G1 X0.684 Y-8.820 E0.01142
G1 X4.193 Y-12.329 E0.15076
G1 X4.724 Y-12.329 E0.01615
G1 X0.949 Y-8.554 E0.16218
G1 X1.215 Y-8.289 E0.01142
G1 X14.447 Y-21.521 E0.56848
G1 X14.713 Y-21.255 E0.01142
G1 X1.481 Y-8.023 E0.56848
G1 X1.747 Y-7.757 E0.01142
G1 X14.979 Y-20.989 E0.56848
G1 X15.245 Y-20.723 E0.01142
G1 X2.012 Y-7.491 E0.56848
G1 X2.278 Y-7.226 E0.01142
G1 X15.510 Y-20.458 E0.56848
G1 X15.776 Y-20.192 E0.01142
G1 X2.544 Y-6.960 E0.56848
G1 X-3.710 Y-14.731 F15000.000
G1 X-3.904 Y-14.537 E0.00833 F3829.827
G1 X-4.630 Y-14.343 E0.02283
G1 X-3.976 Y-14.997 E0.02811
G1 X-4.241 Y-15.263 E0.01142
G1 X-5.000 Y-14.504 E0.03260
G1 X-5.266 Y-14.770 E0.01142
G1 X-4.507 Y-15.528 E0.03260
G1 X-4.773 Y-15.794 E0.01142
