; generated by Slic3r 1.2.9 on 2019-08-30 at 15:39:57

; external perimeters extrusion width = 0.40mm
; perimeters extrusion width = 0.40mm
; infill extrusion width = 0.40mm
; solid infill extrusion width = 0.40mm
; top infill extrusion width = 0.40mm

M107
M83
T0
M116
G21 ; set units to millimeters
G90 ; use absolute coordinates
M83 ; use relative distances for extrusion
G1 E-4.20000 F1500.00000
G1 Z1.000 F15000.000
G1 X-0.000 Y9.389 F15000.000
G1 Z0.300 F15000.000
G1 E4.20000 F1500.00000
G1 X-24.635 Y9.387 E1.89848 F960.000
G1 X-26.282 Y8.993 E0.13052
G1 X-27.348 Y8.172 E0.10371
G1 X-27.410 Y8.102 E0.00719
G1 X-28.212 Y6.610 E0.13052
G1 X-28.333 Y5.684 E0.07201
G1 X-28.336 Y-2.056 E0.59648
G1 X-28.310 Y-2.635 E0.04464
G1 X-28.260 Y-3.076 E0.03422
G1 X-28.170 Y-3.585 E0.03978
G1 X-28.067 Y-4.016 E0.03421
G1 X-27.954 Y-4.387 E0.02985
G1 X-27.798 Y-4.802 E0.03421
G1 X-27.588 Y-5.274 E0.03978
G1 X-27.350 Y-5.722 E0.03909
G1 X-27.077 Y-6.160 E0.03978
G1 X-26.778 Y-6.570 E0.03909
G1 X-26.447 Y-6.965 E0.03978
G1 X-26.094 Y-7.330 E0.03909
G1 X-25.711 Y-7.676 E0.03978
G1 X-25.311 Y-7.988 E0.03909
G1 X-24.883 Y-8.276 E0.03978
G1 X-24.444 Y-8.530 E0.03909
G1 X-23.980 Y-8.756 E0.03978
G1 X-23.510 Y-8.946 E0.03909
G1 X-23.019 Y-9.106 E0.03978
G1 X-22.526 Y-9.229 E0.03909
G1 X-22.018 Y-9.318 E0.03978
G1 X-21.577 Y-9.369 E0.03422
G1 X-20.999 Y-9.394 E0.04454
G1 X21.078 Y-9.392 E3.24270
G1 X21.994 Y-9.321 E0.07082 F960.000
G1 X22.522 Y-9.230 E0.04130
G1 X23.023 Y-9.105 E0.03978
G1 X23.505 Y-8.948 E0.03909
G1 X24.329 Y-8.594 E0.06909
G1 X24.830 Y-8.312 E0.04434
G1 X25.155 Y-8.101 E0.02985
G1 X25.543 Y-7.810 E0.03740
G1 X25.994 Y-7.423 E0.04575
G1 X26.392 Y-7.024 E0.04345
G1 X26.760 Y-6.592 E0.04373
G1 X27.077 Y-6.160 E0.04130
G1 X27.350 Y-5.722 E0.03978
G1 X27.562 Y-5.332 E0.03421
G1 X27.726 Y-4.981 E0.02985
G1 X27.935 Y-4.445 E0.04434
G1 X28.131 Y-3.768 E0.05427
G1 X28.200 Y-3.459 E0.02445
G1 X28.291 Y-2.827 E0.04923
G1 X28.327 Y-2.311 E0.03981
G1 X28.336 Y5.658 E0.61413
G1 X28.143 Y6.826 E0.09125
G1 X26.785 Y8.682 E0.17723
G1 X26.732 Y8.719 E0.00499
G1 X24.628 Y9.390 E0.17018
G1 X0.060 Y9.389 E1.89339
G1 E-4.20000 F1500.00000
G1 Z1.300 F15000.000
G1 X-18.903 Y-0.962 F15000.000
G1 Z0.300 F15000.000
G1 E4.20000 F1500.00000
G1 X-19.031 Y-0.728 E0.02055 F600.000
G1 X-19.349 Y-0.348 E0.03815
G1 X-19.738 Y-0.044 E0.03806
G1 X-20.112 Y0.146 E0.03233
G1 X-20.559 Y0.277 E0.03593
G1 X-21.003 Y0.319 E0.03435
G1 X-21.550 Y0.258 E0.04239
G1 X-21.897 Y0.142 E0.02821
G1 X-22.328 Y-0.087 E0.03765
G1 X-22.689 Y-0.387 E0.03617
G1 X-22.971 Y-0.731 E0.03426
G1 X-23.202 Y-1.165 E0.03791
G1 X-23.325 Y-1.567 E0.03240
G1 X-23.377 Y-2.058 E0.03806
G1 X-23.325 Y-2.549 E0.03806
G1 X-23.202 Y-2.951 E0.03240
G1 X-22.972 Y-3.385 E0.03782
G1 X-22.707 Y-3.711 E0.03240
G1 X-22.332 Y-4.027 E0.03782
G1 X-21.964 Y-4.231 E0.03240
G1 X-21.495 Y-4.383 E0.03799
G1 X-21.029 Y-4.434 E0.03617 F600.000
G1 X-20.585 Y-4.398 E0.03426
G1 X-20.113 Y-4.263 E0.03791
G1 X-19.738 Y-4.072 E0.03240
G1 X-19.350 Y-3.769 E0.03799
G1 X-19.046 Y-3.411 E0.03617
G1 X-18.828 Y-3.023 E0.03426
G1 X-18.675 Y-2.552 E0.03815
G1 X-18.623 Y-2.058 E0.03829
G1 X-18.675 Y-1.565 E0.03823
G1 X-18.818 Y-1.118 E0.03617
G1 X-18.874 Y-1.014 E0.00909
G1 X-18.764 Y-0.734 F15000.000
G1 E-4.20000 F1500.00000
G1 Z1.300 F15000.000
G1 X-23.713 Y1.991 F15000.000
G1 Z0.300 F15000.000
G1 E4.20000 F1500.00000
G1 X-23.714 Y-0.633 E0.20228 F600.000
G1 X-23.142 Y0.063 E0.06944
G1 X-22.684 Y0.443 E0.04587 F600.000
G1 X-22.148 Y0.728 E0.04678
G1 X-21.687 Y0.882 E0.03749
G1 X-21.008 Y0.958 E0.05260
G1 X-20.439 Y0.904 E0.04406
G1 X-19.938 Y0.758 E0.04025
G1 X-19.804 Y1.065 E0.02586
G1 X-20.997 Y1.813 E0.10852
G1 X-21.868 Y2.402 E0.08107
G1 X-22.723 Y3.015 E0.08107
G1 X-23.712 Y3.766 E0.09569
G1 X-23.713 Y2.051 E0.13212
G1 E-4.20000 F1500.00000
G1 Z1.300 F15000.000
G1 X-16.994 Y-4.772 F15000.000
G1 Z0.300 F15000.000
G1 E4.20000 F1500.00000
G1 X19.544 Y-4.771 E2.81582 F720.000
G1 X18.829 Y-4.150 E0.07297 F720.000
G1 X18.480 Y-3.713 E0.04316
G1 X18.203 Y-3.186 E0.04587
G1 X18.032 Y-2.590 E0.04773
G1 X17.985 Y-2.055 E0.04141
G1 X18.038 Y-1.497 E0.04316
G1 X18.205 Y-0.926 E0.04587
G1 X18.497 Y-0.376 E0.04798
G1 X18.858 Y0.063 E0.04382
G1 X19.047 Y0.220 E0.01896
G1 X18.850 Y0.507 E0.02685
G1 X17.354 Y-0.300 E0.13097
G1 X16.286 Y-0.811 E0.09129
G1 X16.286 Y-2.344 E0.11810
G1 X-16.286 Y-2.344 E2.51012
G1 X-16.286 Y-0.811 E0.11809
G1 X-17.354 Y-0.300 E0.09130
G1 X-18.809 Y0.484 E0.12740
G1 X-19.012 Y0.240 E0.02452
G1 X-18.503 Y-0.367 E0.06107
G1 X-18.231 Y-0.867 E0.04382
G1 X-18.050 Y-1.434 E0.04587
G1 X-17.984 Y-2.058 E0.04840
G1 X-18.050 Y-2.685 E0.04859
G1 X-18.243 Y-3.280 E0.04817
G1 X-18.522 Y-3.775 E0.04382
G1 X-18.907 Y-4.229 E0.04587
G1 X-19.273 Y-4.515 E0.03580
G1 X-19.184 Y-4.772 E0.02096
G1 X-17.054 Y-4.772 E0.16416
G1 X18.624 Y-2.057 F15000.000
G1 X18.660 Y-2.474 E0.03225 F600.000
G1 X18.796 Y-2.948 E0.03799
G1 X19.014 Y-3.363 E0.03617
G1 X19.290 Y-3.708 E0.03403
G1 X19.606 Y-3.983 E0.03225
G1 X20.033 Y-4.230 E0.03806
G1 X20.505 Y-4.383 E0.03823
G1 X20.971 Y-4.434 E0.03617 F600.000
G1 X21.401 Y-4.400 E0.03321
G1 X21.632 Y-4.352 E0.01819
G1 X21.899 Y-4.257 E0.02185
G1 X22.305 Y-4.044 E0.03531
G1 X22.652 Y-3.766 E0.03426
G1 X22.969 Y-3.390 E0.03791
G1 X23.172 Y-3.022 E0.03240
G1 X23.325 Y-2.552 E0.03806
G1 X23.377 Y-2.058 E0.03829
G1 X23.325 Y-1.564 E0.03830
G1 X23.171 Y-1.091 E0.03829
G1 X22.925 Y-0.664 E0.03806
G1 X22.649 Y-0.346 E0.03240
G1 X22.262 Y-0.044 E0.03782
G1 X21.888 Y0.146 E0.03233
G1 X21.441 Y0.277 E0.03593
G1 X21.007 Y0.318 E0.03355
G1 X20.750 Y0.304 E0.01983
G1 X20.437 Y0.252 E0.02445
G1 X20.104 Y0.143 E0.02707
G1 X19.672 Y-0.087 E0.03770
G1 X19.311 Y-0.387 E0.03617
G1 X19.029 Y-0.731 E0.03426
G1 X18.797 Y-1.167 E0.03808
G1 X18.665 Y-1.617 E0.03617
G1 X18.629 Y-1.997 E0.02940
G1 X18.283 Y-2.266 F15000.000
G1 E-4.20000 F1500.00000
G1 Z1.300 F15000.000
G1 X22.519 Y2.869 F15000.000
G1 Z0.300 F15000.000
G1 E4.20000 F1500.00000
G1 X20.997 Y1.813 E0.14281 F600.000
G1 X19.822 Y1.076 E0.10689
G1 X19.964 Y0.766 E0.02630
G1 X20.285 Y0.871 E0.02608
G1 X20.681 Y0.937 E0.03096
G1 X21.020 Y0.955 E0.02616
G1 X21.561 Y0.904 E0.04182
G1 X22.124 Y0.740 E0.04520
G1 X22.605 Y0.494 E0.04164
G1 X23.088 Y0.117 E0.04725
G1 X23.714 Y-0.603 E0.07355
G1 X23.714 Y3.767 E0.33685
G1 X22.568 Y2.904 E0.11059 F600.000
G1 X22.198 Y3.421 F15000.000
G1 X21.505 Y2.924 E0.06570 F720.000
G1 X20.648 Y2.345 E0.07972
G1 X19.775 Y1.789 E0.07972
G1 X18.902 Y1.266 E0.07844
G1 X17.986 Y0.751 E0.08100
G1 X17.069 Y0.268 E0.07987
G1 X15.650 Y-0.411 E0.12122
G1 X15.650 Y-1.708 E0.09997
G1 X-15.650 Y-1.708 E2.41215
G1 X-15.650 Y-0.411 E0.09996
G1 X-17.069 Y0.268 E0.12122
G1 X-17.986 Y0.751 E0.07986
G1 X-18.888 Y1.258 E0.07972
G1 X-19.775 Y1.789 E0.07972
G1 X-20.648 Y2.345 E0.07972
G1 X-21.505 Y2.924 E0.07972
G1 X-22.346 Y3.527 E0.07972
G1 X-23.170 Y4.152 E0.07972
G1 X-24.347 Y5.115 E0.11723
G1 X-24.350 Y-2.049 E0.55207
G1 X-24.331 Y-2.405 E0.02752
G1 X-24.249 Y-2.871 E0.03648
G1 X-24.148 Y-3.201 E0.02655
G1 X-23.957 Y-3.630 E0.03624
G1 X-23.710 Y-4.027 E0.03601
G1 X-23.409 Y-4.385 E0.03601
G1 X-23.062 Y-4.697 E0.03601
G1 X-22.675 Y-4.959 E0.03601
G1 X-22.255 Y-5.163 E0.03601
G1 X-21.810 Y-5.308 E0.03601
G1 X-21.347 Y-5.389 E0.03624
G1 X-20.990 Y-5.408 E0.02752
G1 X21.061 Y-5.407 E3.24069
G1 X21.583 Y-5.356 E0.04044 F720.000
G1 X22.035 Y-5.243 E0.03590
G1 X22.474 Y-5.066 E0.03648
G1 X22.965 Y-4.771 E0.04414
G1 X23.376 Y-4.417 E0.04184
G1 X23.710 Y-4.026 E0.03964
G1 X23.959 Y-3.628 E0.03614
G1 X24.185 Y-3.096 E0.04453
G1 X24.316 Y-2.530 E0.04476
G1 X24.350 Y-2.046 E0.03746
G1 X24.350 Y5.118 E0.55202
G1 X23.170 Y4.152 E0.11751
G1 X22.247 Y3.455 E0.08912
G1 X22.240 Y3.023 F15000.000
G1 X23.329 Y2.120 F15000.000
G1 X22.259 Y1.051 E0.15954 F960.000
G1 X23.025 Y0.586 E0.09446
G1 X23.329 Y0.890 E0.04533
G1 X21.646 Y1.668 F15000.000
G1 X21.302 Y1.324 E0.05134 F960.000
G1 X23.300 Y-0.640 F15000.000
G1 X23.516 Y-0.944 E0.02881 F960.000
G1 X23.837 Y-1.527 E0.05123
G1 X23.862 Y-2.076 E0.04236
G1 X23.803 Y-2.646 E0.04423
G1 X23.624 Y-3.201 E0.04490
G1 X23.358 Y-3.677 E0.04199
G1 X23.002 Y-4.101 E0.04270
G1 X22.583 Y-4.441 E0.04156
G1 X22.082 Y-4.704 E0.04360
G1 X21.773 Y-4.813 E0.02531
G1 X21.500 Y-4.876 E0.02155
G1 X21.037 Y-4.919 E0.03584
G1 X20.467 Y-4.894 E0.04400
G1 X19.886 Y-4.574 E0.05108
G1 X19.581 Y-4.358 E0.02881
G1 X18.351 Y-4.082 F15000.000
G1 X18.048 Y-4.386 E0.03378 F960.000
G1 X17.997 Y-3.520 E0.06817
G1 X17.131 Y-4.386 E0.09624
G1 X16.214 Y-4.386 E0.07206
G1 X17.741 Y-2.858 E0.16978
G1 X17.611 Y-2.072 E0.06267
G1 X15.297 Y-4.386 E0.25722
G1 X14.380 Y-4.386 E0.07206
G1 X16.037 Y-2.729 E0.18416
G1 X16.671 Y-2.095 F15000.000
G1 X17.724 Y-1.042 E0.11707 F960.000
G1 X15.120 Y-2.729 F15000.000
G1 X13.464 Y-4.386 E0.18416 F960.000
G1 X12.547 Y-4.386 E0.07206
G1 X14.204 Y-2.729 E0.18416
G1 X13.287 Y-2.729 E0.07206
G1 X11.630 Y-4.386 E0.18417
G1 X10.713 Y-4.386 E0.07206
G1 X12.370 Y-2.729 E0.18417
G1 X11.453 Y-2.729 E0.07206
G1 X9.796 Y-4.386 E0.18417
G1 X8.880 Y-4.386 E0.07206
G1 X10.536 Y-2.729 E0.18418
G1 X9.620 Y-2.729 E0.07206
G1 X7.963 Y-4.386 E0.18418
G1 X7.046 Y-4.386 E0.07206
G1 X8.703 Y-2.729 E0.18418
G1 X7.786 Y-2.729 E0.07206
G1 X6.129 Y-4.386 E0.18419
G1 X5.212 Y-4.386 E0.07206
G1 X6.869 Y-2.729 E0.18419
G1 X5.953 Y-2.729 E0.07206
G1 X4.296 Y-4.386 E0.18419
G1 X3.379 Y-4.386 E0.07206
G1 X5.036 Y-2.729 E0.18420
G1 X4.119 Y-2.729 E0.07206
G1 X2.462 Y-4.386 E0.18420
G1 X1.545 Y-4.386 E0.07206
G1 X3.202 Y-2.729 E0.18420
G1 X2.286 Y-2.729 E0.07206
G1 X0.628 Y-4.386 E0.18421
G1 X-0.288 Y-4.386 E0.07206
G1 X1.369 Y-2.729 E0.18421
G1 X0.452 Y-2.729 E0.07206
G1 X-1.205 Y-4.386 E0.18421
G1 X-2.122 Y-4.386 E0.07206
G1 X-0.465 Y-2.729 E0.18422
G1 X-1.381 Y-2.729 E0.07206
G1 X-3.039 Y-4.387 E0.18422
G1 X-3.956 Y-4.387 E0.07206
G1 X-2.298 Y-2.729 E0.18422
G1 X-3.215 Y-2.729 E0.07206
G1 X-4.872 Y-4.387 E0.18423
G1 X-5.789 Y-4.387 E0.07206
G1 X-4.132 Y-2.729 E0.18423
G1 X-5.049 Y-2.729 E0.07206
G1 X-6.706 Y-4.387 E0.18423
G1 X-7.623 Y-4.387 E0.07206
G1 X-5.965 Y-2.729 E0.18424
G1 X-6.882 Y-2.729 E0.07206
G1 X-8.540 Y-4.387 E0.18424
G1 X-9.456 Y-4.387 E0.07206
G1 X-7.799 Y-2.729 E0.18424
G1 X-8.716 Y-2.729 E0.07206
G1 X-10.373 Y-4.387 E0.18424
G1 X-11.290 Y-4.387 E0.07206
G1 X-9.632 Y-2.729 E0.18425
G1 X-10.549 Y-2.729 E0.07206
G1 X-12.207 Y-4.387 E0.18425
G1 X-13.124 Y-4.387 E0.07206
G1 X-11.466 Y-2.729 E0.18425
G1 X-12.383 Y-2.729 E0.07206
G1 X-14.040 Y-4.387 E0.18426
G1 X-14.957 Y-4.387 E0.07206
G1 X-13.299 Y-2.729 E0.18426
G1 X-14.216 Y-2.729 E0.07206
G1 X-15.874 Y-4.387 E0.18426
G1 X-16.791 Y-4.387 E0.07206
G1 X-15.133 Y-2.729 E0.18427
G1 X-16.050 Y-2.729 E0.07206
G1 X-17.708 Y-4.387 E0.18427
G1 X-17.947 Y-3.709 E0.05647
G1 X-16.671 Y-2.434 E0.14181
G1 X-16.671 Y-1.517 E0.07206
G1 X-17.625 Y-2.471 E0.10602
G1 X-17.659 Y-1.588 E0.06941
G1 X-16.944 Y-0.873 E0.07946
G1 X-17.560 Y-0.572 E0.05387
G1 X-17.860 Y-0.873 E0.03338
G1 X-19.535 Y-4.730 F15000.000
G1 X-19.921 Y-4.820 E0.03053 F960.000
G1 X-20.513 Y-4.901 E0.04605
G1 X-21.052 Y-4.920 E0.04153
G1 X-21.580 Y-4.859 E0.04102
G1 X-22.071 Y-4.709 E0.03954
G1 X-22.429 Y-4.533 E0.03073
G1 X-22.759 Y-4.309 E0.03072
G1 X-23.059 Y-4.047 E0.03075
G1 X-23.366 Y-3.665 E0.03779
G1 X-23.643 Y-3.151 E0.04496
G1 X-23.773 Y-2.757 E0.03195
G1 X-23.841 Y-2.349 E0.03186
G1 X-23.864 Y-2.041 E0.02386
G1 X-23.840 Y-1.591 E0.03472
G1 X-23.552 Y-1.026 E0.04885
G1 X-23.343 Y-0.712 E0.02903
G1 X-21.296 Y1.589 F15000.000
G1 X-21.588 Y1.297 E0.03503 F960.000
G1 X-21.871 Y2.002 E0.06440
G1 X-23.227 Y0.646 E0.16249
G1 X-23.328 Y1.534 E0.07571
G1 X-22.451 Y2.411 E0.10509
G1 X-23.023 Y2.827 E0.05996
G1 X-23.327 Y2.523 E0.03642
G1 E-4.20000 F1500.00000
G1 Z1.300 F15000.000
G1 X-22.006 Y0.037 F15000.000
G1 Z0.500 F15000.000
G1 E4.20000 F1500.00000
G1 X-22.301 Y-0.120 E0.00967 F2400.000
G1 X-22.621 Y-0.379 E0.01189
G1 X-22.892 Y-0.690 E0.01189
G1 X-23.133 Y-1.108 E0.01395
G1 X-23.283 Y-1.568 E0.01395
G1 X-23.333 Y-1.977 E0.01189
G1 X-23.311 Y-2.388 E0.01189
G1 X-23.194 Y-2.857 E0.01395
G1 X-22.982 Y-3.291 E0.01395
G1 X-22.732 Y-3.624 E0.01203
G1 X-22.373 Y-3.947 E0.01395
G1 X-21.954 Y-4.189 E0.01395
G1 X-21.560 Y-4.325 E0.01203
G1 X-21.081 Y-4.392 E0.01395 F2400.000
G1 X-20.595 Y-4.358 E0.01409
G1 X-20.125 Y-4.223 E0.01409
G1 X-19.699 Y-3.996 E0.01395
G1 X-19.379 Y-3.737 E0.01189
G1 X-19.108 Y-3.426 E0.01189
G1 X-18.867 Y-3.008 E0.01395
G1 X-18.717 Y-2.548 E0.01395
G1 X-18.667 Y-2.135 E0.01203
G1 X-18.700 Y-1.658 E0.01381
G1 X-18.808 Y-1.255 E0.01203
G1 X-19.018 Y-0.825 E0.01381
G1 X-19.268 Y-0.492 E0.01203
G1 X-19.627 Y-0.169 E0.01395
G1 X-20.046 Y0.073 E0.01395
G1 X-20.440 Y0.208 E0.01203
G1 X-20.919 Y0.276 E0.01395
G1 X-21.405 Y0.242 E0.01409
G1 X-21.875 Y0.107 E0.01409
G1 X-21.953 Y0.066 E0.00255
G1 X-21.785 Y-0.250 F15000.000
G1 X-22.103 Y-0.419 E0.01041 F2400.000
G1 X-22.372 Y-0.637 E0.00999
G1 X-22.600 Y-0.898 E0.00999
G1 X-22.805 Y-1.254 E0.01187
G1 X-22.932 Y-1.646 E0.01187
G1 X-22.975 Y-1.989 E0.00999
G1 X-22.956 Y-2.335 E0.00999
G1 X-22.857 Y-2.734 E0.01187
G1 X-22.677 Y-3.104 E0.01187
G1 X-22.467 Y-3.382 E0.01004
G1 X-22.162 Y-3.657 E0.01187
G1 X-21.805 Y-3.863 E0.01187
G1 X-21.476 Y-3.976 E0.01004
G1 X-21.069 Y-4.033 E0.01187 F2400.000
G1 X-20.657 Y-4.004 E0.01192
G1 X-20.260 Y-3.890 E0.01192
G1 X-19.897 Y-3.697 E0.01187
G1 X-19.628 Y-3.479 E0.00999
G1 X-19.400 Y-3.218 E0.00999
G1 X-19.195 Y-2.862 E0.01187
G1 X-19.068 Y-2.471 E0.01187
G1 X-19.025 Y-2.125 E0.01004
G1 X-19.054 Y-1.717 E0.01182
G1 X-19.144 Y-1.381 E0.01004
G1 X-19.323 Y-1.013 E0.01182
G1 X-19.533 Y-0.735 E0.01004
G1 X-19.838 Y-0.459 E0.01187
G1 X-20.195 Y-0.254 E0.01187
G1 X-20.524 Y-0.140 E0.01004
G1 X-20.931 Y-0.083 E0.01187
G1 X-21.343 Y-0.112 E0.01192
G1 X-21.731 Y-0.223 E0.01166
G1 X-22.078 Y-0.040 F15000.000
G1 E-4.20000 F1500.00000
G1 Z1.500 F15000.000
G1 X18.667 Y-1.982 F15000.000
G1 Z0.500 F15000.000
G1 E4.20000 F1500.00000
G1 X18.700 Y-2.464 E0.01395 F2400.000
G1 X18.835 Y-2.933 E0.01409
G1 X19.062 Y-3.360 E0.01395
G1 X19.321 Y-3.680 E0.01188
G1 X19.632 Y-3.950 E0.01189
G1 X20.050 Y-4.191 E0.01395
G1 X20.510 Y-4.341 E0.01395
G1 X20.923 Y-4.392 E0.01203 F2400.000
G1 X21.405 Y-4.358 E0.01395
G1 X21.870 Y-4.225 E0.01395
G1 X22.241 Y-4.035 E0.01203
G1 X22.622 Y-3.738 E0.01395
G1 X22.933 Y-3.368 E0.01395
G1 X23.132 Y-3.008 E0.01189
G1 X23.266 Y-2.618 E0.01189
G1 X23.333 Y-2.145 E0.01381
G1 X23.311 Y-1.728 E0.01203
G1 X23.196 Y-1.264 E0.01381
G1 X23.019 Y-0.887 E0.01203
G1 X22.735 Y-0.496 E0.01395
G1 X22.373 Y-0.169 E0.01409
G1 X21.950 Y0.075 E0.01409
G1 X21.490 Y0.224 E0.01395
G1 X21.077 Y0.275 E0.01203
G1 X20.594 Y0.242 E0.01395
G1 X20.125 Y0.107 E0.01409
G1 X19.699 Y-0.120 E0.01395
G1 X19.375 Y-0.382 E0.01203
G1 X19.067 Y-0.749 E0.01381
G1 X18.865 Y-1.113 E0.01203
G1 X18.717 Y-1.568 E0.01381
G1 X18.674 Y-1.922 E0.01030
G1 X19.028 Y-1.966 F15000.000
G1 X19.054 Y-2.401 E0.01260 F2400.000
G1 X19.168 Y-2.798 E0.01192
G1 X19.361 Y-3.162 E0.01187
G1 X19.579 Y-3.431 E0.00999
G1 X19.840 Y-3.658 E0.00999
G1 X20.196 Y-3.863 E0.01187
G1 X20.587 Y-3.991 E0.01187
G1 X20.933 Y-4.033 E0.01004 F2400.000
G1 X21.343 Y-4.004 E0.01187
G1 X21.739 Y-3.891 E0.01187
G1 X22.049 Y-3.733 E0.01004
G1 X22.373 Y-3.480 E0.01187
G1 X22.637 Y-3.165 E0.01187
G1 X22.805 Y-2.862 E0.00999
G1 X22.918 Y-2.534 E0.00999
G1 X22.975 Y-2.129 E0.01182
G1 X22.956 Y-1.781 E0.01004
G1 X22.857 Y-1.384 E0.01182
G1 X22.710 Y-1.069 E0.01004
G1 X22.469 Y-0.736 E0.01187
G1 X22.162 Y-0.459 E0.01192
G1 X21.804 Y-0.253 E0.01192
G1 X21.413 Y-0.126 E0.01187
G1 X21.067 Y-0.083 E0.01004
G1 X20.657 Y-0.112 E0.01187
G1 X20.260 Y-0.226 E0.01192
G1 X19.897 Y-0.419 E0.01187
G1 X19.626 Y-0.638 E0.01004
G1 X19.363 Y-0.952 E0.01182
G1 X19.194 Y-1.256 E0.01004
G1 X19.068 Y-1.646 E0.01182
G1 X19.036 Y-1.906 E0.00757
G1 X18.682 Y-2.165 F15000.000
G1 E-4.20000 F1500.00000
G1 Z1.500 F15000.000
G1 X-20.975 Y2.617 F15000.000
G1 Z0.500 F15000.000
G1 E4.20000 F1500.00000
G1 X-22.320 Y3.561 E0.04744 F2400.000
G1 X-23.146 Y4.188 E0.02992
G1 X-24.383 Y5.207 E0.04626
G1 X-24.393 Y-2.044 E0.20926
