; generated by Slic3r 1.2.9 on 2019-05-22 at 11:59:20

; external perimeters extrusion width = 0.40mm
; perimeters extrusion width = 0.40mm
; infill extrusion width = 0.40mm
; solid infill extrusion width = 0.40mm
; top infill extrusion width = 0.40mm

M107
M83
T0
M116
G21 ; set units to millimeters
G90 ; use absolute coordinates
M83 ; use relative distances for extrusion
G1 E-4.20000 F1500.00000
G1 Z1.000 F15000.000
G1 X-0.001 Y19.513 F15000.000
G1 Z0.300 F15000.000
G1 E4.20000 F1500.00000
G1 X-32.682 Y19.511 E2.51859 F960.000
G1 X-34.329 Y19.117 E0.13052
G1 X-35.395 Y18.296 E0.10371
G1 X-35.457 Y18.226 E0.00719
G1 X-36.259 Y16.734 E0.13052
G1 X-36.380 Y15.807 E0.07201
G1 X-36.382 Y8.023 E0.59991
G1 X-36.237 Y-4.200 E0.94206
G1 X-36.036 Y-15.934 E0.90440
G1 X-36.011 Y-16.449 E0.03972
G1 X-35.961 Y-16.890 E0.03422
G1 X-35.871 Y-17.398 E0.03978
G1 X-35.767 Y-17.830 E0.03421
G1 X-35.654 Y-18.200 E0.02985
G1 X-35.499 Y-18.616 E0.03421
G1 X-35.289 Y-19.088 E0.03978
G1 X-35.051 Y-19.535 E0.03909
G1 X-34.777 Y-19.973 E0.03978
G1 X-34.479 Y-20.384 E0.03909
G1 X-34.147 Y-20.779 E0.03978
G1 X-33.795 Y-21.144 E0.03909
G1 X-33.411 Y-21.489 E0.03978
G1 X-33.012 Y-21.802 E0.03909
G1 X-32.584 Y-22.090 E0.03978
G1 X-32.144 Y-22.344 E0.03909
G1 X-31.680 Y-22.570 E0.03978
G1 X-31.210 Y-22.760 E0.03909
G1 X-30.719 Y-22.920 E0.03978
G1 X-30.227 Y-23.042 E0.03909
G1 X-29.719 Y-23.132 E0.03978
G1 X-29.277 Y-23.182 E0.03422
G1 X-28.700 Y-23.207 E0.04454
G1 X13.377 Y-23.206 E3.24270
G1 X14.293 Y-23.134 E0.07082 F960.000
G1 X14.821 Y-23.043 E0.04130
G1 X15.322 Y-22.918 E0.03978
G1 X15.805 Y-22.762 E0.03909
G1 X16.628 Y-22.407 E0.06909
G1 X17.130 Y-22.125 E0.04434
G1 X17.454 Y-21.914 E0.02985
G1 X17.843 Y-21.623 E0.03740
G1 X18.293 Y-21.237 E0.04575
G1 X18.691 Y-20.837 E0.04345
G1 X19.059 Y-20.405 E0.04373
G1 X19.376 Y-19.973 E0.04130
G1 X19.649 Y-19.535 E0.03978
G1 X19.861 Y-19.145 E0.03421
G1 X20.025 Y-18.794 E0.02985
G1 X20.235 Y-18.259 E0.04434
G1 X20.430 Y-17.582 E0.05427
G1 X20.544 Y-17.018 E0.04434
G1 X20.590 Y-16.640 E0.02934
G1 X20.635 Y-15.871 E0.05935
G1 X20.635 Y-8.103 E0.59865
G1 X20.288 Y15.834 E1.84495
G1 X20.115 Y16.891 E0.08253
G1 X20.096 Y16.950 E0.00476
G1 X18.738 Y18.806 E0.17723
G1 X18.685 Y18.843 E0.00499
G1 X16.581 Y19.514 E0.17018
G1 X0.059 Y19.513 E1.27328
G1 E-4.20000 F1500.00000
G1 Z1.300 F15000.000
G1 X-27.049 Y-14.162 F15000.000
G1 Z0.300 F15000.000
G1 E4.20000 F1500.00000
G1 X-27.439 Y-13.858 E0.03806 F600.000
G1 X-27.812 Y-13.668 E0.03233
G1 X-28.260 Y-13.537 E0.03593
G1 X-28.704 Y-13.495 E0.03435
G1 X-29.250 Y-13.556 E0.04239
G1 X-29.598 Y-13.671 E0.02821
G1 X-30.029 Y-13.901 E0.03765
G1 X-30.390 Y-14.201 E0.03617
G1 X-30.672 Y-14.544 E0.03426
G1 X-30.903 Y-14.979 E0.03791
G1 X-31.026 Y-15.381 E0.03240
G1 X-31.078 Y-15.872 E0.03806
G1 X-31.026 Y-16.363 E0.03806
G1 X-30.903 Y-16.765 E0.03240
G1 X-30.673 Y-17.198 E0.03782
G1 X-30.408 Y-17.525 E0.03240
G1 X-30.032 Y-17.840 E0.03782
G1 X-29.664 Y-18.044 E0.03240
G1 X-29.196 Y-18.197 E0.03799
G1 X-28.729 Y-18.248 E0.03617 F600.000
G1 X-28.286 Y-18.212 E0.03426
G1 X-27.813 Y-18.077 E0.03791
G1 X-27.439 Y-17.886 E0.03240
G1 X-27.050 Y-17.582 E0.03799
G1 X-26.747 Y-17.224 E0.03617
G1 X-26.529 Y-16.837 E0.03426
G1 X-26.376 Y-16.366 E0.03815
G1 X-26.324 Y-15.872 E0.03829
G1 X-26.376 Y-15.379 E0.03823
G1 X-26.518 Y-14.931 E0.03617
G1 X-26.731 Y-14.541 E0.03426
G1 X-27.011 Y-14.208 E0.03352
G1 X-26.966 Y-13.771 F15000.000
G1 X-31.117 Y-10.273 F15000.000
G1 X-31.413 Y-10.048 E0.02865 F600.000
G1 X-31.414 Y-14.447 E0.33902
G1 X-30.843 Y-13.750 E0.06944
G1 X-30.385 Y-13.370 E0.04587 F600.000
G1 X-29.849 Y-13.085 E0.04678
G1 X-29.387 Y-12.932 E0.03749
G1 X-28.709 Y-12.856 E0.05260
G1 X-28.140 Y-12.910 E0.04406
G1 X-27.639 Y-13.056 E0.04025
G1 X-27.504 Y-12.749 E0.02586
G1 X-28.697 Y-12.001 E0.10852
G1 X-29.569 Y-11.412 E0.08107
G1 X-30.424 Y-10.799 E0.08107
G1 X-31.069 Y-10.309 E0.06241
G1 E-4.20000 F1500.00000
G1 Z1.300 F15000.000
G1 X-6.969 Y-18.585 F15000.000
G1 Z0.300 F15000.000
G1 E4.20000 F1500.00000
G1 X11.843 Y-18.585 E1.44980 F720.000
G1 X11.129 Y-17.964 E0.07297 F720.000
G1 X10.779 Y-17.526 E0.04316
G1 X10.502 Y-16.999 E0.04587
G1 X10.332 Y-16.404 E0.04773
G1 X10.285 Y-15.869 E0.04141
G1 X10.337 Y-15.311 E0.04316
G1 X10.504 Y-14.740 E0.04587
G1 X10.796 Y-14.190 E0.04798
G1 X11.157 Y-13.750 E0.04382
G1 X11.346 Y-13.593 E0.01896
G1 X11.149 Y-13.306 E0.02685
G1 X9.654 Y-14.114 E0.13097
G1 X8.585 Y-14.625 E0.09129
G1 X8.585 Y-16.157 E0.11810
G1 X-23.986 Y-16.157 E2.51012
G1 X-23.986 Y-14.625 E0.11809
G1 X-25.055 Y-14.114 E0.09130
G1 X-26.510 Y-13.329 E0.12740
G1 X-26.713 Y-13.574 E0.02452
G1 X-26.204 Y-14.181 E0.06107
G1 X-25.931 Y-14.680 E0.04382
G1 X-25.750 Y-15.247 E0.04587
G1 X-25.685 Y-15.872 E0.04840
G1 X-25.750 Y-16.499 E0.04859
G1 X-25.944 Y-17.093 E0.04817
G1 X-26.223 Y-17.589 E0.04382
G1 X-26.607 Y-18.043 E0.04587
G1 X-26.974 Y-18.329 E0.03580
G1 X-26.885 Y-18.586 E0.02096
G1 X-7.029 Y-18.585 E1.53018
G1 X10.959 Y-16.288 F15000.000
G1 X11.095 Y-16.761 E0.03799 F600.000
G1 X11.313 Y-17.177 E0.03617
G1 X11.589 Y-17.522 E0.03403
G1 X11.905 Y-17.796 E0.03225
G1 X12.333 Y-18.043 E0.03806
G1 X12.804 Y-18.197 E0.03823
G1 X13.271 Y-18.248 E0.03617 F600.000
G1 X13.700 Y-18.213 E0.03321
G1 X13.932 Y-18.166 E0.01819
G1 X14.199 Y-18.071 E0.02185
G1 X14.604 Y-17.858 E0.03531
G1 X14.952 Y-17.580 E0.03426
G1 X15.268 Y-17.203 E0.03791
G1 X15.472 Y-16.836 E0.03240
G1 X15.624 Y-16.366 E0.03806
G1 X15.676 Y-15.872 E0.03829
G1 X15.624 Y-15.378 E0.03830
G1 X15.471 Y-14.905 E0.03829
G1 X15.224 Y-14.477 E0.03806
G1 X14.948 Y-14.160 E0.03240
G1 X14.561 Y-13.858 E0.03782
G1 X14.188 Y-13.668 E0.03233
G1 X13.740 Y-13.537 E0.03593
G1 X13.307 Y-13.496 E0.03355
G1 X13.050 Y-13.509 E0.01983
G1 X12.737 Y-13.561 E0.02445
G1 X12.403 Y-13.671 E0.02707
G1 X11.971 Y-13.901 E0.03770
G1 X11.610 Y-14.201 E0.03617
G1 X11.328 Y-14.544 E0.03426
G1 X11.096 Y-14.981 E0.03808
G1 X10.964 Y-15.431 E0.03617
G1 X10.923 Y-15.871 E0.03403
G1 X10.954 Y-16.228 E0.02762
G1 X10.664 Y-16.557 F15000.000
G1 E-4.20000 F1500.00000
G1 Z1.300 F15000.000
G1 X13.444 Y-11.901 F15000.000
G1 Z0.300 F15000.000
G1 E4.20000 F1500.00000
G1 X12.121 Y-12.738 E0.12063 F600.000
G1 X12.263 Y-13.048 E0.02630
G1 X12.584 Y-12.942 E0.02608
G1 X12.981 Y-12.877 E0.03096
G1 X13.320 Y-12.859 E0.02616
G1 X13.860 Y-12.910 E0.04182
G1 X14.423 Y-13.074 E0.04520
G1 X14.905 Y-13.319 E0.04164
G1 X15.388 Y-13.697 E0.04725
G1 X16.014 Y-14.417 E0.07355
G1 X16.014 Y-10.046 E0.33685
G1 X15.023 Y-10.799 E0.09590 F600.000
G1 X14.168 Y-11.412 E0.08107
G1 X13.494 Y-11.867 E0.06270
G1 X13.138 Y-11.341 F15000.000
G1 X12.075 Y-12.025 E0.09742 F720.000
G1 X11.201 Y-12.547 E0.07844
G1 X10.285 Y-13.063 E0.08100
G1 X9.368 Y-13.545 E0.07987
G1 X7.949 Y-14.225 E0.12122
G1 X7.949 Y-15.522 E0.09997
G1 X-23.351 Y-15.522 E2.41215
G1 X-23.351 Y-14.225 E0.09996
G1 X-24.769 Y-13.545 E0.12122
G1 X-25.686 Y-13.063 E0.07986
G1 X-26.588 Y-12.556 E0.07972
G1 X-27.476 Y-12.025 E0.07972
G1 X-28.349 Y-11.469 E0.07972
G1 X-29.206 Y-10.890 E0.07972
G1 X-30.046 Y-10.287 E0.07972
G1 X-30.870 Y-9.662 E0.07972
G1 X-32.048 Y-8.699 E0.11723
G1 X-32.051 Y-15.862 E0.55207
G1 X-32.032 Y-16.219 E0.02752
G1 X-31.950 Y-16.685 E0.03648
G1 X-31.849 Y-17.014 E0.02655
G1 X-31.658 Y-17.444 E0.03624
G1 X-31.410 Y-17.840 E0.03601
G1 X-31.110 Y-18.198 E0.03601
G1 X-30.763 Y-18.511 E0.03601
G1 X-30.375 Y-18.772 E0.03601
G1 X-29.955 Y-18.977 E0.03601
G1 X-29.511 Y-19.121 E0.03601
G1 X-29.048 Y-19.203 E0.03624
G1 X-28.691 Y-19.222 E0.02752
G1 X13.360 Y-19.220 E3.24069
G1 X13.882 Y-19.170 E0.04044 F720.000
G1 X14.334 Y-19.057 E0.03590
G1 X14.773 Y-18.880 E0.03648
G1 X15.264 Y-18.584 E0.04414
G1 X15.676 Y-18.231 E0.04184
G1 X16.010 Y-17.839 E0.03964
G1 X16.258 Y-17.442 E0.03614
G1 X16.484 Y-16.910 E0.04453
G1 X16.616 Y-16.344 E0.04476
G1 X16.649 Y-15.859 E0.03746
G1 X16.649 Y-8.696 E0.55202
G1 X15.469 Y-9.662 E0.11751
G1 X14.645 Y-10.287 E0.07972
G1 X13.187 Y-11.307 E0.13711
G1 X13.162 Y-11.740 F15000.000
G1 X13.945 Y-12.146 F15000.000
G1 X13.601 Y-12.490 E0.05134 F960.000
G1 X15.628 Y-12.924 F15000.000
G1 X15.324 Y-13.227 E0.04533 F960.000
G1 X14.559 Y-12.763 E0.09446
G1 X15.628 Y-11.693 E0.15954
G1 X15.599 Y-14.453 F15000.000
G1 X15.815 Y-14.758 E0.02881 F960.000
G1 X16.136 Y-15.340 E0.05123
G1 X16.162 Y-15.889 E0.04236
G1 X16.102 Y-16.460 E0.04423
G1 X15.923 Y-17.014 E0.04490
G1 X15.658 Y-17.490 E0.04199
G1 X15.302 Y-17.915 E0.04270
G1 X14.883 Y-18.255 E0.04156
G1 X14.382 Y-18.518 E0.04360
G1 X14.072 Y-18.627 E0.02531
G1 X13.800 Y-18.689 E0.02155
G1 X13.336 Y-18.732 E0.03584
G1 X12.766 Y-18.708 E0.04400
G1 X12.185 Y-18.388 E0.05108
G1 X11.881 Y-18.171 E0.02881
G1 X10.651 Y-17.896 F15000.000
G1 X10.347 Y-18.200 E0.03378 F960.000
G1 X10.296 Y-17.334 E0.06817
G1 X9.430 Y-18.200 E0.09624
G1 X8.513 Y-18.200 E0.07206
G1 X10.041 Y-16.672 E0.16978
G1 X9.911 Y-15.886 E0.06267
G1 X7.597 Y-18.200 E0.25722
G1 X6.680 Y-18.200 E0.07206
G1 X8.336 Y-16.543 E0.18416
G1 X8.970 Y-15.909 F15000.000
G1 X10.024 Y-14.856 E0.11707 F960.000
G1 X7.420 Y-16.543 F15000.000
G1 X5.763 Y-18.200 E0.18416 F960.000
G1 X4.846 Y-18.200 E0.07206
G1 X6.503 Y-16.543 E0.18416
G1 X5.586 Y-16.543 E0.07206
G1 X3.929 Y-18.200 E0.18417
G1 X3.013 Y-18.200 E0.07206
G1 X4.669 Y-16.543 E0.18417
G1 X3.753 Y-16.543 E0.07206
G1 X2.096 Y-18.200 E0.18417
G1 X1.179 Y-18.200 E0.07206
G1 X2.836 Y-16.543 E0.18418
G1 X1.919 Y-16.543 E0.07206
G1 X0.262 Y-18.200 E0.18418
G1 X-0.655 Y-18.200 E0.07206
G1 X1.002 Y-16.543 E0.18418
G1 X0.086 Y-16.543 E0.07206
G1 X-1.571 Y-18.200 E0.18419
G1 X-2.488 Y-18.200 E0.07206
G1 X-0.831 Y-16.543 E0.18419
G1 X-1.748 Y-16.543 E0.07206
G1 X-3.405 Y-18.200 E0.18419
G1 X-4.322 Y-18.200 E0.07206
G1 X-2.665 Y-16.543 E0.18420
G1 X-3.581 Y-16.543 E0.07206
G1 X-5.239 Y-18.200 E0.18420
G1 X-6.155 Y-18.200 E0.07206
G1 X-4.498 Y-16.543 E0.18420
G1 X-5.415 Y-16.543 E0.07206
G1 X-7.072 Y-18.200 E0.18421
G1 X-7.989 Y-18.200 E0.07206
G1 X-6.332 Y-16.543 E0.18421
G1 X-7.249 Y-16.543 E0.07206
G1 X-8.906 Y-18.200 E0.18421
G1 X-9.823 Y-18.200 E0.07206
G1 X-8.165 Y-16.543 E0.18422
G1 X-9.082 Y-16.543 E0.07206
G1 X-10.739 Y-18.200 E0.18422
G1 X-11.656 Y-18.200 E0.07206
G1 X-9.999 Y-16.543 E0.18422
G1 X-10.916 Y-16.543 E0.07206
G1 X-12.573 Y-18.200 E0.18423
G1 X-13.490 Y-18.200 E0.07206
G1 X-11.832 Y-16.543 E0.18423
G1 X-12.749 Y-16.543 E0.07206
G1 X-14.407 Y-18.200 E0.18423
G1 X-15.323 Y-18.200 E0.07206
G1 X-13.666 Y-16.543 E0.18424
G1 X-14.583 Y-16.543 E0.07206
G1 X-16.240 Y-18.200 E0.18424
G1 X-17.157 Y-18.200 E0.07206
G1 X-15.499 Y-16.543 E0.18424
G1 X-16.416 Y-16.543 E0.07206
G1 X-18.074 Y-18.200 E0.18424
G1 X-18.991 Y-18.200 E0.07206
G1 X-17.333 Y-16.543 E0.18425
G1 X-18.250 Y-16.543 E0.07206
G1 X-19.907 Y-18.200 E0.18425
G1 X-20.824 Y-18.201 E0.07206
G1 X-19.167 Y-16.543 E0.18425
G1 X-20.083 Y-16.543 E0.07206
G1 X-21.741 Y-18.201 E0.18426
G1 X-22.658 Y-18.201 E0.07206
G1 X-21.000 Y-16.543 E0.18426
G1 X-21.917 Y-16.543 E0.07206
G1 X-23.575 Y-18.201 E0.18426
G1 X-24.491 Y-18.201 E0.07206
G1 X-22.834 Y-16.543 E0.18427
G1 X-23.750 Y-16.543 E0.07206
G1 X-25.408 Y-18.201 E0.18427
G1 X-25.647 Y-17.523 E0.05647
G1 X-24.372 Y-16.247 E0.14181
G1 X-24.372 Y-15.331 E0.07206
G1 X-25.325 Y-16.284 E0.10602
G1 X-25.360 Y-15.402 E0.06941
G1 X-24.645 Y-14.687 E0.07946
G1 X-25.261 Y-14.386 E0.05387
G1 X-25.561 Y-14.686 E0.03338
G1 X-27.236 Y-18.544 F15000.000
G1 X-27.622 Y-18.634 E0.03053 F960.000
G1 X-28.214 Y-18.715 E0.04605
G1 X-28.752 Y-18.733 E0.04153
G1 X-29.281 Y-18.672 E0.04102
G1 X-29.772 Y-18.523 E0.03954
G1 X-30.130 Y-18.347 E0.03073
G1 X-30.459 Y-18.123 E0.03072
G1 X-30.760 Y-17.861 E0.03075
G1 X-31.067 Y-17.478 E0.03779
G1 X-31.343 Y-16.964 E0.04496
G1 X-31.474 Y-16.571 E0.03195
G1 X-31.542 Y-16.163 E0.03186
G1 X-31.564 Y-15.854 E0.02386
G1 X-31.541 Y-15.404 E0.03472
G1 X-31.252 Y-14.840 E0.04885
G1 X-31.044 Y-14.526 E0.02903
G1 X-28.996 Y-12.225 F15000.000
G1 X-29.289 Y-12.517 E0.03503 F960.000
G1 X-29.572 Y-11.812 E0.06440
G1 X-30.928 Y-13.167 E0.16249
G1 X-31.028 Y-12.280 E0.07571
G1 X-30.151 Y-11.403 E0.10509
G1 X-30.724 Y-10.987 E0.05996
G1 X-31.028 Y-11.291 E0.03642
G1 E-4.20000 F1500.00000
G1 Z1.300 F15000.000
G1 X-29.459 Y-6.462 F15000.000
G1 Z0.300 F15000.000
G1 E4.20000 F1500.00000
G1 X-29.397 Y-6.482 E0.00501 F600.000
G1 X-28.931 Y-6.534 E0.03617 F600.000
G1 X-28.487 Y-6.498 E0.03426
G1 X-28.015 Y-6.362 E0.03791
G1 X-27.640 Y-6.171 E0.03240
G1 X-27.252 Y-5.868 E0.03799
G1 X-26.948 Y-5.510 E0.03617
G1 X-26.730 Y-5.122 E0.03426
G1 X-26.577 Y-4.652 E0.03815
G1 X-26.525 Y-4.157 E0.03829
G1 X-26.577 Y-3.664 E0.03823
G1 X-26.720 Y-3.217 E0.03617
G1 X-26.933 Y-2.827 E0.03426
G1 X-27.251 Y-2.448 E0.03815
G1 X-27.640 Y-2.144 E0.03806
G1 X-28.014 Y-1.953 E0.03233
G1 X-28.461 Y-1.822 E0.03593
G1 X-28.905 Y-1.781 E0.03435
G1 X-29.452 Y-1.842 E0.04239
G1 X-29.799 Y-1.957 E0.02821
G1 X-30.230 Y-2.186 E0.03765
G1 X-30.591 Y-2.486 E0.03617
G1 X-30.873 Y-2.830 E0.03426
G1 X-31.104 Y-3.264 E0.03791
G1 X-31.227 Y-3.666 E0.03240
G1 X-31.279 Y-4.157 E0.03806
G1 X-31.227 Y-4.649 E0.03806
G1 X-31.104 Y-5.051 E0.03240
G1 X-30.874 Y-5.484 E0.03782
G1 X-30.609 Y-5.811 E0.03240
G1 X-30.234 Y-6.126 E0.03782
G1 X-29.866 Y-6.330 E0.03240
G1 X-29.516 Y-6.444 E0.02836
G1 X-29.445 Y-6.526 F15000.000
G1 E-4.20000 F1500.00000
G1 Z1.300 F15000.000
G1 X-31.615 Y-1.065 F15000.000
G1 Z0.300 F15000.000
G1 E4.20000 F1500.00000
G1 X-31.616 Y-2.733 E0.12850 F600.000
G1 X-31.044 Y-2.036 E0.06944
G1 X-30.586 Y-1.656 E0.04587 F600.000
G1 X-30.050 Y-1.371 E0.04678
G1 X-29.589 Y-1.217 E0.03749
G1 X-28.910 Y-1.142 E0.05260
G1 X-28.341 Y-1.195 E0.04406
G1 X-27.840 Y-1.342 E0.04025
G1 X-27.706 Y-1.034 E0.02586
G1 X-28.899 Y-0.286 E0.10852
G1 X-29.770 Y0.303 E0.08107
G1 X-30.625 Y0.916 E0.08107
G1 X-31.614 Y1.666 E0.09569
G1 X-31.615 Y-1.005 E0.20590
G1 X-24.782 Y-2.626 F15000.000
G1 X-25.256 Y-2.399 E0.04054 F720.000
G1 X-26.711 Y-1.615 E0.12740
G1 X-26.914 Y-1.860 E0.02452
G1 X-26.405 Y-2.467 E0.06107
G1 X-26.133 Y-2.966 E0.04382
G1 X-25.952 Y-3.533 E0.04587
G1 X-25.886 Y-4.157 E0.04840
G1 X-25.952 Y-4.785 E0.04859
G1 X-26.145 Y-5.379 E0.04817
G1 X-26.424 Y-5.875 E0.04382
G1 X-26.809 Y-6.329 E0.04587
G1 X-27.175 Y-6.615 E0.03580
G1 X-27.086 Y-6.872 E0.02096
G1 X11.642 Y-6.871 E2.98460
G1 X10.927 Y-6.249 E0.07297 F720.000
G1 X10.578 Y-5.812 E0.04316
G1 X10.301 Y-5.285 E0.04587
G1 X10.130 Y-4.690 E0.04773
G1 X10.083 Y-4.154 E0.04141
G1 X10.136 Y-3.597 E0.04316
G1 X10.303 Y-3.025 E0.04587
G1 X10.595 Y-2.476 E0.04798
G1 X10.956 Y-2.036 E0.04382
G1 X11.145 Y-1.879 E0.01896
G1 X10.948 Y-1.592 E0.02685
G1 X9.452 Y-2.399 E0.13097
G1 X8.384 Y-2.911 E0.09129
G1 X8.384 Y-4.443 E0.11810
G1 X-24.188 Y-4.443 E2.51012
G1 X-24.188 Y-2.911 E0.11809
G1 X-24.727 Y-2.652 E0.04613
G1 E-4.20000 F1500.00000
G1 Z1.300 F15000.000
G1 X10.722 Y-4.156 F15000.000
G1 Z0.300 F15000.000
G1 E4.20000 F1500.00000
G1 X10.758 Y-4.573 E0.03225 F600.000
G1 X10.894 Y-5.047 E0.03799
G1 X11.112 Y-5.463 E0.03617
G1 X11.388 Y-5.807 E0.03403
G1 X11.704 Y-6.082 E0.03225
G1 X12.131 Y-6.329 E0.03806
G1 X12.603 Y-6.482 E0.03823
G1 X13.069 Y-6.534 E0.03617 F600.000
G1 X13.499 Y-6.499 E0.03321
G1 X13.730 Y-6.452 E0.01819
G1 X13.997 Y-6.356 E0.02185
G1 X14.403 Y-6.143 E0.03531
G1 X14.750 Y-5.866 E0.03426
G1 X15.067 Y-5.489 E0.03791
G1 X15.270 Y-5.121 E0.03240
G1 X15.423 Y-4.652 E0.03806
G1 X15.475 Y-4.157 E0.03829
G1 X15.423 Y-3.663 E0.03830
G1 X15.269 Y-3.191 E0.03829
G1 X15.023 Y-2.763 E0.03806
G1 X14.747 Y-2.446 E0.03240
G1 X14.360 Y-2.144 E0.03782
G1 X13.986 Y-1.953 E0.03233
G1 X13.539 Y-1.822 E0.03593
G1 X13.105 Y-1.782 E0.03355
G1 X12.848 Y-1.795 E0.01983
G1 X12.535 Y-1.847 E0.02445
G1 X12.202 Y-1.957 E0.02707
G1 X11.770 Y-2.186 E0.03770
G1 X11.409 Y-2.486 E0.03617
G1 X11.127 Y-2.830 E0.03426
G1 X10.895 Y-3.266 E0.03808
G1 X10.763 Y-3.717 E0.03617
G1 X10.727 Y-4.097 E0.02940
G1 X10.381 Y-4.366 F15000.000
G1 E-4.20000 F1500.00000
G1 Z1.300 F15000.000
G1 X15.812 Y-0.679 F15000.000
G1 Z0.300 F15000.000
G1 E4.20000 F1500.00000
G1 X15.812 Y1.668 E0.18087 F600.000
G1 X14.821 Y0.916 E0.09590 F600.000
