; generated by Slic3r 1.2.9 on 2019-05-23 at 11:14:08

; external perimeters extrusion width = 0.40mm
; perimeters extrusion width = 0.40mm
; infill extrusion width = 0.40mm
; solid infill extrusion width = 0.40mm
; top infill extrusion width = 0.40mm

M107
M83
T0
M116
G21 ; set units to millimeters
G90 ; use absolute coordinates
M83 ; use relative distances for extrusion
G1 E-4.20000 F1500.00000
G1 Z1.000 F15000.000
G1 X5.857 Y5.857 F15000.000
G1 Z0.300 F15000.000
G1 E4.20000 F1500.00000
G1 X-9.019 Y20.733 E1.62128 F960.000
G1 X-9.874 Y21.516 E0.08937
G1 X-10.731 Y22.190 E0.08403
G1 X-11.034 Y22.404 E0.02855
G1 X-11.955 Y22.988 E0.08403
G1 X-12.278 Y23.170 E0.02855
G1 X-13.253 Y23.656 E0.08403
G1 X-14.211 Y24.050 E0.07981
G1 X-15.547 Y24.466 E0.10781
G1 X-15.906 Y24.555 E0.02855
G1 X-16.977 Y24.762 E0.08403
G1 X-18.272 Y24.902 E0.10036
G1 X-19.385 Y24.926 E0.08580
G1 X-20.387 Y24.876 E0.07735
G1 X-21.405 Y24.753 E0.07899
G1 X-22.362 Y24.566 E0.07519
G1 X-23.167 Y24.301 E0.06531
G1 X-39.013 Y16.933 E1.34669
G1 X-39.668 Y16.540 E0.05887
G1 X-39.824 Y16.423 E0.01502
G1 X-40.499 Y15.763 E0.07278
G1 X-40.965 Y15.060 E0.06496
G1 X-41.253 Y14.388 E0.05634
G1 X-41.437 Y13.584 E0.06358
G1 X-41.459 Y12.661 E0.07115
G1 X-41.306 Y11.832 E0.06494
G1 X-40.987 Y11.028 E0.06666
G1 X-40.539 Y10.336 E0.06357
G1 X-18.165 Y-16.258 E2.67830
G1 X-17.183 Y-17.304 E0.11056
G1 X-16.312 Y-18.112 E0.09155
G1 X10.231 Y-40.445 E2.67330
G1 X10.934 Y-40.911 E0.06502
G1 X11.634 Y-41.208 E0.05857
G1 X11.774 Y-41.251 E0.01128
G1 X12.625 Y-41.406 E0.06666
G1 X13.569 Y-41.373 E0.07279
G1 X13.796 Y-41.335 E0.01781 F960.000
G1 X14.905 Y-40.959 E0.09021
G1 X15.098 Y-40.856 E0.01688
G1 X16.007 Y-40.171 E0.08765
G1 X16.159 Y-40.014 E0.01688
G1 X16.811 Y-39.082 E0.08766
G1 X24.246 Y-23.114 E1.35742
G1 X24.497 Y-22.377 E0.06004
G1 X24.576 Y-22.026 E0.02773
G1 X24.734 Y-21.113 E0.07135
G1 X24.838 Y-20.145 E0.07507
G1 X24.876 Y-19.172 E0.07506
G1 X24.866 Y-18.546 E0.04821
G1 X24.808 Y-17.707 E0.06483
G1 X24.681 Y-16.747 E0.07464
G1 X24.489 Y-15.792 E0.07507
G1 X24.232 Y-14.852 E0.07506
G1 X23.911 Y-13.933 E0.07507
G1 X23.529 Y-13.037 E0.07506
G1 X23.394 Y-12.759 E0.02380
G1 X22.716 Y-11.535 E0.10781
G1 X22.174 Y-10.726 E0.07507
G1 X21.537 Y-9.909 E0.07982
G1 X20.679 Y-8.965 E0.09834
G1 X5.899 Y5.814 E1.61078
G1 E-4.20000 F1500.00000
G1 Z1.300 F15000.000
G1 X-9.932 Y12.480 F15000.000
G1 Z0.300 F15000.000
G1 E4.20000 F1500.00000
G1 X-9.793 Y12.897 E0.03390 F600.000
G1 X-9.734 Y13.380 E0.03751
G1 X-9.763 Y13.792 E0.03177
G1 X-9.870 Y14.231 E0.03486
G1 X-10.113 Y14.706 E0.04107
G1 X-10.422 Y15.088 E0.03788
G1 X-10.802 Y15.395 E0.03765
G1 X-11.167 Y15.589 E0.03182
G1 X-11.559 Y15.717 E0.03182
G1 X-12.041 Y15.776 E0.03742
G1 X-12.456 Y15.747 E0.03206
G1 X-12.927 Y15.621 E0.03758
G1 X-13.342 Y15.412 E0.03579
G1 X-13.691 Y15.143 E0.03390
G1 X-14.011 Y14.774 E0.03767
G1 X-14.238 Y14.369 E0.03579
G1 X-14.377 Y13.952 E0.03390
G1 X-14.436 Y13.470 E0.03737
G1 X-14.412 Y13.066 E0.03120
G1 X-14.334 Y12.739 E0.02595
G1 X-14.247 Y12.500 E0.01956
G1 X-14.056 Y12.141 E0.03135
G1 X-13.750 Y11.764 E0.03742
G1 X-13.432 Y11.496 E0.03206
G1 X-13.007 Y11.261 E0.03742
G1 X-12.611 Y11.133 E0.03206
G1 X-12.127 Y11.073 E0.03758 F600.000
G1 X-11.664 Y11.111 E0.03579
G1 X-11.242 Y11.229 E0.03383
G1 X-10.828 Y11.437 E0.03564
G1 X-10.480 Y11.706 E0.03390
G1 X-10.159 Y12.075 E0.03767
G1 X-9.961 Y12.428 E0.03117
G1 X-9.536 Y12.535 F15000.000
G1 E-4.20000 F1500.00000
G1 Z1.300 F15000.000
G1 X-14.465 Y11.602 F15000.000
G1 Z0.300 F15000.000
G1 E4.20000 F1500.00000
G1 X-14.613 Y12.146 E0.04349 F720.000
G1 X-14.799 Y12.611 E0.03858
G1 X-14.981 Y12.964 E0.03059
G1 X-15.216 Y13.337 E0.03399
G1 X-15.455 Y13.652 E0.03052
G1 X-15.751 Y13.980 E0.03399
G1 X-16.042 Y14.248 E0.03052
G1 X-16.392 Y14.521 E0.03418
G1 X-16.817 Y14.788 E0.03865
G1 X-17.266 Y15.009 E0.03858
G1 X-17.636 Y15.149 E0.03051
G1 X-18.064 Y15.271 E0.03430
G1 X-18.615 Y15.366 E0.04310
G1 X-19.223 Y15.396 E0.04688
G1 X-19.726 Y15.363 E0.03888
G1 X-20.219 Y15.277 E0.03849
G1 X-20.613 Y15.173 E0.03143
G1 X-20.866 Y15.082 E0.02071
G1 X-21.323 Y14.880 E0.03854
G1 X-21.806 Y14.598 E0.04311
G1 X-22.292 Y14.231 E0.04694
G1 X-22.657 Y13.881 E0.03898
G1 X-23.015 Y13.451 E0.04309
G1 X-23.346 Y12.940 E0.04697
G1 X-23.570 Y12.484 E0.03911
G1 X-23.787 Y11.861 E0.05085
G1 X-23.895 Y11.364 E0.03922
G1 X-23.950 Y10.863 E0.03884
G1 X-23.948 Y10.606 E0.01975
G1 X-29.289 Y9.175 E0.42609
G1 X-29.489 Y9.085 E0.01694
G1 X-29.691 Y8.922 E0.01997
G1 X-29.831 Y8.730 E0.01837
G1 X-29.925 Y8.485 E0.02021
G1 X-29.948 Y8.220 E0.02045
G1 X-29.898 Y7.960 E0.02045
G1 X-29.780 Y7.730 E0.01989
G1 X-29.582 Y7.498 E0.02352
G1 X-29.237 Y7.346 E0.02905
G1 X-28.889 Y7.321 E0.02687
G1 X-23.571 Y8.741 E0.42417
G1 X-23.438 Y8.425 E0.02643
G1 X-23.189 Y7.992 E0.03843
G1 X-22.996 Y7.715 E0.02605
G1 X-22.781 Y7.449 E0.02632
G1 X-22.435 Y7.090 E0.03844
G1 X-21.918 Y6.669 E0.05136
G1 X-21.348 Y6.325 E0.05137
G1 X-20.889 Y6.119 E0.03871
G1 X-20.564 Y6.007 E0.02652
G1 X-19.924 Y5.857 E0.05066
G1 X-19.583 Y5.815 E0.02646
G1 X-19.142 Y5.796 E0.03402 F720.000
G1 X-18.747 Y5.813 E0.03046
G1 X-18.252 Y5.882 E0.03852
G1 X-17.820 Y5.986 E0.03424
G1 X-17.448 Y6.110 E0.03025
G1 X-17.135 Y6.242 E0.02615
G1 X-16.695 Y6.475 E0.03841
G1 X-16.325 Y6.721 E0.03421
G1 X-16.015 Y6.967 E0.03051
G1 X-15.656 Y7.311 E0.03835
G1 X-15.431 Y7.568 E0.02629
G1 X-15.137 Y7.971 E0.03842
G1 X-14.913 Y8.353 E0.03418
G1 X-14.741 Y8.711 E0.03059
G1 X-14.569 Y9.180 E0.03851
G1 X-14.459 Y9.609 E0.03412
G1 X-14.394 Y9.997 E0.03033
G1 X-14.363 Y10.335 E0.02616
G1 X-14.362 Y10.834 E0.03841
G1 X-14.405 Y11.274 E0.03412
G1 X-14.454 Y11.543 E0.02103
G1 X-14.175 Y11.878 F15000.000
G1 E-4.20000 F1500.00000
G1 Z1.300 F15000.000
G1 X-19.054 Y-4.986 F15000.000
G1 Z0.300 F15000.000
G1 E4.20000 F1500.00000
G1 X-18.595 Y-5.707 E0.06589 F720.000
G1 X-18.239 Y-6.343 E0.05610
G1 X-18.031 Y-6.760 E0.03595
G1 X-17.672 Y-7.583 E0.06919
G1 X-17.225 Y-8.859 E0.10422
G1 X-16.875 Y-9.740 E0.07304
G1 X-16.553 Y-10.423 E0.05817
G1 X-16.254 Y-10.986 E0.04914
G1 X-15.667 Y-11.950 E0.08696
G1 X-15.530 Y-11.536 E0.03360
G1 X-15.241 Y-11.021 E0.04549 F720.000
G1 X-14.832 Y-10.551 E0.04799
G1 X-14.340 Y-10.180 E0.04752
G1 X-13.856 Y-9.944 E0.04149
G1 X-13.309 Y-9.797 E0.04363
G1 X-18.876 Y-4.230 E0.60677
G1 X-13.316 Y1.331 E0.60603
G1 X-13.944 Y1.526 E0.05068
G1 X-14.475 Y1.820 E0.04677
G1 X-14.897 Y2.180 E0.04274
G1 X-15.260 Y2.633 E0.04474
G1 X-15.538 Y3.178 E0.04719
G1 X-15.695 Y3.764 E0.04671
G1 X-15.732 Y4.287 E0.04040
G1 X-15.671 Y4.829 E0.04207
G1 X-15.498 Y5.384 E0.04474
G1 X-15.204 Y5.914 E0.04677
G1 X-14.845 Y6.337 E0.04274
G1 X-14.392 Y6.700 E0.04474
G1 X-13.846 Y6.978 E0.04719
G1 X-13.261 Y7.135 E0.04671
G1 X-12.732 Y7.172 E0.04082
G1 X-12.136 Y7.099 E0.04629
G1 X-11.610 Y6.924 E0.04274
G1 X-11.104 Y6.640 E0.04474
G1 X-10.646 Y6.242 E0.04677
G1 X-10.307 Y5.802 E0.04274
G1 X-10.050 Y5.291 E0.04407
G1 X-9.895 Y4.751 E0.04329
G1 X-4.734 Y9.912 E0.56246
G1 X-9.164 Y14.342 E0.48280
G1 X-9.096 Y13.364 E0.07559
G1 X-9.170 Y12.757 E0.04710
G1 X-9.348 Y12.222 E0.04346
G1 X-9.637 Y11.707 E0.04550
G1 X-10.042 Y11.241 E0.04757
G1 X-10.488 Y10.897 E0.04346
G1 X-11.011 Y10.634 E0.04507
G1 X-11.552 Y10.483 E0.04327
G1 X-12.140 Y10.434 E0.04550
G1 X-12.749 Y10.509 E0.04732
G1 X-13.262 Y10.675 E0.04150
G1 X-13.726 Y10.933 E0.04091
G1 X-13.728 Y10.306 E0.04833
G1 X-13.763 Y9.915 E0.03020
G1 X-13.837 Y9.477 E0.03429
G1 X-13.962 Y8.991 E0.03862
G1 X-14.155 Y8.464 E0.04329
G1 X-14.351 Y8.055 E0.03498
G1 X-14.605 Y7.622 E0.03869
G1 X-14.934 Y7.171 E0.04301
G1 X-15.195 Y6.872 E0.03056
G1 X-15.596 Y6.487 E0.04281
G1 X-15.951 Y6.206 E0.03490
G1 X-16.369 Y5.928 E0.03872
G1 X-16.863 Y5.667 E0.04301
G1 X-17.224 Y5.515 E0.03019
G1 X-17.645 Y5.375 E0.03421
G1 X-18.134 Y5.256 E0.03875
G1 X-18.690 Y5.179 E0.04330
G1 X-19.142 Y5.160 E0.03484
G1 X-19.636 Y5.181 E0.03811
G1 X-20.036 Y5.231 E0.03105
G1 X-20.741 Y5.395 E0.05579
G1 X-21.124 Y5.528 E0.03123
G1 X-21.643 Y5.761 E0.04385
G1 X-22.285 Y6.148 E0.05779
G1 X-22.867 Y6.621 E0.05778
G1 X-23.258 Y7.029 E0.04356
G1 X-23.504 Y7.333 E0.03017
G1 X-23.726 Y7.651 E0.02991
G1 X-23.921 Y7.989 E0.03005
G1 X-28.828 Y6.680 E0.39139
G1 X-29.392 Y6.719 E0.04362
G1 X-29.970 Y6.975 E0.04872
G1 X-30.312 Y7.374 E0.04046
G1 X-30.504 Y7.751 E0.03263
G1 X-30.589 Y8.187 E0.03422
G1 X-30.550 Y8.629 E0.03422
G1 X-30.394 Y9.035 E0.03355
G1 X-30.156 Y9.364 E0.03127
G1 X-29.824 Y9.632 E0.03287
G1 X-29.501 Y9.776 E0.02725
G1 X-24.563 Y11.099 E0.39401
G1 X-24.523 Y11.465 E0.02837
G1 X-24.400 Y12.034 E0.04479
G1 X-24.158 Y12.730 E0.05683
G1 X-23.900 Y13.254 E0.04498
G1 X-23.528 Y13.829 E0.05278
G1 X-23.123 Y14.315 E0.04877
G1 X-22.705 Y14.715 E0.04459
G1 X-22.159 Y15.128 E0.05275
G1 X-21.612 Y15.447 E0.04881
G1 X-21.102 Y15.672 E0.04299
G1 X-20.802 Y15.780 E0.02452
G1 X-20.355 Y15.899 E0.03570
G1 X-19.802 Y15.995 E0.04322
G1 X-19.228 Y16.033 E0.04432
G1 X-18.545 Y15.998 E0.05270
G1 X-17.923 Y15.891 E0.04867
G1 X-17.436 Y15.753 E0.03899
G1 X-17.013 Y15.592 E0.03490
G1 X-16.506 Y15.344 E0.04347
G1 X-16.027 Y15.042 E0.04367
G1 X-15.631 Y14.733 E0.03870
G1 X-15.299 Y14.427 E0.03480
G1 X-14.999 Y14.095 E0.03444
G1 X-14.823 Y14.627 E0.04318
G1 X-14.534 Y15.142 E0.04549
G1 X-14.129 Y15.608 E0.04757
G1 X-13.682 Y15.952 E0.04346
G1 X-13.155 Y16.218 E0.04550
G1 X-12.562 Y16.377 E0.04732
G1 X-12.024 Y16.414 E0.04149
G1 X-11.540 Y16.355 E0.03758
G1 X-11.421 Y16.599 E0.02096
G1 X-12.275 Y17.453 E0.09307
G1 X-12.764 Y17.910 E0.05155
G1 X-13.548 Y18.527 E0.07693
G1 X-14.385 Y19.056 E0.07628
G1 X-15.278 Y19.502 E0.07693
G1 X-15.876 Y19.739 E0.04958
G1 X-16.832 Y20.027 E0.07693
G1 X-17.812 Y20.216 E0.07693
G1 X-18.457 Y20.285 E0.05002
G1 X-19.194 Y20.308 E0.05679
G1 X-20.115 Y20.262 E0.07110
G1 X-20.405 Y20.224 E0.02253
G1 X-19.652 Y17.414 E0.22413
G1 X-36.588 Y12.876 E1.35123
G1 X-20.618 Y-3.095 E1.74065
G1 X-20.019 Y-3.736 E0.06762
G1 X-19.717 Y-4.094 E0.03609
G1 X-19.088 Y-4.936 E0.08099
G1 E-4.20000 F1500.00000
G1 Z1.300 F15000.000
G1 X11.063 Y-11.580 F15000.000
G1 Z0.300 F15000.000
G1 E4.20000 F1500.00000
G1 X11.019 Y-11.992 E0.03199 F600.000
G1 X11.057 Y-12.452 E0.03555
G1 X11.176 Y-12.876 E0.03390
G1 X11.398 Y-13.311 E0.03767
G1 X11.688 Y-13.674 E0.03579
G1 X12.023 Y-13.959 E0.03390
G1 X12.452 Y-14.196 E0.03774
G1 X12.919 Y-14.339 E0.03765
G1 X13.332 Y-14.382 E0.03199 F600.000
G1 X13.791 Y-14.345 E0.03555
G1 X14.215 Y-14.226 E0.03390
G1 X14.649 Y-14.005 E0.03751
G1 X14.974 Y-13.751 E0.03182
G1 X15.251 Y-13.444 E0.03182
G1 X15.502 Y-13.025 E0.03765
G1 X15.662 Y-12.560 E0.03789
G1 X15.722 Y-12.072 E0.03789
G1 X15.679 Y-11.583 E0.03789
G1 X15.536 Y-11.113 E0.03782
G1 X15.313 Y-10.706 E0.03579
G1 X15.033 Y-10.368 E0.03383
G1 X14.675 Y-10.075 E0.03564
G1 X14.288 Y-9.866 E0.03383
G1 X13.847 Y-9.729 E0.03564
G1 X13.411 Y-9.680 E0.03383
G1 X12.950 Y-9.718 E0.03564
G1 X12.526 Y-9.836 E0.03390
G1 X12.092 Y-10.057 E0.03751
G1 X11.765 Y-10.314 E0.03206
G1 X11.444 Y-10.682 E0.03765
G1 X11.206 Y-11.112 E0.03789
G1 X11.080 Y-11.522 E0.03303
G1 X10.688 Y-11.719 F15000.000
G1 E-4.20000 F1500.00000
G1 Z1.300 F15000.000
G1 X20.174 Y-20.352 F15000.000
G1 Z0.300 F15000.000
G1 E4.20000 F1500.00000
G1 X20.236 Y-19.725 E0.04855 F720.000
G1 X20.256 Y-19.060 E0.05133
G1 X20.202 Y-18.078 E0.07577
G1 X20.110 Y-17.424 E0.05093
G1 X19.974 Y-16.778 E0.05087
G1 X19.794 Y-16.142 E0.05087
G1 X19.572 Y-15.521 E0.05087
G1 X19.311 Y-14.924 E0.05022
G1 X18.831 Y-14.039 E0.07757
G1 X18.473 Y-13.494 E0.05022
G1 X18.079 Y-12.975 E0.05022
G1 X17.393 Y-12.215 E0.07890
G1 X16.275 Y-11.097 E0.12188
G1 X16.361 Y-12.083 E0.07633
G1 X16.285 Y-12.704 E0.04819
G1 X16.081 Y-13.295 E0.04819
G1 X15.764 Y-13.824 E0.04752
G1 X15.409 Y-14.218 E0.04083
G1 X14.992 Y-14.544 E0.04083
G1 X14.447 Y-14.821 E0.04710
G1 X14.041 Y-14.935 E0.03251
G1 X14.508 Y-15.383 E0.04985
G1 X14.872 Y-15.814 E0.04348
G1 X15.130 Y-16.187 E0.03499
G1 X15.380 Y-16.622 E0.03863
G1 X15.612 Y-17.139 E0.04367
G1 X15.790 Y-17.679 E0.04385
G1 X15.909 Y-18.231 E0.04347
G1 X15.962 Y-18.680 E0.03488
G1 X15.978 Y-19.183 E0.03874
G1 X15.941 Y-19.748 E0.04367
G1 X15.844 Y-20.304 E0.04347
G1 X15.725 Y-20.740 E0.03486
G1 X15.554 Y-21.208 E0.03840
G1 X15.362 Y-21.615 E0.03467
G1 X15.115 Y-22.043 E0.03812
G1 X14.889 Y-22.367 E0.03039
G1 X14.536 Y-22.791 E0.04252
G1 X14.257 Y-23.072 E0.03056
G1 X13.829 Y-23.434 E0.04318
G1 X13.368 Y-23.747 E0.04292
G1 X13.027 Y-23.938 E0.03015
G1 X12.675 Y-24.103 E0.02992
G1 X12.154 Y-24.295 E0.04280
G1 X11.718 Y-24.410 E0.03477
G1 X11.221 Y-24.497 E0.03885
G1 X11.045 Y-24.510 E0.01360
G1 X9.704 Y-29.509 E0.39894
G1 X9.464 Y-29.944 E0.03826
G1 X9.060 Y-30.304 E0.04166
G1 X8.401 Y-30.556 E0.05438
G1 X7.935 Y-30.507 E0.03613
G1 X7.473 Y-30.354 E0.03747
G1 X7.171 Y-30.142 E0.02847
G1 X6.946 Y-29.900 E0.02550
G1 X6.774 Y-29.614 E0.02563
G1 X6.652 Y-29.259 E0.02900
G1 X6.633 Y-28.736 E0.04033
G1 X7.933 Y-23.873 E0.38793
G1 X7.580 Y-23.661 E0.03177
G1 X7.136 Y-23.340 E0.04222
G1 X6.836 Y-23.080 E0.03055
G1 X6.446 Y-22.678 E0.04318
G1 X6.099 Y-22.235 E0.04337
G1 X5.804 Y-21.778 E0.04193
G1 X5.545 Y-21.243 E0.04579
G1 X5.404 Y-20.877 E0.03020
G1 X5.264 Y-20.403 E0.03813
G1 X5.174 Y-19.960 E0.03483
G1 X5.114 Y-19.407 E0.04283
G1 X5.106 Y-19.008 E0.03076
G1 X5.144 Y-18.452 E0.04297
G1 X5.240 Y-17.900 E0.04319
G1 X5.343 Y-17.514 E0.03075
G1 X5.532 Y-16.990 E0.04299
G1 X5.781 Y-16.478 E0.04384
G1 X6.081 Y-15.995 E0.04384
G1 X6.430 Y-15.545 E0.04385
G1 X6.824 Y-15.135 E0.04385
G1 X7.257 Y-14.770 E0.04366
G1 X7.672 Y-14.486 E0.03870
G1 X8.066 Y-14.262 E0.03498
G1 X8.581 Y-14.031 E0.04347
G1 X9.122 Y-13.854 E0.04384
G1 X9.676 Y-13.735 E0.04366
G1 X10.174 Y-13.679 E0.03863
G1 X10.862 Y-13.660 E0.05305
G1 X10.581 Y-13.108 E0.04772
G1 X10.429 Y-12.565 E0.04346
G1 X10.381 Y-11.985 E0.04483
G1 X10.437 Y-11.452 E0.04130
G1 X10.617 Y-10.863 E0.04752
G1 X10.920 Y-10.316 E0.04819
G1 X11.325 Y-9.850 E0.04752
G1 X11.749 Y-9.519 E0.04149
G1 X12.294 Y-9.241 E0.04710
G1 X12.837 Y-9.089 E0.04346
G1 X13.420 Y-9.041 E0.04508
G1 X13.914 Y-9.097 E0.03829
G1 X14.031 Y-8.853 E0.02084
G1 X9.858 Y-4.680 E0.45476
G1 X4.707 Y-9.831 E0.56140
G1 X5.327 Y-10.033 E0.05020
G1 X5.787 Y-10.277 E0.04015
G1 X6.258 Y-10.659 E0.04671
G1 X6.641 Y-11.132 E0.04696
G1 X6.899 Y-11.624 E0.04274
G1 X7.065 Y-12.180 E0.04474
G1 X7.119 Y-12.790 E0.04719
G1 X7.044 Y-13.400 E0.04738
G1 X6.844 Y-13.981 E0.04738
G1 X6.532 Y-14.501 E0.04671
G1 X6.183 Y-14.888 E0.04015
G1 X5.772 Y-15.209 E0.04015
G1 X5.237 Y-15.482 E0.04629
G1 X4.703 Y-15.631 E0.04274
G1 X4.124 Y-15.679 E0.04474
G1 X3.525 Y-15.605 E0.04652
G1 X3.021 Y-15.441 E0.04082
G1 X2.499 Y-15.152 E0.04605
G1 X2.097 Y-14.815 E0.04040
G1 X1.749 Y-14.394 E0.04207
G1 X1.470 Y-13.885 E0.04474
G1 X1.279 Y-13.260 E0.05041
G1 X-4.284 Y-18.822 E0.60628
G1 X-9.834 Y-13.272 E0.60494
G1 X-10.043 Y-13.915 E0.05209
G1 X-10.342 Y-14.454 E0.04752
G1 X-10.752 Y-14.926 E0.04819
G1 X-11.245 Y-15.297 E0.04752
G1 X-11.954 Y-15.643 E0.06084
G1 X-11.042 Y-16.200 E0.08239
G1 X-10.373 Y-16.550 E0.05817
G1 X-9.796 Y-16.821 E0.04914
G1 X-8.913 Y-17.171 E0.07318
G1 X-7.641 Y-17.617 E0.10392
G1 X-7.064 Y-17.863 E0.04833
G1 X-6.400 Y-18.183 E0.05675
G1 X-5.623 Y-18.622 E0.06880
G1 X-5.227 Y-18.872 E0.03609
G1 X-4.503 Y-19.384 E0.06830
G1 X-3.790 Y-19.965 E0.07088
G1 X-3.149 Y-20.564 E0.06762
G1 X12.822 Y-36.535 E1.74064
G1 X17.361 Y-19.598 E1.35125
G1 X20.116 Y-20.337 E0.21986 F720.000
G1 X15.309 Y-19.672 F15000.000
G1 X15.342 Y-19.172 E0.03865 F720.000
G1 X15.327 Y-18.728 E0.03422
G1 X15.281 Y-18.335 E0.03050
G1 X15.175 Y-17.846 E0.03858
G1 X15.019 Y-17.369 E0.03872
G1 X14.813 Y-16.911 E0.03865
G1 X14.593 Y-16.527 E0.03412
G1 X14.366 Y-16.201 E0.03060
G1 X14.044 Y-15.818 E0.03858
G1 X13.681 Y-15.470 E0.03871
G1 X13.284 Y-15.162 E0.03871
G1 X12.858 Y-14.897 E0.03871
G1 X12.406 Y-14.678 E0.03871
G1 X11.936 Y-14.509 E0.03848
G1 X11.606 Y-14.421 E0.02629
G1 X11.114 Y-14.336 E0.03847
G1 X10.615 Y-14.303 E0.03858
G1 X10.218 Y-14.314 E0.03059
G1 X9.778 Y-14.363 E0.03412
G1 X9.288 Y-14.469 E0.03864
G1 X8.811 Y-14.625 E0.03870
