; generated by Slic3r 1.2.9 on 2019-05-30 at 12:10:02

; external perimeters extrusion width = 0.40mm
; perimeters extrusion width = 0.40mm
; infill extrusion width = 0.40mm
; solid infill extrusion width = 0.40mm
; top infill extrusion width = 0.40mm

M107
M83
T0
M116
G21 ; set units to millimeters
G90 ; use absolute coordinates
M83 ; use relative distances for extrusion
G1 E-4.20000 F1500.00000
G1 Z1.000 F15000.000
G1 X18.604 Y10.743 F15000.000
G1 Z0.300 F15000.000
G1 E4.20000 F1500.00000
G1 X10.525 Y24.732 E1.24489 F960.000
G1 X10.101 Y25.418 E0.06211
G1 X9.613 Y26.053 E0.06180
G1 X9.324 Y26.372 E0.03314
G1 X9.061 Y26.636 E0.02869
G1 X8.453 Y27.159 E0.06180
G1 X7.795 Y27.617 E0.06181
G1 X7.424 Y27.834 E0.03314
G1 X6.702 Y28.183 E0.06180
G1 X5.948 Y28.457 E0.06180
G1 X5.530 Y28.570 E0.03336
G1 X4.973 Y28.686 E0.04384
G1 X4.545 Y28.749 E0.03338
G1 X3.800 Y28.799 E0.05752
G1 X-17.343 Y28.802 E1.62939
G1 X-18.170 Y28.753 E0.06386
G1 X-18.600 Y28.698 E0.03339
G1 X-19.018 Y28.618 E0.03281
G1 X-19.595 Y28.470 E0.04589
G1 X-20.481 Y28.141 E0.07284
G1 X-21.075 Y27.856 E0.05077
G1 X-21.707 Y27.472 E0.05704
G1 X-22.011 Y27.257 E0.02868
G1 X-22.585 Y26.789 E0.05704
G1 X-23.012 Y26.372 E0.04600
G1 X-23.498 Y25.814 E0.05703
G1 X-23.845 Y25.336 E0.04558
G1 X-24.066 Y24.988 E0.03174
G1 X-41.879 Y-5.862 E2.74532
G1 X-42.271 Y-6.676 E0.06965
G1 X-42.428 Y-7.078 E0.03325
G1 X-42.612 Y-7.663 E0.04724
G1 X-44.710 Y-15.490 E0.62448
G1 X-44.755 Y-17.183 E0.13052
G1 X-44.346 Y-18.249 E0.08796
G1 X-36.607 Y-31.654 E1.19293
G1 X-35.442 Y-32.883 E0.13052
G1 X-34.399 Y-33.348 E0.08796
G1 X-26.572 Y-35.446 E0.62448
G1 X-25.773 Y-35.611 E0.06291
G1 X-25.282 Y-35.673 E0.03809
G1 X-24.712 Y-35.706 E0.04405
G1 X10.952 Y-35.712 E2.74844
G1 X11.754 Y-35.658 E0.06195 F960.000
G1 X12.180 Y-35.597 E0.03314
G1 X12.764 Y-35.476 E0.04598
G1 X13.402 Y-35.285 E0.05135
G1 X13.799 Y-35.132 E0.03278
G1 X14.372 Y-34.873 E0.04844
G1 X14.704 Y-34.702 E0.02878
G1 X25.951 Y-28.144 E1.00336
G1 X26.346 Y-27.888 E0.03622
G1 X26.854 Y-27.494 E0.04958
G1 X27.218 Y-27.151 E0.03854
G1 X27.557 Y-26.786 E0.03841
G1 X27.940 Y-26.292 E0.04815
G1 X28.211 Y-25.874 E0.03841
G1 X28.480 Y-25.380 E0.04335
G1 X28.643 Y-25.016 E0.03074
G1 X28.832 Y-24.486 E0.04335
G1 X28.963 Y-24.005 E0.03841
G1 X29.074 Y-23.391 E0.04814
G1 X29.136 Y-22.570 E0.06342
G1 X29.189 Y-9.590 E1.00030
G1 X29.148 Y-8.892 E0.05391
G1 X29.091 Y-8.467 E0.03300
G1 X28.981 Y-7.905 E0.04417
G1 X28.852 Y-7.426 E0.03823
G1 X28.667 Y-6.884 E0.04417
G1 X28.474 Y-6.426 E0.03824
G1 X28.118 Y-5.732 E0.06017
G1 X18.634 Y10.691 E1.46152
G1 E-4.20000 F1500.00000
G1 Z1.300 F15000.000
G1 X8.435 Y4.803 F15000.000
G1 Z0.300 F15000.000
G1 E4.20000 F1500.00000
G1 X5.778 Y9.404 E0.40944 F720.000
G1 X5.661 Y9.572 E0.01579
G1 X5.506 Y9.729 E0.01697
G1 X5.327 Y9.857 E0.01697
G1 X5.126 Y9.954 E0.01720
G1 X4.873 Y10.021 E0.02017
G1 X4.610 Y10.036 E0.02032
G1 X4.349 Y9.997 E0.02037
G1 X4.107 Y9.908 E0.01988
G1 X1.653 Y8.494 E0.21821
G1 X1.241 Y8.236 E0.03745
G1 X0.843 Y7.948 E0.03790
G1 X0.466 Y7.632 E0.03789
G1 X0.113 Y7.294 E0.03770
G1 X-0.218 Y6.930 E0.03791
G1 X-0.454 Y6.631 E0.02935
G1 X-0.710 Y6.720 E0.02089
G1 X-0.710 Y7.991 E0.09792
G1 X-3.960 Y9.867 E0.28921
G1 X-7.210 Y7.991 E0.28921
G1 X-7.210 Y4.022 E0.30589
G1 X-8.060 Y4.368 E0.07069
G1 X-8.451 Y4.551 E0.03324
G1 X-9.231 Y4.966 E0.06811
G1 X-17.758 Y9.889 E0.75880
G1 X-17.952 Y9.972 E0.01627
G1 X-18.169 Y10.024 E0.01721
G1 X-18.427 Y10.035 E0.01989
G1 X-18.651 Y10.003 E0.01743
G1 X-18.898 Y9.919 E0.02013
G1 X-19.125 Y9.784 E0.02036
G1 X-19.321 Y9.606 E0.02036
G1 X-19.465 Y9.407 E0.01894
G1 X-26.092 Y-2.072 E1.02144
G1 X-26.180 Y-2.262 E0.01613
G1 X-26.238 Y-2.479 E0.01734
G1 X-26.258 Y-2.703 E0.01735
G1 X-26.238 Y-2.930 E0.01759
G1 X-26.164 Y-3.187 E0.02058
G1 X-26.038 Y-3.426 E0.02081
G1 X-25.864 Y-3.632 E0.02082
G1 X-25.661 Y-3.791 E0.01988
G1 X-23.034 Y-5.303 E0.23353
G1 X-22.594 Y-5.518 E0.03777
G1 X-22.141 Y-5.701 E0.03767
G1 X-21.677 Y-5.852 E0.03759
G1 X-20.974 Y-6.011 E0.05550
G1 X-21.998 Y-9.832 E0.30487
G1 X-19.345 Y-12.486 E0.28921
G1 X-15.546 Y-11.468 E0.30305
G1 X-15.546 Y-25.346 E1.06950 F720.000
G1 X-14.891 Y-25.325 E0.05051
G1 X-14.511 Y-25.279 E0.02949
G1 X-13.913 Y-25.121 E0.04772
G1 X-13.558 Y-24.972 E0.02968
G1 X-13.220 Y-24.788 E0.02968
G1 X-12.720 Y-24.417 E0.04795
G1 X-12.369 Y-24.061 E0.03849
G1 X-10.667 Y-22.003 E0.20587
G1 X-9.353 Y-20.506 E0.15348
G1 X-8.002 Y-19.042 E0.15353
G1 X-6.613 Y-17.614 E0.15354
G1 X-5.189 Y-16.222 E0.15349
G1 X-3.728 Y-14.866 E0.15355
G1 X-2.234 Y-13.548 E0.15352
G1 X-0.711 Y-12.273 E0.15311
G1 X0.853 Y-11.030 E0.15397
G1 X2.444 Y-9.831 E0.15350
G1 X4.065 Y-8.673 E0.15355
G1 X5.712 Y-7.559 E0.15319
G1 X7.393 Y-6.484 E0.15385
G1 X9.097 Y-5.454 E0.15340
G1 X12.044 Y-3.745 E0.26253
G1 X12.300 Y-3.497 E0.02748
G1 X12.495 Y-3.146 E0.03097
G1 X12.572 Y-2.751 E0.03097
G1 X12.534 Y-2.390 E0.02798
G1 X12.408 Y-2.080 E0.02581
G1 X8.465 Y4.751 E0.60786
G1 X8.635 Y5.149 F15000.000
G1 E-4.20000 F1500.00000
G1 Z1.300 F15000.000
G1 X-4.692 Y15.790 F15000.000
G1 Z0.300 F15000.000
G1 E4.20000 F1500.00000
G1 X-4.571 Y15.933 E0.01440 F600.000
G1 X-4.303 Y16.439 E0.04411
G1 X-4.148 Y16.975 E0.04301
G1 X-4.104 Y17.465 E0.03792
G1 X-4.147 Y17.951 E0.03754
G1 X-4.302 Y18.493 E0.04349
G1 X-4.571 Y18.999 E0.04416
G1 X-4.940 Y19.438 E0.04416
G1 X-5.385 Y19.785 E0.04349
G1 X-5.825 Y20.010 E0.03809
G1 X-6.353 Y20.162 E0.04235
G1 X-6.843 Y20.206 E0.03793
G1 X-7.328 Y20.163 E0.03754
G1 X-7.871 Y20.008 E0.04349
G1 X-8.376 Y19.739 E0.04411
G1 X-8.804 Y19.381 E0.04302
G1 X-9.120 Y18.992 E0.03859
G1 X-9.385 Y18.493 E0.04356
G1 X-9.541 Y17.951 E0.04349
G1 X-9.584 Y17.458 E0.03809
G1 X-9.527 Y16.912 E0.04235
G1 X-9.382 Y16.433 E0.03854
G1 X-9.124 Y15.947 E0.04241
G1 X-8.810 Y15.557 E0.03859
G1 X-8.383 Y15.199 E0.04289
G1 X-7.951 Y14.960 E0.03814
G1 X-7.414 Y14.785 E0.04344
G1 X-6.859 Y14.726 E0.04301 F600.000
G1 X-6.360 Y14.769 E0.03859
G1 X-5.817 Y14.925 E0.04356
G1 X-5.319 Y15.190 E0.04349
G1 X-4.934 Y15.501 E0.03814
G1 X-4.730 Y15.744 E0.02446
G1 X-5.217 Y16.153 F15000.000
G1 X-5.101 Y16.291 E0.01388 F600.000
G1 X-4.895 Y16.679 E0.03385
G1 X-4.776 Y17.093 E0.03319
G1 X-4.743 Y17.466 E0.02889
G1 X-4.775 Y17.834 E0.02849
G1 X-4.895 Y18.254 E0.03363
G1 X-5.101 Y18.642 E0.03386
G1 X-5.384 Y18.978 E0.03386
G1 X-5.728 Y19.247 E0.03363
G1 X-6.059 Y19.416 E0.02869
G1 X-6.470 Y19.534 E0.03296
G1 X-6.844 Y19.568 E0.02889
G1 X-7.212 Y19.535 E0.02849
G1 X-7.631 Y19.415 E0.03363
G1 X-8.019 Y19.209 E0.03385
G1 X-8.349 Y18.933 E0.03319
G1 X-8.588 Y18.639 E0.02913
G1 X-8.793 Y18.254 E0.03365
G1 X-8.913 Y17.834 E0.03363
G1 X-8.945 Y17.463 E0.02868
G1 X-8.901 Y17.038 E0.03296
G1 X-8.792 Y16.677 E0.02911
G1 X-8.591 Y16.299 E0.03298
G1 X-8.354 Y16.004 E0.02913
G1 X-8.022 Y15.726 E0.03341
G1 X-7.696 Y15.545 E0.02870
G1 X-7.281 Y15.410 E0.03361
G1 X-6.853 Y15.365 E0.03319 F600.000
G1 X-6.476 Y15.397 E0.02913
G1 X-6.057 Y15.517 E0.03365
G1 X-5.671 Y15.722 E0.03363
G1 X-5.382 Y15.957 E0.02870
G1 X-5.256 Y16.107 E0.01512
G1 X-5.040 Y16.122 F15000.000
G1 X-12.742 Y7.727 F15000.000
G1 X-8.922 Y5.522 E0.33993 F720.000
G1 X-8.166 Y5.120 E0.06602
G1 X-7.846 Y4.970 E0.02723
G1 X-7.846 Y8.358 E0.26113
G1 X-3.960 Y10.601 E0.34577 F720.000
G1 X-0.075 Y8.358 E0.34577
G1 X-0.075 Y8.009 E0.02694
G1 X0.453 Y8.449 E0.05297
G1 X0.886 Y8.764 E0.04125
G1 X1.326 Y9.039 E0.04002
G1 X3.836 Y10.486 E0.22328
G1 X4.190 Y10.616 E0.02908
G1 X4.581 Y10.675 E0.03043
G1 X4.974 Y10.652 E0.03038
G1 X5.348 Y10.552 E0.02983
G1 X5.652 Y10.405 E0.02601
G1 X5.920 Y10.214 E0.02535
G1 X6.151 Y9.980 E0.02535
G1 X6.315 Y9.745 E0.02207
G1 X6.588 Y9.273 E0.04203
G1 X6.870 Y9.349 E0.02255
G1 X6.870 Y13.234 E0.29939
G1 X6.370 Y13.734 E0.05449
G1 X6.370 Y14.581 E0.06527
G1 X1.870 Y14.581 E0.34680
G1 X1.870 Y20.352 E0.44476
G1 X6.370 Y20.352 E0.34680
G1 X6.370 Y21.199 E0.06527
G1 X6.800 Y21.628 E0.04680
G1 X6.718 Y21.939 E0.02475
G1 X6.506 Y22.451 E0.04271
G1 X6.343 Y22.728 E0.02481
G1 X6.148 Y22.994 E0.02541
G1 X5.928 Y23.238 E0.02535
G1 X5.684 Y23.459 E0.02535
G1 X5.418 Y23.653 E0.02535
G1 X5.134 Y23.819 E0.02535
G1 X4.835 Y23.955 E0.02535
G1 X4.531 Y24.058 E0.02472
G1 X4.089 Y24.150 E0.03478
G1 X3.757 Y24.178 E0.02568
G1 X-17.310 Y24.181 E1.62350
G1 X-17.793 Y24.147 E0.03738
G1 X-18.300 Y24.034 E0.03998
G1 X-18.739 Y23.861 E0.03638
G1 X-18.911 Y23.772 E0.01496
G1 X-19.197 Y23.591 E0.02600
G1 X-19.462 Y23.383 E0.02600
G1 X-19.842 Y22.988 E0.04223
G1 X-20.141 Y22.548 E0.04101
G1 X-20.371 Y22.043 E0.04279
G1 X-20.493 Y21.634 E0.03288
G1 X-20.058 Y21.199 E0.04743
G1 X-20.058 Y20.352 E0.06527
G1 X-15.558 Y20.352 E0.34679
G1 X-15.558 Y14.581 E0.44476
G1 X-20.058 Y14.581 E0.34679
G1 X-20.058 Y13.734 E0.06527
G1 X-20.558 Y13.234 E0.05449
G1 X-20.558 Y9.349 E0.29939
G1 X-20.276 Y9.273 E0.02255
G1 X-19.999 Y9.753 E0.04268
G1 X-19.797 Y10.031 E0.02648
G1 X-19.506 Y10.297 E0.03043
G1 X-19.166 Y10.499 E0.03044
G1 X-18.800 Y10.624 E0.02978
G1 X-18.458 Y10.673 E0.02666
G1 X-18.080 Y10.656 E0.02912
G1 X-17.752 Y10.578 E0.02601
G1 X-17.473 Y10.458 E0.02339
G1 X-12.794 Y7.757 E0.41634
G1 E-4.20000 F1500.00000
G1 Z1.300 F15000.000
G1 X-25.237 Y-14.757 F15000.000
G1 Z0.300 F15000.000
G1 E4.20000 F1500.00000
G1 X-25.728 Y-14.496 E0.04282 F600.000
G1 X-26.201 Y-14.352 E0.03814
G1 X-26.762 Y-14.293 E0.04349
G1 X-27.324 Y-14.352 E0.04353
G1 X-27.801 Y-14.498 E0.03841
G1 X-28.296 Y-14.762 E0.04321
G1 X-28.734 Y-15.130 E0.04413
G1 X-29.082 Y-15.574 E0.04349
G1 X-29.302 Y-16.008 E0.03747
G1 X-29.445 Y-16.472 E0.03747
G1 X-29.504 Y-17.034 E0.04349
G1 X-29.445 Y-17.595 E0.04349
G1 X-29.300 Y-18.068 E0.03809
G1 X-29.043 Y-18.553 E0.04234
G1 X-28.734 Y-18.936 E0.03792
G1 X-28.366 Y-19.256 E0.03754
G1 X-27.877 Y-19.538 E0.04349
G1 X-27.333 Y-19.715 E0.04411
G1 X-26.778 Y-19.774 E0.04301 F600.000
G1 X-26.319 Y-19.734 E0.03551
G1 X-26.038 Y-19.678 E0.02211
G1 X-25.716 Y-19.563 E0.02634
G1 X-25.297 Y-19.349 E0.03622
G1 X-24.858 Y-19.005 E0.04296
G1 X-24.500 Y-18.579 E0.04296
G1 X-24.256 Y-18.141 E0.03859
G1 X-24.081 Y-17.604 E0.04356
G1 X-24.021 Y-17.034 E0.04416
G1 X-24.081 Y-16.464 E0.04416
G1 X-24.258 Y-15.919 E0.04416
G1 X-24.541 Y-15.430 E0.04349
G1 X-24.860 Y-15.063 E0.03747
G1 X-25.191 Y-14.795 E0.03284
G1 X-25.590 Y-15.290 F15000.000
G1 X-25.972 Y-15.086 E0.03339 F600.000
G1 X-26.329 Y-14.977 E0.02870
G1 X-26.762 Y-14.932 E0.03363
G1 X-27.197 Y-14.977 E0.03364
G1 X-27.556 Y-15.088 E0.02896
G1 X-27.938 Y-15.291 E0.03337
G1 X-28.274 Y-15.574 E0.03385
G1 X-28.543 Y-15.917 E0.03363
G1 X-28.711 Y-16.247 E0.02847
G1 X-28.819 Y-16.600 E0.02847
G1 X-28.864 Y-17.034 E0.03363
G1 X-28.819 Y-17.468 E0.03363
G1 X-28.710 Y-17.824 E0.02869
G1 X-28.510 Y-18.201 E0.03296
G1 X-28.274 Y-18.493 E0.02889
G1 X-27.995 Y-18.736 E0.02849
G1 X-27.617 Y-18.954 E0.03363
G1 X-27.200 Y-19.090 E0.03385
G1 X-26.771 Y-19.135 E0.03319 F600.000
G1 X-26.409 Y-19.104 E0.02803
G1 X-26.208 Y-19.064 E0.01582
G1 X-25.968 Y-18.978 E0.01960
G1 X-25.641 Y-18.811 E0.02830
G1 X-25.302 Y-18.546 E0.03317
G1 X-25.025 Y-18.216 E0.03318
G1 X-24.841 Y-17.886 E0.02913
G1 X-24.706 Y-17.471 E0.03365
G1 X-24.661 Y-17.034 E0.03386
G1 X-24.706 Y-16.597 E0.03386
G1 X-24.842 Y-16.179 E0.03387
G1 X-25.060 Y-15.801 E0.03363
G1 X-25.303 Y-15.522 E0.02847
G1 X-25.543 Y-15.327 E0.02384
G1 X-25.578 Y-14.890 F15000.000
G1 X-16.182 Y-20.333 F15000.000
G1 X-16.182 Y-12.296 E0.61935 F720.000
G1 X-19.535 Y-13.195 E0.26750
G1 X-22.707 Y-10.022 E0.34577
G1 X-21.762 Y-6.492 E0.28161
G1 X-22.358 Y-6.298 E0.04835
G1 X-22.852 Y-6.099 E0.04106
G1 X-23.333 Y-5.865 E0.04116
G1 X-26.017 Y-4.320 E0.23869
G1 X-26.308 Y-4.092 E0.02849
G1 X-26.568 Y-3.783 E0.03111
G1 X-26.757 Y-3.427 E0.03111
G1 X-26.866 Y-3.047 E0.03044
G1 X-26.896 Y-2.703 E0.02659
G1 X-26.867 Y-2.368 E0.02592
G1 X-26.780 Y-2.043 E0.02591
G1 X-26.656 Y-1.778 E0.02256
G1 X-26.383 Y-1.305 E0.04210
G1 X-26.590 Y-1.098 E0.02255
G1 X-29.954 Y-3.040 E0.29939
G1 X-30.137 Y-3.723 E0.05449
G1 X-30.871 Y-4.147 E0.06527
G1 X-28.621 Y-8.044 E0.34679
G1 X-33.619 Y-10.930 E0.44476
G1 X-35.869 Y-7.033 E0.34679
G1 X-36.602 Y-7.456 E0.06527
G1 X-37.182 Y-7.301 E0.04626
G1 X-37.429 Y-7.538 E0.02640
G1 X-37.625 Y-7.778 E0.02390
G1 X-37.864 Y-8.153 E0.03421
G1 X-38.049 Y-8.556 E0.03419
G1 X-38.155 Y-8.883 E0.02653
G1 X-40.140 Y-16.292 E0.59108
G1 X-32.809 Y-28.990 E1.13000
G1 X-25.408 Y-30.973 E0.59044
G1 X-24.948 Y-31.064 E0.03617
G1 X-24.511 Y-31.089 E0.03372
G1 X-24.070 Y-31.055 E0.03406
G1 X-23.758 Y-30.993 E0.02455 F720.000
G1 X-23.544 Y-30.927 E0.01724
G1 X-23.388 Y-30.344 E0.04650
G1 X-22.654 Y-29.921 E0.06527
G1 X-24.904 Y-26.023 E0.34679
G1 X-19.906 Y-23.138 E0.44476
G1 X-17.656 Y-27.035 E0.34679
G1 X-16.923 Y-26.611 E0.06527
G1 X-16.240 Y-26.794 E0.05449
G1 X-15.320 Y-26.263 E0.08189
G1 X-15.401 Y-25.977 E0.02292
G1 X-16.182 Y-26.002 E0.06021
G1 X-16.182 Y-20.393 E0.43223
G1 E-4.20000 F1500.00000
G1 Z1.300 F15000.000
G1 X10.393 Y-17.595 F15000.000
G1 Z0.300 F15000.000
G1 E4.20000 F1500.00000
G1 X10.537 Y-18.068 E0.03814 F600.000
G1 X10.798 Y-18.559 E0.04282
G1 X11.110 Y-18.943 E0.03814
G1 X11.536 Y-19.301 E0.04285
G1 X11.971 Y-19.542 E0.03836
G1 X12.505 Y-19.715 E0.04321
G1 X13.059 Y-19.774 E0.04299 F600.000
G1 X13.558 Y-19.731 E0.03859
G1 X14.093 Y-19.578 E0.04289
G1 X14.534 Y-19.353 E0.03814
G1 X14.979 Y-19.005 E0.04349
G1 X15.347 Y-18.567 E0.04416
G1 X15.616 Y-18.061 E0.04411
G1 X15.770 Y-17.525 E0.04302
G1 X15.814 Y-17.035 E0.03792
G1 X15.772 Y-16.549 E0.03753
G1 X15.616 Y-16.007 E0.04349
G1 X15.347 Y-15.502 E0.04411
G1 X14.989 Y-15.073 E0.04301
G1 X14.601 Y-14.758 E0.03860
G1 X14.102 Y-14.492 E0.04353
G1 X13.566 Y-14.338 E0.04300
G1 X13.067 Y-14.293 E0.03859
G1 X12.513 Y-14.352 E0.04289
G1 X12.040 Y-14.496 E0.03814
G1 X11.542 Y-14.761 E0.04349
G1 X11.110 Y-15.124 E0.04349
G1 X10.798 Y-15.509 E0.03814
G1 X10.534 Y-16.006 E0.04344
G1 X10.379 Y-16.543 E0.04302
G1 X10.334 Y-17.041 E0.03859
G1 X10.386 Y-17.535 E0.03826
G1 X11.018 Y-17.468 F15000.000
G1 X11.127 Y-17.824 E0.02870 F600.000
G1 X11.331 Y-18.206 E0.03339
G1 X11.565 Y-18.496 E0.02870
G1 X11.897 Y-18.774 E0.03340
G1 X12.225 Y-18.956 E0.02891
G1 X12.638 Y-19.090 E0.03340
G1 X13.066 Y-19.135 E0.03318 F600.000
G1 X13.442 Y-19.103 E0.02913
G1 X13.859 Y-18.983 E0.03341
G1 X14.191 Y-18.814 E0.02870
G1 X14.535 Y-18.546 E0.03363
G1 X14.817 Y-18.209 E0.03386
G1 X15.023 Y-17.821 E0.03385
G1 X15.143 Y-17.407 E0.03320
G1 X15.176 Y-17.034 E0.02889
G1 X15.144 Y-16.666 E0.02849
G1 X15.024 Y-16.246 E0.03363
G1 X14.817 Y-15.859 E0.03385
G1 X14.541 Y-15.528 E0.03319
G1 X14.248 Y-15.290 E0.02913
G1 X13.862 Y-15.085 E0.03365
G1 X13.448 Y-14.966 E0.03318
G1 X13.072 Y-14.932 E0.02913
G1 X12.641 Y-14.977 E0.03341
G1 X12.285 Y-15.086 E0.02870
G1 X11.899 Y-15.291 E0.03363
G1 X11.565 Y-15.572 E0.03363
G1 X11.331 Y-15.861 E0.02870
G1 X11.126 Y-16.246 E0.03361
G1 X11.007 Y-16.660 E0.03319
G1 X10.973 Y-17.036 E0.02913
G1 X11.012 Y-17.408 E0.02879
G1 X10.747 Y-17.723 F15000.000
G1 X9.993 Y-30.968 F15000.000
G1 X10.163 Y-31.014 E0.01362 F720.000
G1 X10.526 Y-31.072 E0.02833
G1 X10.944 Y-31.089 E0.03219
G1 X11.140 Y-31.078 E0.01515
G1 X11.482 Y-31.029 E0.02665 F720.000
G1 X11.946 Y-30.898 E0.03714
G1 X12.417 Y-30.685 E0.03981
G1 X12.850 Y-30.396 E0.04016
G1 X13.156 Y-30.119 E0.03176
G1 X13.401 Y-29.838 E0.02875
G1 X14.205 Y-28.611 E0.11303
G1 X14.631 Y-28.064 E0.05344
G1 X15.093 Y-27.547 E0.05344
G1 X15.590 Y-27.064 E0.05344
G1 X16.119 Y-26.615 E0.05344
G1 X16.677 Y-26.204 E0.05344
G1 X17.263 Y-25.833 E0.05344
G1 X17.873 Y-25.503 E0.05344
G1 X18.504 Y-25.215 E0.05344
G1 X19.153 Y-24.971 E0.05344
G1 X19.817 Y-24.773 E0.05344
G1 X20.494 Y-24.621 E0.05344
G1 X20.862 Y-24.564 E0.02870
G1 X20.407 Y-24.003 E0.05565
G1 X20.156 Y-23.531 E0.04121
G1 X20.017 Y-23.074 E0.03680
G1 X19.960 Y-22.534 E0.04188
G1 X20.018 Y-21.985 E0.04255
G1 X20.186 Y-21.467 E0.04192
G1 X20.419 Y-21.047 E0.03705
G1 X20.761 Y-20.640 E0.04098
G1 X21.135 Y-20.338 E0.03702
G1 X21.605 Y-20.089 E0.04098
G1 X22.064 Y-19.949 E0.03702
G1 X22.593 Y-19.894 E0.04094
G1 X23.068 Y-19.935 E0.03676
G1 X23.509 Y-20.062 E0.03536
G1 X23.355 Y-19.665 E0.03277
