; generated by Slic3r 1.2.9 on 2019-05-30 at 13:29:25

; external perimeters extrusion width = 0.40mm
; perimeters extrusion width = 0.40mm
; infill extrusion width = 0.40mm
; solid infill extrusion width = 0.40mm
; top infill extrusion width = 0.40mm

M107
M83
T0
M116
G21 ; set units to millimeters
G90 ; use absolute coordinates
M83 ; use relative distances for extrusion
G1 E-4.20000 F1500.00000
G1 Z1.000 F15000.000
G1 X0.000 Y12.915 F15000.000
G1 Z0.300 F15000.000
G1 E4.20000 F1500.00000
G1 X-17.350 Y12.915 E1.33707 F960.000
G1 X-18.997 Y12.520 E0.13052
G1 X-19.921 Y11.850 E0.08796
G1 X-21.771 Y10.000 E0.20163
G1 X-22.023 Y9.719 E0.02911
G1 X-33.064 Y-3.894 E1.35079
G1 X-33.389 Y-4.366 E0.04418
G1 X-39.055 Y-14.180 E0.87330
G1 X-39.525 Y-16.349 E0.17101
G1 X-39.403 Y-17.499 E0.08915
G1 X-39.221 Y-18.469 E0.07605
G1 X-38.932 Y-19.552 E0.08636
G1 X-38.507 Y-20.739 E0.09718
G1 X-38.081 Y-21.671 E0.07899
G1 X-37.567 Y-22.608 E0.08233
G1 X-37.371 Y-22.926 E0.02879
G1 X-36.772 Y-23.793 E0.08123
G1 X-36.122 Y-24.602 E0.07994
G1 X-35.463 Y-25.308 E0.07447
G1 X-34.950 Y-25.796 E0.05456
G1 X-34.381 Y-26.284 E0.05781
G1 X-33.420 Y-26.996 E0.09213
G1 X-27.451 Y-30.830 E0.54676
G1 X-25.486 Y-31.407 E0.15778
G1 X16.338 Y-31.407 E3.22320
G1 X18.300 Y-30.832 E0.15755
G1 X23.973 Y-27.196 E0.51928 F960.000
G1 X24.864 Y-26.572 E0.08386
G1 X25.612 Y-25.965 E0.07418
G1 X26.315 Y-25.308 E0.07418
G1 X26.806 Y-24.792 E0.05490
G1 X27.426 Y-24.055 E0.07418
G1 X27.994 Y-23.278 E0.07418
G1 X28.653 Y-22.204 E0.09713
G1 X29.213 Y-21.078 E0.09694
G1 X29.525 Y-20.314 E0.06355
G1 X29.839 Y-19.377 E0.07614
G1 X30.131 Y-18.201 E0.09345
G1 X30.293 Y-17.218 E0.07673
G1 X30.377 Y-16.349 E0.06732
G1 X29.907 Y-14.180 E0.17101
G1 X24.241 Y-4.366 E0.87330
G1 X23.916 Y-3.894 E0.04418
G1 X12.875 Y9.719 E1.35079
G1 X12.622 Y10.000 E0.02911
G1 X10.772 Y11.850 E0.20163
G1 X9.329 Y12.736 E0.13052
G1 X8.202 Y12.915 E0.08796
G1 X0.060 Y12.915 E0.62745
G1 E-4.20000 F1500.00000
G1 Z1.300 F15000.000
G1 X-8.602 Y-10.391 F15000.000
G1 Z0.300 F15000.000
G1 E4.20000 F1500.00000
G1 X-8.884 Y-10.305 E0.02266 F600.000
G1 X-9.221 Y-10.269 E0.02614
G1 X-9.511 Y-10.295 E0.02242
G1 X-9.789 Y-10.369 E0.02218
G1 X-10.052 Y-10.492 E0.02236
G1 X-10.315 Y-10.681 E0.02498
G1 X-10.525 Y-10.903 E0.02355
G1 X-10.682 Y-11.146 E0.02227
G1 X-10.795 Y-11.411 E0.02218
G1 X-10.861 Y-11.700 E0.02287
G1 X-10.874 Y-18.939 E0.55792
G1 X-10.840 Y-19.264 E0.02518
G1 X-10.733 Y-19.593 E0.02661
G1 X-10.562 Y-19.889 E0.02638
G1 X-10.369 Y-20.111 E0.02266
G1 X-10.102 Y-20.320 E0.02614
G1 X-9.840 Y-20.453 E0.02266
G1 X-9.513 Y-20.547 E0.02622
G1 X-9.209 Y-20.572 E0.02351 F600.000
G1 X-8.937 Y-20.547 E0.02105
G1 X-8.551 Y-20.444 E0.03079
G1 X-8.125 Y-20.154 E0.03972
G1 X-7.923 Y-19.938 E0.02283
G1 X-7.766 Y-19.696 E0.02218
G1 X-7.653 Y-19.431 E0.02218
G1 X-7.587 Y-19.142 E0.02287
G1 X-7.574 Y-11.902 E0.55792
G1 X-7.608 Y-11.577 E0.02518
G1 X-7.715 Y-11.250 E0.02655
G1 X-7.877 Y-10.966 E0.02522
G1 X-8.076 Y-10.734 E0.02356
G1 X-8.303 Y-10.550 E0.02250
G1 X-8.549 Y-10.419 E0.02152
G1 X-8.650 Y-10.101 F15000.000
G1 E-4.20000 F1500.00000
G1 Z1.300 F15000.000
G1 X-17.806 Y7.429 F15000.000
G1 Z0.300 F15000.000
G1 E4.20000 F1500.00000
G1 X-17.688 Y7.312 E0.01280 F720.000
G1 X-17.688 Y6.465 E0.06527
G1 X-13.288 Y6.465 E0.33909
G1 X-13.288 Y0.693 E0.44476
G1 X-17.688 Y0.693 E0.33909
G1 X-17.688 Y-0.153 E0.06527
G1 X-18.204 Y-0.669 E0.05616
G1 X-18.216 Y-1.003 E0.02576
G1 X-18.309 Y-1.595 E0.04621
G1 X-18.481 Y-2.230 E0.05072
G1 X-18.748 Y-2.894 E0.05514
G1 X-19.125 Y-3.561 E0.05904
G1 X-19.367 Y-3.902 E0.03224
G1 X-19.737 Y-4.339 E0.04411
G1 X-20.028 Y-4.628 E0.03158
G1 X-20.467 Y-4.994 E0.04411
G1 X-20.803 Y-5.229 E0.03158
G1 X-21.302 Y-5.518 E0.04440
G1 X-21.729 Y-5.714 E0.03622
G1 X-22.216 Y-5.891 E0.04000
G1 X-22.785 Y-6.037 E0.04524
G1 X-23.376 Y-6.124 E0.04607
G1 X-24.137 Y-6.145 E0.05861
G1 X-25.161 Y-6.066 E0.07920
G1 X-25.778 Y-6.059 E0.04756
G1 X-26.436 Y-6.098 E0.05074
G1 X-27.324 Y-6.222 E0.06909
G1 X-27.920 Y-6.356 E0.04710
G1 X-28.513 Y-6.530 E0.04767
G1 X-29.089 Y-6.742 E0.04730
G1 X-29.545 Y-6.950 E0.03858
G1 X-29.687 Y-7.195 E0.02185
G1 X-29.500 Y-7.401 E0.02142
G1 X-28.838 Y-7.102 E0.05596
G1 X-28.237 Y-6.890 E0.04918
G1 X-27.343 Y-6.661 E0.07111
G1 X-26.422 Y-6.524 E0.07177
G1 X-25.500 Y-6.485 E0.07111
G1 X-24.862 Y-6.513 E0.04918
G1 X-23.956 Y-6.632 E0.07045
G1 X-23.333 Y-6.770 E0.04918
G1 X-22.452 Y-7.047 E0.07111
G1 X-21.606 Y-7.414 E0.07111
G1 X-21.045 Y-7.717 E0.04918
G1 X-20.281 Y-8.220 E0.07045
G1 X-19.781 Y-8.616 E0.04918
G1 X-19.110 Y-9.250 E0.07111
G1 X-18.503 Y-9.956 E0.07177
G1 X-17.972 Y-10.722 E0.07177
G1 X-17.525 Y-11.538 E0.07177
G1 X-17.164 Y-12.397 E0.07177
G1 X-16.895 Y-13.289 E0.07177
G1 X-16.741 Y-14.094 E0.06316
G1 X-11.730 Y-19.348 E0.55956
G1 X-11.482 Y-19.233 E0.02103
G1 X-11.510 Y-18.972 E0.02021 F720.000
G1 X-11.497 Y-11.627 E0.56608
G1 X-11.401 Y-11.213 E0.03269
G1 X-11.245 Y-10.846 E0.03075
G1 X-11.026 Y-10.509 E0.03099
G1 X-10.735 Y-10.201 E0.03267
G1 X-10.374 Y-9.941 E0.03427
G1 X-10.007 Y-9.770 E0.03124
G1 X-9.622 Y-9.666 E0.03075
G1 X-9.215 Y-9.631 E0.03142
G1 X-8.756 Y-9.679 E0.03557
G1 X-8.358 Y-9.801 E0.03209
G1 X-7.951 Y-10.017 E0.03557
G1 X-7.631 Y-10.276 E0.03165
G1 X-7.355 Y-10.598 E0.03267
G1 X-7.130 Y-10.991 E0.03494
G1 X-6.983 Y-11.445 E0.03672
G1 X-6.938 Y-11.870 E0.03294
G1 X-6.943 Y-14.793 E0.22530
G1 X-6.621 Y-14.844 E0.02519
G1 X-6.456 Y-14.327 E0.04177
G1 X-6.312 Y-14.040 E0.02474
G1 X-6.096 Y-13.714 E0.03015
G1 X-5.726 Y-13.321 E0.04159
G1 X-1.125 Y-9.866 E0.44343
G1 X-0.780 Y-9.667 E0.03069
G1 X-0.441 Y-9.538 E0.02799
G1 X-0.035 Y-9.452 E0.03199
G1 X0.319 Y-9.433 E0.02732
G1 X0.664 Y-9.463 E0.02666
G1 X1.004 Y-9.542 E0.02690
G1 X1.352 Y-9.677 E0.02877
G1 X1.679 Y-9.867 E0.02918
G1 X3.598 Y-11.309 E0.18495
G1 X3.991 Y-11.660 E0.04063
G1 X4.252 Y-11.937 E0.02928
G1 X4.579 Y-12.350 E0.04065
G1 X4.784 Y-12.660 E0.02863
G1 X4.967 Y-12.983 E0.02863
G1 X5.188 Y-13.467 E0.04095
G1 X5.331 Y-13.877 E0.03349
G1 X5.451 Y-14.341 E0.03698
G1 X5.535 Y-14.877 E0.04179
G1 X5.563 Y-15.421 E0.04196
G1 X5.519 Y-16.268 E0.06537
G1 X7.592 Y-14.095 E0.23147
G1 X7.752 Y-13.269 E0.06480
G1 X8.020 Y-12.387 E0.07108
G1 X8.255 Y-11.803 E0.04850
G1 X8.530 Y-11.236 E0.04850
G1 X8.998 Y-10.452 E0.07042
G1 X9.372 Y-9.935 E0.04916
G1 X9.969 Y-9.243 E0.07042
G1 X10.420 Y-8.804 E0.04850
G1 X10.894 Y-8.403 E0.04784
G1 X11.395 Y-8.036 E0.04789
G1 X11.940 Y-7.692 E0.04970
G1 X12.739 Y-7.281 E0.06919
G1 X13.320 Y-7.042 E0.04847
G1 X13.910 Y-6.846 E0.04784
G1 X14.519 Y-6.690 E0.04850
G1 X15.429 Y-6.540 E0.07108
G1 X16.350 Y-6.485 E0.07108
G1 X16.988 Y-6.502 E0.04916
G1 X17.904 Y-6.607 E0.07108
G1 X18.813 Y-6.809 E0.07174
G1 X19.696 Y-7.104 E0.07175
G1 X20.352 Y-7.402 E0.05552
G1 X20.539 Y-7.196 E0.02144
G1 X20.397 Y-6.950 E0.02188
G1 X19.941 Y-6.742 E0.03858
G1 X19.365 Y-6.530 E0.04730
G1 X18.772 Y-6.356 E0.04767
G1 X18.168 Y-6.221 E0.04767
G1 X17.565 Y-6.127 E0.04704
G1 X16.624 Y-6.059 E0.07273
G1 X16.013 Y-6.066 E0.04705
G1 X14.989 Y-6.145 E0.07920
G1 X14.228 Y-6.124 E0.05861
G1 X13.637 Y-6.037 E0.04607
G1 X13.074 Y-5.893 E0.04476
G1 X12.687 Y-5.758 E0.03158
G1 X12.150 Y-5.517 E0.04541
G1 X11.499 Y-5.125 E0.05858
G1 X11.164 Y-4.874 E0.03224
G1 X10.731 Y-4.486 E0.04476
G1 X10.341 Y-4.056 E0.04476
G1 X10.092 Y-3.730 E0.03158
G1 X9.785 Y-3.247 E0.04411
G1 X9.596 Y-2.884 E0.03158
G1 X9.370 Y-2.340 E0.04541
G1 X9.161 Y-1.600 E0.05923
G1 X9.068 Y-1.003 E0.04658
G1 X9.056 Y-0.669 E0.02576
G1 X8.540 Y-0.153 E0.05616
G1 X8.540 Y0.693 E0.06527
G1 X4.140 Y0.693 E0.33909
G1 X4.140 Y6.465 E0.44476
G1 X8.540 Y6.465 E0.33909
G1 X8.540 Y7.312 E0.06527
G1 X8.658 Y7.429 E0.01280
G1 X7.793 Y8.293 E0.09421
G1 X-16.941 Y8.293 E1.90621
G1 X-17.763 Y7.471 E0.08958
G1 E-4.20000 F1500.00000
G1 Z1.300 F15000.000
G1 X-5.166 Y-17.941 F15000.000
G1 Z0.300 F15000.000
G1 E4.20000 F1500.00000
G1 X-5.726 Y-17.521 E0.05399 F600.000
G1 X-6.091 Y-17.134 E0.04093
G1 X-6.272 Y-16.869 E0.02474
G1 X-6.453 Y-16.523 E0.03015
G1 X-6.623 Y-15.990 E0.04311
G1 X-6.946 Y-16.040 E0.02514
G1 X-6.951 Y-19.215 E0.24471
G1 X-7.047 Y-19.628 E0.03270
G1 X-7.203 Y-19.996 E0.03075
G1 X-7.615 Y-20.631 E0.05834
G1 X-2.016 Y-20.633 E0.43152
G1 X-1.928 Y-20.373 E0.02118
G1 X-5.118 Y-17.977 E0.30741 F600.000
G1 X-4.737 Y-17.469 F15000.000
G1 X-5.301 Y-17.045 E0.05441 F720.000
G1 X-5.594 Y-16.734 E0.03294
G1 X-5.726 Y-16.542 E0.01800
G1 X-5.864 Y-16.277 E0.02299
G1 X-5.997 Y-15.861 E0.03364
G1 X-6.043 Y-15.421 E0.03411
G1 X-5.997 Y-14.981 E0.03411
G1 X-5.865 Y-14.568 E0.03341
G1 X-5.761 Y-14.359 E0.01800
G1 X-5.596 Y-14.110 E0.02299
G1 X-5.301 Y-13.797 E0.03317
G1 X-0.775 Y-10.398 E0.43623
G1 X-0.507 Y-10.243 E0.02385
G1 X-0.260 Y-10.149 E0.02030
G1 X0.048 Y-10.084 E0.02431
G1 X0.308 Y-10.070 E0.02007
G1 X0.565 Y-10.093 E0.01983
G1 X0.816 Y-10.151 E0.01992
G1 X1.075 Y-10.251 E0.02140
G1 X1.327 Y-10.398 E0.02249
G1 X3.195 Y-11.801 E0.17998
G1 X3.547 Y-12.116 E0.03644
G1 X3.770 Y-12.353 E0.02507
G1 X4.064 Y-12.723 E0.03645
G1 X4.400 Y-13.273 E0.04966
G1 X4.598 Y-13.704 E0.03655
G1 X4.723 Y-14.061 E0.02917
G1 X4.828 Y-14.470 E0.03254
G1 X4.902 Y-14.943 E0.03685
G1 X4.926 Y-15.421 E0.03691
G1 X4.902 Y-15.898 E0.03685
G1 X4.839 Y-16.314 E0.03241
G1 X4.752 Y-16.684 E0.02930
G1 X4.599 Y-17.136 E0.03679
G1 X4.400 Y-17.569 E0.03668
G1 X4.241 Y-17.851 E0.02495
G1 X4.032 Y-18.162 E0.02894
G1 X3.746 Y-18.520 E0.03526
G1 X4.021 Y-18.760 E0.02813
G1 X7.826 Y-14.771 E0.42483
G1 X8.163 Y-14.771 E0.02597
G1 X8.205 Y-14.271 E0.03864
G1 X8.370 Y-13.422 E0.06665
G1 X8.620 Y-12.598 E0.06640
G1 X8.837 Y-12.060 E0.04467
G1 X9.090 Y-11.539 E0.04467
G1 X9.530 Y-10.802 E0.06617
G1 X9.871 Y-10.329 E0.04490
G1 X10.432 Y-9.679 E0.06617
G1 X10.847 Y-9.275 E0.04467
G1 X11.287 Y-8.903 E0.04443
G1 X11.753 Y-8.561 E0.04445
G1 X12.256 Y-8.244 E0.04585
G1 X13.005 Y-7.858 E0.06497
G1 X13.541 Y-7.638 E0.04466
G1 X14.089 Y-7.457 E0.04443
G1 X14.650 Y-7.313 E0.04467
G1 X15.500 Y-7.172 E0.06640
G1 X16.360 Y-7.121 E0.06640
G1 X16.943 Y-7.137 E0.04490
G1 X17.799 Y-7.235 E0.06640
G1 X18.643 Y-7.422 E0.06664
G1 X19.463 Y-7.696 E0.06664
G1 X20.250 Y-8.054 E0.06664
G1 X20.996 Y-8.492 E0.06664
G1 X21.692 Y-9.005 E0.06664
G1 X22.225 Y-9.491 E0.05559
G1 X22.479 Y-9.286 E0.02518
G1 X20.846 Y-6.456 E0.25182
G1 X20.183 Y-6.154 E0.05610
G1 X19.565 Y-5.927 E0.05077
G1 X18.931 Y-5.740 E0.05090
G1 X18.287 Y-5.596 E0.05090
G1 X17.637 Y-5.495 E0.05068
G1 X16.643 Y-5.424 E0.07678
G1 X15.985 Y-5.431 E0.05069
G1 X14.973 Y-5.509 E0.07827
G1 X14.284 Y-5.490 E0.05312
G1 X13.763 Y-5.413 E0.04060
G1 X13.258 Y-5.284 E0.04013
G1 X12.923 Y-5.167 E0.02738
G1 X12.445 Y-4.952 E0.04037
G1 X11.854 Y-4.597 E0.05311
G1 X11.568 Y-4.382 E0.02761
G1 X11.180 Y-4.034 E0.04014
G1 X10.830 Y-3.649 E0.04013
G1 X10.614 Y-3.367 E0.02738
G1 X10.336 Y-2.929 E0.03990
G1 X10.172 Y-2.614 E0.02738
G1 X9.971 Y-2.131 E0.04037
G1 X9.783 Y-1.465 E0.05334
G1 X9.702 Y-0.942 E0.04078
G1 X9.681 Y-0.396 E0.04211
G1 X9.176 Y0.110 E0.05509
G1 X9.176 Y1.329 E0.09396
G1 X4.776 Y1.329 E0.33909
G1 X4.776 Y5.829 E0.34679
G1 X9.176 Y5.829 E0.33909
G1 X9.176 Y7.048 E0.09396
G1 X9.557 Y7.429 E0.04150
G1 X8.057 Y8.929 E0.16348
G1 X-17.205 Y8.929 E1.94679
G1 X-18.705 Y7.429 E0.16348
G1 X-18.324 Y7.048 E0.04150
G1 X-18.324 Y5.829 E0.09396
G1 X-13.924 Y5.829 E0.33909
G1 X-13.924 Y1.329 E0.34679
G1 X-18.324 Y1.329 E0.33909
G1 X-18.324 Y0.110 E0.09396
G1 X-18.829 Y-0.396 E0.05509
G1 X-18.850 Y-0.942 E0.04211
G1 X-18.931 Y-1.463 E0.04065
G1 X-19.084 Y-2.028 E0.04513
G1 X-19.322 Y-2.618 E0.04901
G1 X-19.662 Y-3.220 E0.05327
G1 X-19.869 Y-3.512 E0.02761
G1 X-20.204 Y-3.907 E0.03990
G1 X-20.456 Y-4.157 E0.02738
G1 X-20.854 Y-4.489 E0.03990
G1 X-21.145 Y-4.693 E0.02738
G1 X-21.594 Y-4.953 E0.04001
G1 X-21.970 Y-5.126 E0.03191
G1 X-22.404 Y-5.283 E0.03556
G1 X-22.911 Y-5.413 E0.04030
G1 X-23.432 Y-5.490 E0.04060
G1 X-24.121 Y-5.509 E0.05312
G1 X-25.133 Y-5.431 E0.07827
G1 X-25.793 Y-5.424 E0.05086
G1 X-26.499 Y-5.465 E0.05443
G1 X-27.437 Y-5.596 E0.07306
G1 X-28.079 Y-5.740 E0.05070
G1 X-28.713 Y-5.927 E0.05090
G1 X-29.331 Y-6.154 E0.05077
G1 X-29.994 Y-6.456 E0.05610
G1 X-31.611 Y-9.257 E0.24928
G1 X-31.365 Y-9.463 E0.02472
G1 X-30.604 Y-8.818 E0.07684
G1 X-29.922 Y-8.351 E0.06372
G1 X-29.384 Y-8.047 E0.04760
G1 X-28.602 Y-7.692 E0.06623
G1 X-28.052 Y-7.499 E0.04492
G1 X-27.217 Y-7.285 E0.06643
G1 X-26.361 Y-7.158 E0.06666
G1 X-25.500 Y-7.121 E0.06643
G1 X-24.918 Y-7.147 E0.04492
G1 X-24.066 Y-7.259 E0.06619
G1 X-23.497 Y-7.385 E0.04492
G1 X-22.675 Y-7.643 E0.06643
G1 X-21.884 Y-7.986 E0.06643
G1 X-21.371 Y-8.263 E0.04492
G1 X-20.654 Y-8.736 E0.06619
G1 X-20.197 Y-9.098 E0.04492
G1 X-19.570 Y-9.689 E0.06643
G1 X-19.006 Y-10.345 E0.06666
G1 X-18.514 Y-11.056 E0.06666
G1 X-18.098 Y-11.815 E0.06666
G1 X-17.763 Y-12.612 E0.06666
G1 X-17.513 Y-13.440 E0.06666
G1 X-17.351 Y-14.290 E0.06666
G1 X-17.310 Y-14.771 E0.03719
G1 X-16.974 Y-14.771 E0.02594
G1 X-10.898 Y-21.141 E0.67839
G1 X-10.781 Y-21.228 E0.01126
G1 X-10.665 Y-21.265 E0.00939
G1 X1.554 Y-21.259 E0.94165
G1 X1.641 Y-21.225 E0.00718 F720.000
G1 X1.748 Y-21.143 E0.01039
G1 X3.801 Y-18.991 E0.22922
G1 X3.546 Y-18.727 E0.02824
G1 X3.195 Y-19.041 E0.03631
G1 X1.281 Y-20.475 E0.18429
G1 X1.056 Y-20.600 E0.01982
G1 X0.814 Y-20.692 E0.01992
G1 X0.543 Y-20.752 E0.02140
G1 X0.246 Y-20.772 E0.02295
G1 X-0.013 Y-20.749 E0.02000
G1 X-0.264 Y-20.691 E0.01992
G1 X-0.523 Y-20.590 E0.02140
G1 X-0.775 Y-20.444 E0.02249
G1 X-4.689 Y-17.505 E0.37713
G1 X-5.105 Y-17.626 F15000.000
G1 E-4.20000 F1500.00000
G1 Z1.300 F15000.000
G1 X8.012 Y-18.404 F15000.000
G1 Z0.300 F15000.000
G1 E4.20000 F1500.00000
G1 X3.397 Y-23.241 E0.51525 F720.000
G1 X2.917 Y-23.612 E0.04678
G1 X2.407 Y-23.851 E0.04343
G1 X1.944 Y-23.971 E0.03683
G1 X1.518 Y-24.007 E0.03294
G1 X-10.674 Y-24.007 E0.93961
G1 X-11.168 Y-23.956 E0.03824
G1 X-11.546 Y-23.852 E0.03023
G1 X-11.899 Y-23.701 E0.02959
G1 X-12.284 Y-23.462 E0.03490
G1 X-12.563 Y-23.223 E0.02830
G1 X-17.160 Y-18.404 E0.51324
G1 X-17.350 Y-18.914 E0.04193
G1 X-17.654 Y-19.561 E0.05507
G1 X-17.979 Y-20.129 E0.05045
G1 X-18.486 Y-20.863 E0.06873
G1 X-18.892 Y-21.355 E0.04914
G1 X-19.539 Y-22.012 E0.07111
G1 X-20.252 Y-22.600 E0.07120
G1 X-20.801 Y-22.976 E0.05131
G1 X-21.580 Y-23.416 E0.06893
G1 X-22.427 Y-23.785 E0.07117
G1 X-23.062 Y-23.997 E0.05159
G1 X-23.928 Y-24.205 E0.06865
G1 X-24.843 Y-24.328 E0.07118
G1 X-25.516 Y-24.357 E0.05186
G1 X-26.402 Y-24.319 E0.06836
G1 X-27.314 Y-24.186 E0.07105
G1 X-27.921 Y-24.043 E0.04805
G1 X-28.408 Y-23.898 E0.03914
G1 X-28.827 Y-23.744 E0.03445
G1 X-29.661 Y-23.369 E0.07045
G1 X-30.458 Y-22.905 E0.07111
G1 X-30.980 Y-22.537 E0.04918
G1 X-31.679 Y-21.947 E0.07045
G1 X-32.129 Y-21.495 E0.04918
G1 X-32.721 Y-20.787 E0.07111
G1 X-33.237 Y-20.020 E0.07127
G1 X-33.567 Y-19.417 E0.05298
G1 X-33.919 Y-18.619 E0.06723
G1 X-34.206 Y-17.734 E0.07169
G1 X-34.399 Y-16.831 E0.07111
G1 X-34.482 Y-16.053 E0.06031
G1 X-34.761 Y-15.984 E0.02214
G1 X-34.895 Y-16.217 E0.02075
G1 X-34.845 Y-16.734 E0.04002
G1 X-34.735 Y-17.361 E0.04907
G1 X-34.551 Y-18.078 E0.05705
G1 X-34.263 Y-18.910 E0.06787
G1 X-34.009 Y-19.486 E0.04851
G1 X-33.540 Y-20.341 E0.07516
G1 X-32.994 Y-21.132 E0.07407
G1 X-32.580 Y-21.634 E0.05010
G1 X-32.134 Y-22.103 E0.04994
G1 X-31.816 Y-22.399 E0.03344
G1 X-31.414 Y-22.740 E0.04062
G1 X-30.895 Y-23.126 E0.04985
G1 X-25.197 Y-26.785 E0.52189
G1 X16.049 Y-26.785 E3.17866
G1 X17.949 Y-25.568 E0.17390
G1 X21.465 Y-23.314 E0.32182 F720.000
G1 X22.009 Y-22.938 E0.05101
G1 X22.513 Y-22.536 E0.04967
G1 X22.988 Y-22.100 E0.04967
G1 X23.432 Y-21.633 E0.04967
G1 X23.843 Y-21.137 E0.04967
G1 X24.219 Y-20.613 E0.04967
G1 X24.554 Y-20.070 E0.04917
G1 X24.951 Y-19.291 E0.06741
G1 X25.234 Y-18.600 E0.05751
G1 X25.431 Y-17.990 E0.04940
G1 X25.586 Y-17.364 E0.04967
G1 X25.697 Y-16.734 E0.04933
G1 X25.747 Y-16.217 E0.04002
G1 X25.612 Y-15.983 E0.02079
G1 X25.335 Y-16.050 E0.02198
G1 X25.327 Y-16.223 E0.01329
G1 X25.196 Y-17.138 E0.07127
G1 X24.970 Y-18.040 E0.07166
G1 X24.675 Y-18.856 E0.06690
G1 X24.386 Y-19.484 E0.05326
G1 X23.923 Y-20.285 E0.07125
