; generated by Slic3r 1.2.9 on 2019-08-19 at 14:55:41

; external perimeters extrusion width = 0.40mm
; perimeters extrusion width = 0.40mm
; infill extrusion width = 0.40mm
; solid infill extrusion width = 0.40mm
; top infill extrusion width = 0.40mm

M107
M83
T0
M116
G21 ; set units to millimeters
G90 ; use absolute coordinates
M83 ; use relative distances for extrusion
G1 E-4.20000 F1500.00000
G1 Z1.000 F15000.000
G1 X-17.330 Y0.049 F15000.000
G1 Z0.300 F15000.000
G1 E4.20000 F1500.00000
G1 X-17.349 Y-17.089 E1.32075 F960.000
G1 X-16.954 Y-18.736 E0.13052
G1 X-15.856 Y-20.026 E0.13052
G1 X-13.713 Y-20.725 E0.17372
G1 X13.685 Y-20.725 E2.11150
G1 X15.333 Y-20.330 E0.13052
G1 X16.622 Y-19.232 E0.13052 F960.000
G1 X17.321 Y-17.113 E0.17196
G1 X17.473 Y5.722 E1.75985
G1 X17.473 Y16.146 E0.80332
G1 X17.079 Y17.793 E0.13052
G1 X15.981 Y19.083 E0.13052
G1 X13.838 Y19.782 E0.17374
G1 X-13.562 Y19.781 E2.11155
G1 X-15.209 Y19.386 E0.13052
G1 X-16.499 Y18.288 E0.13052
G1 X-17.197 Y16.183 E0.17092
G1 X-17.317 Y4.778 E0.87903
G1 X-17.330 Y0.109 E0.35979
G1 E-4.20000 F1500.00000
G1 Z1.300 F15000.000
G1 X-10.872 Y-7.676 F15000.000
G1 Z0.300 F15000.000
G1 E4.20000 F1500.00000
G1 X-12.728 Y-7.676 E0.14304 F720.000
G1 X-12.728 Y-16.103 E0.64946
G1 X12.700 Y-16.103 E1.95959
G1 X12.700 Y-13.070 E0.23379
G1 X12.700 Y-7.675 E0.41574 F720.000
G1 X-10.812 Y-7.676 E1.81197
G1 X-10.812 Y-7.040 F15000.000
G1 X-13.364 Y-7.040 E0.19665 F720.000
G1 X-13.363 Y-16.739 E0.74743
G1 X13.336 Y-16.739 E2.05756
G1 X13.336 Y-13.070 E0.28278
G1 X13.336 Y-7.039 E0.46473 F720.000
G1 X-10.752 Y-7.040 E1.85633
G1 X-11.012 Y-7.387 F15000.000
G1 X-12.033 Y-8.061 F15000.000
G1 X-12.343 Y-8.371 E0.03400 F960.000
G1 X-12.343 Y-9.276 E0.07030
G1 X-11.127 Y-8.061 E0.13342
G1 X-10.222 Y-8.061 E0.07031
G1 X-12.343 Y-10.182 E0.23284
G1 X-12.343 Y-11.087 E0.07030
G1 X-9.316 Y-8.061 E0.33227
G1 X-8.411 Y-8.061 E0.07031
G1 X-12.343 Y-11.993 E0.43169
G1 X-12.342 Y-12.898 E0.07030
G1 X-7.505 Y-8.061 E0.53111
G1 X-6.600 Y-8.061 E0.07031
G1 X-12.342 Y-13.804 E0.63053
G1 X-12.342 Y-14.709 E0.07030
G1 X-5.694 Y-8.061 E0.72996
G1 X-4.788 Y-8.061 E0.07031
G1 X-12.342 Y-15.615 E0.82938
G1 X-11.540 Y-15.718 E0.06283
G1 X-3.883 Y-8.061 E0.84068
G1 X-2.977 Y-8.061 E0.07031
G1 X-10.634 Y-15.718 E0.84068
G1 X-9.729 Y-15.718 E0.07030
G1 X-2.072 Y-8.061 E0.84069
G1 X-1.166 Y-8.061 E0.07031
G1 X-8.823 Y-15.718 E0.84069
G1 X-7.917 Y-15.718 E0.07030
G1 X-0.260 Y-8.061 E0.84069
G1 X0.645 Y-8.061 E0.07031
G1 X-7.012 Y-15.718 E0.84070
G1 X-6.106 Y-15.718 E0.07030
G1 X1.551 Y-8.061 E0.84070
G1 X2.456 Y-8.061 E0.07031
G1 X-5.201 Y-15.718 E0.84071
G1 X-4.295 Y-15.718 E0.07030
G1 X3.362 Y-8.061 E0.84071
G1 X4.268 Y-8.061 E0.07031
G1 X-3.390 Y-15.718 E0.84071
G1 X-2.484 Y-15.718 E0.07030
G1 X5.173 Y-8.061 E0.84072
G1 X6.079 Y-8.061 E0.07031
G1 X-1.579 Y-15.718 E0.84072
G1 X-0.673 Y-15.718 E0.07030
G1 X6.984 Y-8.061 E0.84072
G1 X7.890 Y-8.061 E0.07031
G1 X0.233 Y-15.718 E0.84073
G1 X1.138 Y-15.718 E0.07030
G1 X8.796 Y-8.060 E0.84073
G1 X9.701 Y-8.060 E0.07031
G1 X2.044 Y-15.718 E0.84074
G1 X2.949 Y-15.718 E0.07030
G1 X10.607 Y-8.060 E0.84074
G1 X11.512 Y-8.060 E0.07031
G1 X3.855 Y-15.718 E0.84074
G1 X4.760 Y-15.718 E0.07030
G1 X12.315 Y-8.164 E0.82941
G1 X12.315 Y-9.069 E0.07030
G1 X5.666 Y-15.718 E0.72998
G1 X6.571 Y-15.718 E0.07030
G1 X12.315 Y-9.975 E0.63055
G1 X12.315 Y-10.880 E0.07030
G1 X7.477 Y-15.718 E0.53113
G1 X8.383 Y-15.718 E0.07030
G1 X12.315 Y-11.786 E0.43170
G1 X12.315 Y-12.691 E0.07030
G1 X9.288 Y-15.718 E0.33228
G1 X10.194 Y-15.718 E0.07030
G1 X12.315 Y-13.597 E0.23285
G1 X12.314 Y-14.503 E0.07030
G1 X11.099 Y-15.718 E0.13343
G1 X12.005 Y-15.718 E0.07030
G1 X12.314 Y-15.408 E0.03400
G1 E-4.20000 F1500.00000
G1 Z1.300 F15000.000
G1 X12.732 Y-1.584 F15000.000
G1 Z0.300 F15000.000
G1 E4.20000 F1500.00000
G1 X12.732 Y3.755 E0.41143 F720.000
G1 X-12.696 Y3.754 E1.95963
G1 X-12.695 Y-4.674 E0.64946
G1 X12.732 Y-4.674 E1.95959
G1 X12.732 Y-1.644 E0.23348
G1 X13.368 Y-1.644 F15000.000
G1 X13.368 Y-1.640 E0.00031 F720.000
G1 X13.368 Y4.390 E0.46473 F720.000
G1 X-13.332 Y4.389 E2.05761
G1 X-13.331 Y-5.309 E0.74743
G1 X13.368 Y-5.309 E2.05756
G1 X13.368 Y-1.704 E0.27784
G1 X13.364 Y-1.642 F15000.000
G1 X12.347 Y-3.979 F15000.000
G1 X12.037 Y-4.288 E0.03400 F960.000
G1 X11.132 Y-4.288 E0.07030
G1 X12.347 Y-3.073 E0.13343
G1 X12.347 Y-2.167 E0.07030
G1 X10.226 Y-4.288 E0.23285
G1 X9.320 Y-4.288 E0.07030
G1 X12.347 Y-1.262 E0.33228
G1 X12.347 Y-0.356 E0.07030
G1 X8.415 Y-4.288 E0.43170
G1 X7.509 Y-4.288 E0.07030
G1 X12.347 Y0.549 E0.53113
G1 X12.347 Y1.455 E0.07030
G1 X6.604 Y-4.288 E0.63055
G1 X5.698 Y-4.288 E0.07030
G1 X12.347 Y2.360 E0.72998
G1 X12.347 Y3.266 E0.07030
G1 X4.793 Y-4.288 E0.82941
G1 X3.887 Y-4.288 E0.07030
G1 X11.545 Y3.369 E0.84074
G1 X10.639 Y3.369 E0.07031
G1 X2.982 Y-4.288 E0.84074
G1 X2.076 Y-4.288 E0.07030
G1 X9.733 Y3.369 E0.84074
G1 X8.828 Y3.369 E0.07031
G1 X1.170 Y-4.288 E0.84073
G1 X0.265 Y-4.288 E0.07030
G1 X7.922 Y3.369 E0.84073
G1 X7.017 Y3.369 E0.07031
G1 X-0.641 Y-4.288 E0.84072
G1 X-1.546 Y-4.288 E0.07030
G1 X6.111 Y3.369 E0.84072
G1 X5.205 Y3.369 E0.07031
G1 X-2.452 Y-4.288 E0.84072
G1 X-3.357 Y-4.288 E0.07030
G1 X4.300 Y3.369 E0.84071
G1 X3.394 Y3.369 E0.07031
G1 X-4.263 Y-4.288 E0.84071
G1 X-5.168 Y-4.288 E0.07030
G1 X2.489 Y3.369 E0.84071
G1 X1.583 Y3.369 E0.07031
G1 X-6.074 Y-4.288 E0.84070
G1 X-6.980 Y-4.288 E0.07030
G1 X0.677 Y3.369 E0.84070
G1 X-0.228 Y3.369 E0.07031
G1 X-7.885 Y-4.288 E0.84069
G1 X-8.791 Y-4.288 E0.07030
G1 X-1.134 Y3.369 E0.84069
G1 X-2.039 Y3.369 E0.07031
G1 X-9.696 Y-4.288 E0.84069
G1 X-10.602 Y-4.288 E0.07030
G1 X-2.945 Y3.369 E0.84068
G1 X-3.850 Y3.369 E0.07031
G1 X-11.507 Y-4.288 E0.84068
G1 X-12.310 Y-4.185 E0.06283
G1 X-4.756 Y3.369 E0.82938
G1 X-5.662 Y3.369 E0.07031
G1 X-12.310 Y-3.280 E0.72996
G1 X-12.310 Y-2.374 E0.07030
G1 X-6.567 Y3.369 E0.63053
G1 X-7.473 Y3.369 E0.07031
G1 X-12.310 Y-1.469 E0.53111
G1 X-12.310 Y-0.563 E0.07030
G1 X-8.378 Y3.369 E0.43169
G1 X-9.284 Y3.368 E0.07031
G1 X-12.310 Y0.342 E0.33227
G1 X-12.310 Y1.248 E0.07030
G1 X-10.190 Y3.368 E0.23284
G1 X-11.095 Y3.368 E0.07031
G1 X-12.310 Y2.153 E0.13342
G1 X-12.310 Y3.059 E0.07030
G1 X-12.001 Y3.368 E0.03400
G1 E-4.20000 F1500.00000
G1 Z1.300 F15000.000
G1 X-11.812 Y6.732 F15000.000
G1 Z0.300 F15000.000
G1 E4.20000 F1500.00000
G1 X12.852 Y6.732 E1.90076 F720.000
G1 X12.852 Y9.766 E0.23379
G1 X12.852 Y15.160 E0.41574 F720.000
G1 X-12.576 Y15.159 E1.95963
G1 X-12.576 Y6.732 E0.64946
G1 X-11.872 Y6.732 E0.05420
G1 X-11.872 Y6.096 F15000.000
G1 X13.488 Y6.096 E1.95437 F720.000
G1 X13.488 Y9.766 E0.28278
G1 X13.488 Y15.796 E0.46473 F720.000
G1 X-13.212 Y15.795 E2.05761
G1 X-13.211 Y6.096 E0.74743
G1 X-11.932 Y6.096 E0.09856
G1 X-11.672 Y6.443 F15000.000
G1 X-11.881 Y14.774 F15000.000
G1 X-12.191 Y14.464 E0.03400 F960.000
G1 X-12.191 Y13.559 E0.07030
G1 X-10.975 Y14.774 E0.13342
G1 X-10.070 Y14.774 E0.07031
G1 X-12.191 Y12.653 E0.23284
G1 X-12.191 Y11.748 E0.07030
G1 X-9.164 Y14.774 E0.33227
G1 X-8.259 Y14.774 E0.07031
G1 X-12.190 Y10.842 E0.43169
G1 X-12.190 Y9.937 E0.07030
G1 X-7.353 Y14.774 E0.53111
G1 X-6.447 Y14.774 E0.07031
G1 X-12.190 Y9.031 E0.63053
G1 X-12.190 Y8.126 E0.07030
G1 X-5.542 Y14.774 E0.72996
G1 X-4.636 Y14.774 E0.07031
G1 X-12.190 Y7.220 E0.82938
G1 X-11.388 Y7.117 E0.06283
G1 X-3.731 Y14.774 E0.84068
G1 X-2.825 Y14.774 E0.07031
G1 X-10.482 Y7.117 E0.84068
G1 X-9.576 Y7.117 E0.07030
G1 X-1.920 Y14.774 E0.84069
G1 X-1.014 Y14.774 E0.07031
G1 X-8.671 Y7.117 E0.84069
G1 X-7.765 Y7.117 E0.07030
G1 X-0.108 Y14.774 E0.84069
G1 X0.797 Y14.775 E0.07031
G1 X-6.860 Y7.117 E0.84070
G1 X-5.954 Y7.117 E0.07030
G1 X1.703 Y14.775 E0.84070
G1 X2.608 Y14.775 E0.07031
G1 X-5.049 Y7.117 E0.84071
G1 X-4.143 Y7.117 E0.07030
G1 X3.514 Y14.775 E0.84071
G1 X4.420 Y14.775 E0.07031
G1 X-3.238 Y7.117 E0.84071
G1 X-2.332 Y7.117 E0.07030
G1 X5.325 Y14.775 E0.84072
G1 X6.231 Y14.775 E0.07031
G1 X-1.426 Y7.117 E0.84072
G1 X-0.521 Y7.117 E0.07030
G1 X7.136 Y14.775 E0.84072
G1 X8.042 Y14.775 E0.07031
G1 X0.385 Y7.117 E0.84073
G1 X1.290 Y7.117 E0.07030
G1 X8.948 Y14.775 E0.84073
G1 X9.853 Y14.775 E0.07031
G1 X2.196 Y7.117 E0.84074
G1 X3.101 Y7.117 E0.07030
G1 X10.759 Y14.775 E0.84074
G1 X11.664 Y14.775 E0.07031
G1 X4.007 Y7.117 E0.84074
G1 X4.912 Y7.117 E0.07030
G1 X12.467 Y14.672 E0.82941
G1 X12.467 Y13.766 E0.07030
G1 X5.818 Y7.117 E0.72998
G1 X6.724 Y7.117 E0.07030
G1 X12.467 Y12.861 E0.63055
G1 X12.467 Y11.955 E0.07030
G1 X7.629 Y7.117 E0.53113
G1 X8.535 Y7.117 E0.07030
G1 X12.467 Y11.049 E0.43170
G1 X12.467 Y10.144 E0.07030
G1 X9.440 Y7.117 E0.33228
G1 X10.346 Y7.117 E0.07030
G1 X12.467 Y9.238 E0.23285
G1 X12.467 Y8.333 E0.07030
G1 X11.251 Y7.117 E0.13343
G1 X12.157 Y7.117 E0.07030
G1 X12.467 Y7.427 E0.03400
G1 E-4.20000 F1500.00000
G1 Z1.300 F15000.000
G1 X-11.732 Y-6.997 F15000.000
G1 Z0.500 F15000.000
G1 E4.20000 F1500.00000
G1 X-13.407 Y-6.997 E0.04834 F3600.000
G1 X-13.406 Y-16.782 E0.28240
G1 X13.378 Y-16.782 E0.77308
G1 X13.379 Y-6.996 E0.28243
G1 X-11.672 Y-6.997 E0.72302 F3600.000
G1 X-11.672 Y-6.640 F15000.000
G1 X-13.764 Y-6.640 E0.06038 F3600.000
G1 X-13.763 Y-17.139 E0.30302
G1 X13.736 Y-17.139 E0.79369
G1 X13.736 Y-7.026 E0.29190
G1 X13.736 Y-6.639 E0.01115 F3600.000
G1 X-11.612 Y-6.640 E0.73159
G1 X-11.872 Y-6.987 F15000.000
G1 E-4.20000 F1500.00000
G1 Z1.500 F15000.000
G1 X-13.007 Y-16.574 F15000.000
G1 Z0.500 F15000.000
G1 E4.20000 F1500.00000
G1 X-13.198 Y-16.383 E0.00782 F4800.000
G1 X-13.198 Y-15.877 E0.01458
G1 X-12.502 Y-16.574 E0.02844
G1 X-11.997 Y-16.574 E0.01458
G1 X-13.199 Y-15.372 E0.04906
G1 X-13.199 Y-14.867 E0.01458
G1 X-11.492 Y-16.574 E0.06968
G1 X-10.987 Y-16.574 E0.01458
G1 X-13.199 Y-14.362 E0.09030
G1 X-13.199 Y-13.857 E0.01458
G1 X-10.482 Y-16.574 E0.11093
G1 X-9.976 Y-16.574 E0.01458
G1 X-13.199 Y-13.352 E0.13155
G1 X-13.199 Y-12.847 E0.01458
G1 X-9.471 Y-16.574 E0.15217
G1 X-8.966 Y-16.574 E0.01458
G1 X-13.199 Y-12.342 E0.17279
G1 X-13.199 Y-11.837 E0.01458
G1 X-8.461 Y-16.574 E0.19341
G1 X-7.956 Y-16.574 E0.01458
G1 X-13.199 Y-11.331 E0.21404
G1 X-13.199 Y-10.826 E0.01458
G1 X-7.451 Y-16.574 E0.23466
G1 X-6.946 Y-16.574 E0.01458
G1 X-13.199 Y-10.321 E0.25528
G1 X-13.199 Y-9.816 E0.01458
G1 X-6.441 Y-16.574 E0.27590
G1 X-5.936 Y-16.574 E0.01458
G1 X-13.199 Y-9.311 E0.29652
G1 X-13.199 Y-8.806 E0.01458
G1 X-5.431 Y-16.574 E0.31715
G1 X-4.926 Y-16.574 E0.01458
G1 X-13.199 Y-8.301 E0.33777
G1 X-13.199 Y-7.796 E0.01458
G1 X-4.420 Y-16.574 E0.35839
G1 X-3.915 Y-16.574 E0.01458
G1 X-13.199 Y-7.291 E0.37901
G1 X-12.779 Y-7.205 E0.01236
G1 X-3.410 Y-16.574 E0.38250
G1 X-2.905 Y-16.574 E0.01458
G1 X-12.274 Y-7.205 E0.38250
G1 X-11.769 Y-7.205 E0.01458
G1 X-2.400 Y-16.574 E0.38250
G1 X-1.895 Y-16.574 E0.01458
G1 X-11.264 Y-7.205 E0.38250
G1 X-10.759 Y-7.205 E0.01458
G1 X-1.390 Y-16.574 E0.38250
G1 X-0.885 Y-16.574 E0.01458
G1 X-10.254 Y-7.205 E0.38250
G1 X-9.749 Y-7.205 E0.01458
G1 X-0.380 Y-16.574 E0.38251
G1 X0.125 Y-16.574 E0.01458
G1 X-9.244 Y-7.205 E0.38251
G1 X-8.739 Y-7.205 E0.01458
G1 X0.630 Y-16.574 E0.38251
G1 X1.135 Y-16.574 E0.01458
G1 X-8.234 Y-7.205 E0.38251
G1 X-7.729 Y-7.205 E0.01458
G1 X1.641 Y-16.574 E0.38251
G1 X2.146 Y-16.574 E0.01458
G1 X-7.224 Y-7.205 E0.38251
G1 X-6.718 Y-7.205 E0.01458
G1 X2.651 Y-16.574 E0.38251
G1 X3.156 Y-16.574 E0.01458
G1 X-6.213 Y-7.205 E0.38251
G1 X-5.708 Y-7.205 E0.01458
G1 X3.661 Y-16.574 E0.38251
G1 X4.166 Y-16.574 E0.01458
G1 X-5.203 Y-7.205 E0.38251
G1 X-4.698 Y-7.205 E0.01458
G1 X4.671 Y-16.574 E0.38251
G1 X5.176 Y-16.574 E0.01458
G1 X-4.193 Y-7.205 E0.38251
G1 X-3.688 Y-7.205 E0.01458
G1 X5.681 Y-16.574 E0.38251
G1 X6.186 Y-16.574 E0.01458
G1 X-3.183 Y-7.205 E0.38252
G1 X-2.678 Y-7.205 E0.01458
G1 X6.691 Y-16.574 E0.38252
G1 X7.197 Y-16.574 E0.01458
G1 X-2.173 Y-7.205 E0.38252
G1 X-1.668 Y-7.205 E0.01458
G1 X7.702 Y-16.574 E0.38252
G1 X8.207 Y-16.574 E0.01458
G1 X-1.163 Y-7.205 E0.38252
G1 X-0.658 Y-7.205 E0.01458
G1 X8.712 Y-16.574 E0.38252
G1 X9.217 Y-16.574 E0.01458
G1 X-0.153 Y-7.205 E0.38252
G1 X0.353 Y-7.205 E0.01458
G1 X9.722 Y-16.574 E0.38252
G1 X10.227 Y-16.574 E0.01458
G1 X0.858 Y-7.205 E0.38252
G1 X1.363 Y-7.205 E0.01458
G1 X10.732 Y-16.574 E0.38252
G1 X11.237 Y-16.574 E0.01458
G1 X1.868 Y-7.205 E0.38252
G1 X2.373 Y-7.205 E0.01458
G1 X11.742 Y-16.574 E0.38252
G1 X12.247 Y-16.574 E0.01458
G1 X2.878 Y-7.204 E0.38253
G1 X3.383 Y-7.204 E0.01458
G1 X12.753 Y-16.574 E0.38253
G1 X13.171 Y-16.487 E0.01233
G1 X3.888 Y-7.204 E0.37898
G1 X4.393 Y-7.204 E0.01458
G1 X13.171 Y-15.982 E0.35836
G1 X13.171 Y-15.477 E0.01458
G1 X4.898 Y-7.204 E0.33774
G1 X5.403 Y-7.204 E0.01458
G1 X13.171 Y-14.972 E0.31712
G1 X13.171 Y-14.467 E0.01458
G1 X5.908 Y-7.204 E0.29650
G1 X6.413 Y-7.204 E0.01458
G1 X13.171 Y-13.962 E0.27588
G1 X13.171 Y-13.457 E0.01458
G1 X6.918 Y-7.204 E0.25526
G1 X7.424 Y-7.204 E0.01458
G1 X13.171 Y-12.952 E0.23464
G1 X13.171 Y-12.446 E0.01458
G1 X7.929 Y-7.204 E0.21402
G1 X8.434 Y-7.204 E0.01458
G1 X13.171 Y-11.941 E0.19340
G1 X13.171 Y-11.436 E0.01458
G1 X8.939 Y-7.204 E0.17278
G1 X9.444 Y-7.204 E0.01458
G1 X13.171 Y-10.931 E0.15216
G1 X13.171 Y-10.426 E0.01458
G1 X9.949 Y-7.204 E0.13154
G1 X10.454 Y-7.204 E0.01458
G1 X13.171 Y-9.921 E0.11092
G1 X13.171 Y-9.416 E0.01458
G1 X10.959 Y-7.204 E0.09030
G1 X11.464 Y-7.204 E0.01458
G1 X13.171 Y-8.911 E0.06968
G1 X13.171 Y-8.406 E0.01458
G1 X11.969 Y-7.204 E0.04906
G1 X12.474 Y-7.204 E0.01458
G1 X13.171 Y-7.901 E0.02844
G1 X13.171 Y-7.396 E0.01458
G1 X12.979 Y-7.204 E0.00782
G1 E-4.20000 F1500.00000
G1 Z1.500 F15000.000
G1 X11.791 Y4.433 F15000.000
G1 Z0.500 F15000.000
G1 E4.20000 F1500.00000
G1 X-13.374 Y4.432 E0.72633 F3600.000
G1 X-13.374 Y-5.352 E0.28240
G1 X13.411 Y-5.352 E0.77308
G1 X13.411 Y4.433 E0.28243
G1 X11.851 Y4.433 E0.04503 F3600.000
G1 X11.851 Y4.790 F15000.000
G1 X-13.732 Y4.789 E0.73837 F3600.000
G1 X-13.731 Y-5.709 E0.30302
G1 X13.768 Y-5.709 E0.79369
G1 X13.768 Y4.404 E0.29190
G1 X13.768 Y4.790 E0.01115 F3600.000
G1 X11.911 Y4.790 E0.05361
G1 X11.651 Y4.444 F15000.000
G1 X13.012 Y4.226 F15000.000
G1 X13.203 Y4.034 E0.00782 F4800.000
G1 X13.203 Y3.529 E0.01458
G1 X12.507 Y4.226 E0.02844
G1 X12.001 Y4.226 E0.01458
G1 X13.203 Y3.024 E0.04906
G1 X13.203 Y2.519 E0.01458
G1 X11.496 Y4.225 E0.06968
G1 X10.991 Y4.225 E0.01458
G1 X13.203 Y2.014 E0.09030
G1 X13.203 Y1.509 E0.01458
G1 X10.486 Y4.225 E0.11092
G1 X9.981 Y4.225 E0.01458
G1 X13.203 Y1.004 E0.13154
G1 X13.203 Y0.498 E0.01458
G1 X9.476 Y4.225 E0.15216
G1 X8.971 Y4.225 E0.01458
G1 X13.203 Y-0.007 E0.17278
G1 X13.203 Y-0.512 E0.01458
G1 X8.466 Y4.225 E0.19340
G1 X7.961 Y4.225 E0.01458
G1 X13.203 Y-1.017 E0.21402
G1 X13.203 Y-1.522 E0.01458
G1 X7.456 Y4.225 E0.23464
G1 X6.951 Y4.225 E0.01458
G1 X13.203 Y-2.027 E0.25526
G1 X13.203 Y-2.532 E0.01458
G1 X6.446 Y4.225 E0.27588
G1 X5.941 Y4.225 E0.01458
G1 X13.203 Y-3.037 E0.29650
G1 X13.203 Y-3.542 E0.01458
G1 X5.436 Y4.225 E0.31712
G1 X4.930 Y4.225 E0.01458
G1 X13.203 Y-4.047 E0.33774
G1 X13.203 Y-4.552 E0.01458
G1 X4.425 Y4.225 E0.35836
G1 X3.920 Y4.225 E0.01458
G1 X13.203 Y-5.057 E0.37898
G1 X12.785 Y-5.144 E0.01233
G1 X3.415 Y4.225 E0.38253
G1 X2.910 Y4.225 E0.01458
G1 X12.280 Y-5.144 E0.38253
G1 X11.775 Y-5.144 E0.01458
G1 X2.405 Y4.225 E0.38252
G1 X1.900 Y4.225 E0.01458
G1 X11.270 Y-5.144 E0.38252
G1 X10.764 Y-5.144 E0.01458
G1 X1.395 Y4.225 E0.38252
G1 X0.890 Y4.225 E0.01458
G1 X10.259 Y-5.144 E0.38252
G1 X9.754 Y-5.144 E0.01458
G1 X0.385 Y4.225 E0.38252
G1 X-0.120 Y4.225 E0.01458
G1 X9.249 Y-5.144 E0.38252
G1 X8.744 Y-5.144 E0.01458
G1 X-0.625 Y4.225 E0.38252
G1 X-1.130 Y4.225 E0.01458
G1 X8.239 Y-5.144 E0.38252
G1 X7.734 Y-5.144 E0.01458
G1 X-1.635 Y4.225 E0.38252
G1 X-2.141 Y4.225 E0.01458
G1 X7.229 Y-5.144 E0.38252
G1 X6.724 Y-5.144 E0.01458
G1 X-2.646 Y4.225 E0.38252
G1 X-3.151 Y4.225 E0.01458
G1 X6.219 Y-5.144 E0.38252
G1 X5.714 Y-5.144 E0.01458
G1 X-3.656 Y4.225 E0.38251
G1 X-4.161 Y4.225 E0.01458
G1 X5.209 Y-5.144 E0.38251
G1 X4.703 Y-5.144 E0.01458
G1 X-4.666 Y4.225 E0.38251
G1 X-5.171 Y4.225 E0.01458
G1 X4.198 Y-5.144 E0.38251
G1 X3.693 Y-5.144 E0.01458
G1 X-5.676 Y4.225 E0.38251
