; generated by Slic3r 1.2.9 on 2019-06-25 at 15:09:10

; external perimeters extrusion width = 0.40mm
; perimeters extrusion width = 0.40mm
; infill extrusion width = 0.40mm
; solid infill extrusion width = 0.40mm
; top infill extrusion width = 0.40mm

M107
M83
T0
M116
G21 ; set units to millimeters
G90 ; use absolute coordinates
M83 ; use relative distances for extrusion
G1 E-4.20000 F1500.00000
G1 Z1.000 F15000.000
G1 X19.089 Y-3.871 F15000.000
G1 Z0.300 F15000.000
G1 E4.20000 F1500.00000
G1 X21.272 Y6.897 E0.84666 F960.000
G1 X21.335 Y7.303 E0.03168
G1 X21.366 Y7.777 E0.03665
G1 X21.366 Y30.771 E1.77200
G1 X21.314 Y31.404 E0.04895
G1 X21.068 Y32.321 E0.07315
G1 X21.008 Y32.465 E0.01206
G1 X20.534 Y33.287 E0.07314
G1 X20.438 Y33.411 E0.01206
G1 X19.767 Y34.082 E0.07313
G1 X19.643 Y34.178 E0.01206
G1 X18.821 Y34.652 E0.07316
G1 X18.676 Y34.712 E0.01206
G1 X17.760 Y34.958 E0.07312
G1 X17.127 Y35.010 E0.04896
G1 X2.632 Y35.010 E1.11709
G1 X1.454 Y34.943 E0.09091
G1 X1.001 Y34.886 E0.03519
G1 X0.068 Y34.708 E0.07319
G1 X-0.374 Y34.594 E0.03519
G1 X-1.375 Y34.268 E0.08111
G1 X-30.934 Y23.724 E2.41855
G1 X-31.561 Y23.465 E0.05230
G1 X-32.383 Y22.990 E0.07314
G1 X-32.921 Y22.577 E0.05230
G1 X-33.592 Y21.906 E0.07314
G1 X-34.005 Y21.368 E0.05230
G1 X-34.480 Y20.546 E0.07314
G1 X-34.740 Y19.919 E0.05230
G1 X-34.985 Y19.002 E0.07314
G1 X-35.074 Y18.326 E0.05255
G1 X-35.105 Y17.851 E0.03665
G1 X-35.105 Y-31.224 E3.78202
G1 X-35.053 Y-31.974 E0.05796
G1 X-34.877 Y-33.194 E0.09494
G1 X-34.655 Y-34.025 E0.06634
G1 X-34.082 Y-35.427 E0.11669
G1 X-33.980 Y-35.634 E0.01777
G1 X-33.631 Y-36.204 E0.05151
G1 X-32.715 Y-37.409 E0.11669
G1 X-32.227 Y-37.919 E0.05439
G1 X-31.834 Y-38.249 E0.03952
G1 X-30.848 Y-38.987 E0.09494
G1 X-30.278 Y-39.336 E0.05151
G1 X-29.813 Y-39.553 E0.03952
G1 X-28.669 Y-40.011 E0.09494
G1 X-27.838 Y-40.233 E0.06634
G1 X-26.619 Y-40.409 E0.09494
G1 X-25.868 Y-40.461 E0.05796
G1 X4.366 Y-40.454 E2.33004
G1 X4.835 Y-40.415 E0.03622 F960.000
G1 X5.828 Y-40.284 E0.07720
G1 X6.289 Y-40.201 E0.03610
G1 X6.748 Y-40.078 E0.03665
G1 X7.230 Y-39.902 E0.03952
G1 X8.362 Y-39.417 E0.09494
G1 X9.108 Y-38.987 E0.06634
G1 X10.094 Y-38.249 E0.09494
G1 X10.487 Y-37.919 E0.03952
G1 X10.823 Y-37.583 E0.03664
G1 X11.153 Y-37.190 E0.03952
G1 X11.891 Y-36.204 E0.09494
G1 X12.321 Y-35.458 E0.06634
G1 X12.807 Y-34.326 E0.09494
G1 X12.982 Y-33.844 E0.03952
G1 X13.102 Y-33.398 E0.03562
G1 X19.077 Y-3.929 E2.31720
G1 E-4.20000 F1500.00000
G1 Z1.300 F15000.000
G1 X11.955 Y-3.929 F15000.000
G1 Z0.300 F15000.000
G1 E4.20000 F1500.00000
G1 X11.955 Y3.611 E0.58109 F960.000
G1 X12.007 Y4.032 E0.03270
G1 X12.154 Y4.386 E0.02952
G1 X12.346 Y4.618 E0.02317
G1 X12.591 Y4.792 E0.02317
G1 X12.872 Y4.897 E0.02317
G1 X13.252 Y4.947 E0.02950
G1 X17.200 Y4.950 E0.30423
G1 X17.720 Y5.008 E0.04037
G1 X18.002 Y5.084 E0.02247
G1 X18.416 Y5.255 E0.03454
G1 X18.669 Y5.401 E0.02247
G1 X19.024 Y5.674 E0.03454
G1 X19.230 Y5.880 E0.02248
G1 X19.503 Y6.236 E0.03454
G1 X19.649 Y6.488 E0.02247
G1 X19.820 Y6.902 E0.03454
G1 X19.896 Y7.184 E0.02247
G1 X19.955 Y7.705 E0.04037
G1 X19.955 Y30.844 E1.78323
G1 X19.896 Y31.364 E0.04037
G1 X19.820 Y31.646 E0.02248
G1 X19.649 Y32.060 E0.03454
G1 X19.503 Y32.313 E0.02247
G1 X19.230 Y32.668 E0.03453
G1 X19.024 Y32.874 E0.02247
G1 X18.669 Y33.147 E0.03454
G1 X18.416 Y33.293 E0.02248
G1 X18.002 Y33.464 E0.03454
G1 X17.720 Y33.540 E0.02247
G1 X17.200 Y33.599 E0.04038
G1 X2.597 Y33.599 E1.12540
G1 X1.473 Y33.530 E0.08679
G1 X0.128 Y33.274 E0.10548
G1 X-0.883 Y32.945 E0.08193
G1 X-1.291 Y32.780 E0.03395
G1 X-2.427 Y32.196 E0.09841
G1 X-3.458 Y31.484 E0.09659
G1 X-4.366 Y30.672 E0.09388
G1 X-5.173 Y29.744 E0.09475
G1 X-5.856 Y28.722 E0.09472
G1 X-6.339 Y27.775 E0.08193
G1 X-6.541 Y27.287 E0.04068
G1 X-6.904 Y26.141 E0.09269
G1 X-7.126 Y24.932 E0.09473
G1 X-7.195 Y23.808 E0.08679
G1 X-7.195 Y20.937 E0.22121
G1 X-7.230 Y20.390 E0.04226
G1 X-7.324 Y19.913 E0.03749
G1 X-7.496 Y19.413 E0.04074
G1 X-7.717 Y18.979 E0.03749
G1 X-7.974 Y18.601 E0.03527
G1 X-8.270 Y18.263 E0.03464
G1 X-8.692 Y17.903 E0.04269
G1 X-9.656 Y17.277 E0.08859
G1 X-10.195 Y16.284 E0.08706
G1 X-10.195 Y14.233 E0.15806
G1 X-9.786 Y13.347 E0.07518
G1 X-8.968 Y12.642 E0.08328
G1 X-8.727 Y12.361 E0.02851
G1 X-8.505 Y12.006 E0.03223
G1 X-8.326 Y11.574 E0.03607
G1 X-8.240 Y11.216 E0.02839
G1 X-8.208 Y10.865 E0.02716
G1 X-8.298 Y10.128 E0.05718
G1 X-8.595 Y9.413 E0.05970
G1 X-8.966 Y8.929 E0.04697
G1 X-9.508 Y8.499 E0.05334
G1 X-10.224 Y8.203 E0.05970
G1 X-10.912 Y8.123 E0.05334
G1 X-11.516 Y8.203 E0.04697
G1 X-12.159 Y8.457 E0.05334
G1 X-12.774 Y8.929 E0.05970
G1 X-13.187 Y9.485 E0.05334
G1 X-13.420 Y10.048 E0.04697
G1 X-13.530 Y10.798 E0.05844
G1 X-13.508 Y11.166 E0.02843
G1 X-13.414 Y11.574 E0.03223
G1 X-13.253 Y11.973 E0.03315
G1 X-13.064 Y12.294 E0.02873
G1 X-12.772 Y12.642 E0.03498
G1 X-11.953 Y13.347 E0.08328
G1 X-11.545 Y14.233 E0.07518
G1 X-11.545 Y16.276 E0.15745
G1 X-12.070 Y17.259 E0.08585
G1 X-13.211 Y18.028 E0.10606
G1 X-13.624 Y18.435 E0.04468
G1 X-13.963 Y18.885 E0.04336
G1 X-14.247 Y19.426 E0.04710
G1 X-14.425 Y19.959 E0.04335
G1 X-14.529 Y20.560 E0.04697
G1 X-14.593 Y21.482 E0.07125
G1 X-15.875 Y22.679 E0.13518
G1 X-28.939 Y22.679 E1.00682
G1 X-29.978 Y22.552 E0.08061
G1 X-30.259 Y22.477 E0.02247
G1 X-31.156 Y22.105 E0.07477
G1 X-31.408 Y21.960 E0.02247
G1 X-32.178 Y21.369 E0.07477
G1 X-32.384 Y21.163 E0.02247
G1 X-32.975 Y20.393 E0.07477
G1 X-33.121 Y20.140 E0.02247
G1 X-33.492 Y19.244 E0.07477
G1 X-33.567 Y18.962 E0.02247
G1 X-33.695 Y17.924 E0.08061
G1 X-33.695 Y-31.261 E3.79044
G1 X-33.663 Y-31.730 E0.03629
G1 X-33.462 Y-33.123 E0.10845
G1 X-33.394 Y-33.379 E0.02037
G1 X-32.871 Y-34.685 E0.10845
G1 X-32.669 Y-35.102 E0.03565
G1 X-32.562 Y-35.276 E0.01579
G1 X-31.737 Y-36.379 E0.10617
G1 X-31.351 Y-36.810 E0.04457
G1 X-31.023 Y-37.093 E0.03337
G1 X-29.920 Y-37.918 E0.10617
G1 X-29.746 Y-38.025 E0.01579
G1 X-29.329 Y-38.227 E0.03565
G1 X-28.023 Y-38.750 E0.10845
G1 X-27.767 Y-38.818 E0.02037
G1 X-26.289 Y-39.028 E0.11511
G1 X-25.905 Y-39.050 E0.02964
G1 X4.238 Y-39.048 E2.32293
G1 X4.614 Y-39.021 E0.02911 F960.000
G1 X5.752 Y-38.869 E0.08842
G1 X6.226 Y-38.765 E0.03739
G1 X6.635 Y-38.623 E0.03337
G1 X7.928 Y-38.068 E0.10845
G1 X8.157 Y-37.936 E0.02037
G1 X9.284 Y-37.093 E0.10845
G1 X9.611 Y-36.810 E0.03337
G1 X9.943 Y-36.447 E0.03792
G1 X10.840 Y-35.253 E0.11511
G1 X10.972 Y-35.024 E0.02037
G1 X11.527 Y-33.730 E0.10845
G1 X11.707 Y-33.181 E0.04457
G1 X11.788 Y-32.755 E0.03338
G1 X11.955 Y-31.290 E0.11363
G1 X11.955 Y-3.989 E2.10395
G1 X11.319 Y-3.989 F15000.000
G1 X11.319 Y3.652 E0.58892 F960.000
G1 X11.388 Y4.198 E0.04236
G1 X11.599 Y4.706 E0.04242
G1 X11.833 Y5.012 E0.02969
G1 X12.198 Y5.305 E0.03607
G1 X12.707 Y5.516 E0.04242
G1 X13.252 Y5.585 E0.04236
G1 X17.179 Y5.585 E0.30264
G1 X17.596 Y5.633 E0.03236
G1 X17.797 Y5.687 E0.01605
G1 X18.134 Y5.827 E0.02812
G1 X18.315 Y5.931 E0.01605
G1 X18.604 Y6.153 E0.02812
G1 X18.751 Y6.300 E0.01605
G1 X18.973 Y6.590 E0.02812
G1 X19.078 Y6.770 E0.01605
G1 X19.217 Y7.107 E0.02811
G1 X19.271 Y7.308 E0.01605
G1 X19.319 Y7.725 E0.03236
G1 X19.319 Y30.823 E1.78002
G1 X19.271 Y31.240 E0.03236
G1 X19.217 Y31.441 E0.01605
G1 X19.078 Y31.778 E0.02812
G1 X18.973 Y31.959 E0.01605
G1 X18.751 Y32.248 E0.02811
G1 X18.604 Y32.395 E0.01605
G1 X18.315 Y32.618 E0.02812
G1 X18.134 Y32.722 E0.01606
G1 X17.797 Y32.861 E0.02811
G1 X17.596 Y32.915 E0.01605
G1 X17.179 Y32.963 E0.03236
G1 X2.607 Y32.963 E1.12302
G1 X1.532 Y32.897 E0.08294
G1 X0.306 Y32.663 E0.09625
G1 X-0.675 Y32.345 E0.07943
G1 X-1.093 Y32.171 E0.03491
G1 X-2.009 Y31.705 E0.07919
G1 X-2.706 Y31.245 E0.06438
G1 X-3.051 Y30.996 E0.03275
G1 X-3.832 Y30.307 E0.08029
G1 X-4.597 Y29.449 E0.08859
G1 X-5.299 Y28.416 E0.09625
G1 X-5.767 Y27.498 E0.07943
G1 X-5.919 Y27.138 E0.03010
G1 X-6.259 Y26.099 E0.08424
G1 X-6.480 Y24.971 E0.08857
G1 X-6.557 Y23.848 E0.08678
G1 X-6.559 Y20.916 E0.22591
G1 X-6.599 Y20.306 E0.04715
G1 X-6.709 Y19.745 E0.04401
G1 X-6.893 Y19.205 E0.04401
G1 X-7.167 Y18.657 E0.04725
G1 X-7.494 Y18.180 E0.04452
G1 X-7.831 Y17.802 E0.03903
G1 X-8.277 Y17.418 E0.04534
G1 X-9.174 Y16.832 E0.08259
G1 X-9.559 Y16.123 E0.06219
G1 X-9.559 Y14.372 E0.13488
G1 X-9.267 Y13.740 E0.05370
G1 X-8.517 Y13.093 E0.07636
G1 X-8.212 Y12.736 E0.03619
G1 X-7.937 Y12.296 E0.03994
G1 X-7.720 Y11.771 E0.04379
G1 X-7.602 Y11.266 E0.03995
G1 X-7.571 Y10.781 E0.03744
G1 X-7.701 Y9.882 E0.07004
G1 X-7.998 Y9.164 E0.05987
G1 X-8.512 Y8.476 E0.06624
G1 X-9.188 Y7.944 E0.06624
G1 X-10.058 Y7.583 E0.07260
G1 X-10.912 Y7.482 E0.06624
G1 X-11.682 Y7.583 E0.05987
G1 X-12.480 Y7.902 E0.06624
G1 X-13.168 Y8.417 E0.06624
G1 X-13.742 Y9.164 E0.07260
G1 X-14.061 Y9.962 E0.06624
G1 X-14.168 Y10.781 E0.06367
G1 X-14.129 Y11.316 E0.04127
G1 X-14.005 Y11.819 E0.03995
G1 X-13.822 Y12.260 E0.03679
G1 X-13.603 Y12.630 E0.03313
G1 X-13.188 Y13.128 E0.04997
G1 X-12.472 Y13.740 E0.07255
G1 X-12.181 Y14.372 E0.05370
G1 X-12.181 Y16.117 E0.13445
G1 X-12.556 Y16.819 E0.06132
G1 X-13.608 Y17.529 E0.09782
G1 X-14.105 Y18.017 E0.05367
G1 X-14.502 Y18.545 E0.05095
G1 X-14.813 Y19.128 E0.05092
G1 X-15.030 Y19.753 E0.05095
G1 X-15.157 Y20.449 E0.05456
G1 X-15.210 Y21.189 E0.05712
G1 X-16.125 Y22.044 E0.09656
G1 X-28.919 Y22.044 E0.98591
G1 X-29.853 Y21.927 E0.07259
G1 X-30.055 Y21.873 E0.01605
G1 X-30.874 Y21.534 E0.06835
G1 X-31.054 Y21.430 E0.01605
G1 X-31.758 Y20.890 E0.06835
G1 X-31.905 Y20.743 E0.01605
G1 X-32.445 Y20.039 E0.06835
G1 X-32.549 Y19.859 E0.01605
G1 X-32.889 Y19.039 E0.06835
G1 X-32.943 Y18.838 E0.01605
G1 X-33.059 Y17.903 E0.07259
G1 X-33.059 Y-31.250 E3.78803
G1 X-33.032 Y-31.652 E0.03104
G1 X-32.838 Y-32.995 E0.10459
G1 X-32.789 Y-33.178 E0.01455
G1 X-32.285 Y-34.438 E0.10459
G1 X-32.036 Y-34.919 E0.04178
G1 X-31.236 Y-35.989 E0.10296
G1 X-30.916 Y-36.346 E0.03691
G1 X-30.633 Y-36.591 E0.02891
G1 X-29.438 Y-37.468 E0.11420
G1 X-29.082 Y-37.641 E0.03054
G1 X-27.822 Y-38.145 E0.10459
G1 X-27.639 Y-38.194 E0.01455
G1 X-26.235 Y-38.394 E0.10935
G1 X-25.894 Y-38.415 E0.02628
G1 X4.154 Y-38.415 E2.31572
G1 X4.542 Y-38.389 E0.02991 F960.000
G1 X5.638 Y-38.243 E0.08522
G1 X6.041 Y-38.156 E0.03179
G1 X6.395 Y-38.033 E0.02891
G1 X7.643 Y-37.499 E0.10459
G1 X7.806 Y-37.404 E0.01455
G1 X8.893 Y-36.591 E0.10459
G1 X9.177 Y-36.346 E0.02891
G1 X9.457 Y-36.037 E0.03216
G1 X10.309 Y-34.902 E0.10935
G1 X10.403 Y-34.739 E0.01455
G1 X10.938 Y-33.491 E0.10459
G1 X11.088 Y-33.036 E0.03691
G1 X11.158 Y-32.668 E0.02892
G1 X11.319 Y-31.271 E0.10833
G1 X11.319 Y-4.049 E2.09787
G1 X10.684 Y-4.049 F15000.000
G1 X10.684 Y3.694 E0.59675 F960.000
G1 X10.791 Y4.444 E0.05839
G1 X11.044 Y5.027 E0.04896
G1 X11.380 Y5.465 E0.04259
G1 X11.877 Y5.861 E0.04896
G1 X12.541 Y6.135 E0.05532
G1 X13.210 Y6.221 E0.05202
G1 X17.158 Y6.221 E0.30424
G1 X17.472 Y6.258 E0.02434
G1 X17.592 Y6.290 E0.00963
G1 X17.961 Y6.461 E0.03127
G1 X18.272 Y6.720 E0.03127
G1 X18.506 Y7.052 E0.03127
G1 X18.646 Y7.433 E0.03127
G1 X18.684 Y7.746 E0.02434
G1 X18.684 Y30.802 E1.77681
G1 X18.646 Y31.116 E0.02434
G1 X18.614 Y31.237 E0.00963
G1 X18.444 Y31.605 E0.03127
G1 X18.184 Y31.916 E0.03127
G1 X17.852 Y32.150 E0.03127
G1 X17.472 Y32.290 E0.03127
G1 X17.158 Y32.328 E0.02434
G1 X2.617 Y32.328 E1.12065
G1 X1.592 Y32.264 E0.07909
G1 X0.483 Y32.053 E0.08703
G1 X-0.466 Y31.744 E0.07693
G1 X-0.816 Y31.599 E0.02914
G1 X-1.704 Y31.147 E0.07679
G1 X-2.350 Y30.719 E0.05971
G1 X-2.643 Y30.508 E0.02784
G1 X-3.397 Y29.844 E0.07746
G1 X-4.107 Y29.044 E0.08244
G1 X-4.742 Y28.110 E0.08703
G1 X-5.211 Y27.186 E0.07982
G1 X-5.340 Y26.871 E0.02626
G1 X-5.648 Y25.921 E0.07693
G1 X-5.852 Y24.872 E0.08242
G1 X-5.922 Y23.818 E0.08140
G1 X-5.923 Y20.895 E0.22523
G1 X-5.967 Y20.221 E0.05203
G1 X-6.094 Y19.578 E0.05052
G1 X-6.305 Y18.958 E0.05052
G1 X-6.597 Y18.370 E0.05052
G1 X-6.991 Y17.790 E0.05402
G1 X-7.392 Y17.341 E0.04641
G1 X-7.895 Y16.908 E0.05120
G1 X-8.692 Y16.387 E0.07338
G1 X-8.923 Y15.961 E0.03731
G1 X-8.923 Y14.512 E0.11171
G1 X-8.748 Y14.132 E0.03222
G1 X-8.101 Y13.579 E0.06564
G1 X-7.667 Y13.070 E0.05153
G1 X-7.347 Y12.541 E0.04766
G1 X-7.113 Y11.968 E0.04766
G1 X-6.981 Y11.415 E0.04382
G1 X-6.931 Y10.831 E0.04517
G1 X-7.081 Y9.716 E0.08674
G1 X-7.484 Y8.771 E0.07914
G1 X-8.118 Y7.963 E0.07913
G1 X-8.939 Y7.347 E0.07913
G1 X-9.892 Y6.964 E0.07913
G1 X-10.828 Y6.841 E0.07276
G1 X-11.848 Y6.964 E0.07913
G1 X-12.800 Y7.347 E0.07913
G1 X-13.622 Y7.963 E0.07913
G1 X-14.297 Y8.844 E0.08550
G1 X-14.680 Y9.796 E0.07913
G1 X-14.807 Y10.765 E0.07526
G1 X-14.759 Y11.415 E0.05028
G1 X-14.611 Y12.016 E0.04766
G1 X-14.391 Y12.547 E0.04428
G1 X-14.143 Y12.966 E0.03754
G1 X-14.053 Y13.100 E0.01243
G1 X-13.674 Y13.543 E0.04499
G1 X-12.991 Y14.132 E0.06945
G1 X-12.816 Y14.512 E0.03222
G1 X-12.816 Y15.958 E0.11145
G1 X-13.041 Y16.379 E0.03679
G1 X-13.922 Y16.968 E0.08163
G1 X-14.055 Y17.075 E0.01315
G1 X-14.586 Y17.598 E0.05747
G1 X-15.042 Y18.206 E0.05855
G1 X-15.399 Y18.876 E0.05851
G1 X-15.648 Y19.594 E0.05854
G1 X-15.789 Y20.372 E0.06095
G1 X-15.827 Y20.895 E0.04041
G1 X-16.376 Y21.408 E0.05793
G1 X-28.960 Y21.404 E0.96980
G1 X-29.729 Y21.303 E0.05977
G1 X-29.850 Y21.270 E0.00963
G1 X-30.592 Y20.963 E0.06193
G1 X-30.700 Y20.900 E0.00963
G1 X-31.338 Y20.411 E0.06193
G1 X-31.426 Y20.323 E0.00963
G1 X-31.916 Y19.685 E0.06193
G1 X-31.978 Y19.577 E0.00963
G1 X-32.286 Y18.834 E0.06193
G1 X-32.318 Y18.714 E0.00963
G1 X-32.423 Y17.882 E0.06458
G1 X-32.423 Y-31.240 E3.78563
G1 X-32.401 Y-31.574 E0.02578
G1 X-32.185 Y-32.977 E0.10940
G1 X-31.700 Y-34.190 E0.10073
G1 X-31.509 Y-34.562 E0.03217
G1 X-30.734 Y-35.598 E0.09975
G1 X-30.482 Y-35.882 E0.02925
G1 X-30.242 Y-36.090 E0.02445
G1 X-29.131 Y-36.911 E0.10649
G1 X-28.834 Y-37.056 E0.02543
G1 X-27.621 Y-37.541 E0.10073
G1 X-26.181 Y-37.761 E0.11225
G1 X-25.884 Y-37.779 E0.02293
G1 X4.175 Y-37.778 E2.31652
G1 X4.469 Y-37.758 E0.02270 F960.000
G1 X5.524 Y-37.618 E0.08201
G1 X5.856 Y-37.548 E0.02618
G1 X6.156 Y-37.444 E0.02445
G1 X7.456 Y-36.873 E0.10940
G1 X8.531 Y-36.067 E0.10358
G1 X8.742 Y-35.882 E0.02160
G1 X8.971 Y-35.627 E0.02640
G1 X9.777 Y-34.552 E0.10358
G1 X10.349 Y-33.252 E0.10940
G1 X10.452 Y-32.952 E0.02445
G1 X10.523 Y-32.617 E0.02640
G1 X10.684 Y-31.252 E0.10588
G1 X10.684 Y-4.109 E2.09180
G1 X10.048 Y-4.109 F15000.000
G1 X10.048 Y3.736 E0.60459 F960.000
G1 X10.171 Y4.610 E0.06805
G1 X10.488 Y5.347 E0.06186
G1 X10.986 Y5.978 E0.06186
G1 X11.629 Y6.458 E0.06186
G1 X12.294 Y6.733 E0.05549
G1 X13.169 Y6.856 E0.06805
G1 X17.137 Y6.856 E0.30585
G1 X17.347 Y6.883 E0.01632
G1 X17.571 Y6.969 E0.01846
G1 X17.764 Y7.111 E0.01846
G1 X17.914 Y7.297 E0.01846
G1 X18.022 Y7.557 E0.02164
G1 X18.048 Y7.767 E0.01632
G1 X18.048 Y30.781 E1.77360
G1 X18.011 Y31.032 E0.01951
G1 X17.914 Y31.251 E0.01846
G1 X17.764 Y31.438 E0.01846
G1 X17.571 Y31.579 E0.01846
G1 X17.347 Y31.666 E0.01846
G1 X17.137 Y31.692 E0.01632
G1 X2.627 Y31.692 E1.11828
G1 X1.652 Y31.631 E0.07524
G1 X0.660 Y31.442 E0.07780
G1 X-0.258 Y31.143 E0.07443
G1 X-0.538 Y31.027 E0.02337
G1 X-1.398 Y30.589 E0.07438
G1 X-1.993 Y30.193 E0.05504
G1 X-2.235 Y30.020 E0.02294
G1 X-2.961 Y29.380 E0.07463
G1 X-3.617 Y28.638 E0.07629
G1 X-4.185 Y27.803 E0.07780
G1 X-4.628 Y26.931 E0.07539
G1 X-4.739 Y26.662 E0.02241
G1 X-5.038 Y25.744 E0.07443
G1 X-5.224 Y24.772 E0.07627
G1 X-5.287 Y23.788 E0.07601
G1 X-5.288 Y20.874 E0.22455
G1 X-5.336 Y20.137 E0.05692
G1 X-5.480 Y19.411 E0.05704
G1 X-5.718 Y18.710 E0.05704
G1 X-6.069 Y18.011 E0.06028
G1 X-6.463 Y17.431 E0.05404
G1 X-6.819 Y17.023 E0.04172
G1 X-6.977 Y16.857 E0.01770
G1 X-7.514 Y16.398 E0.05443
G1 X-8.211 Y15.942 E0.06416
G1 X-8.288 Y15.800 E0.01244
G1 X-8.288 Y14.651 E0.08853
G1 X-8.229 Y14.525 E0.01074
G1 X-7.650 Y14.029 E0.05873
G1 X-7.180 Y13.486 E0.05537
G1 X-6.801 Y12.875 E0.05538
G1 X-6.507 Y12.165 E0.05922
G1 X-6.351 Y11.515 E0.05154
G1 X-6.292 Y10.815 E0.05418
G1 X-6.462 Y9.550 E0.09834
G1 X-6.929 Y8.451 E0.09203
G1 X-7.665 Y7.510 E0.09203
G1 X-8.619 Y6.792 E0.09203
G1 X-9.726 Y6.345 E0.09203
G1 X-10.828 Y6.200 E0.08566
G1 X-12.014 Y6.345 E0.09203
G1 X-13.121 Y6.792 E0.09203
G1 X-14.075 Y7.510 E0.09203
