; generated by Slic3r 1.2.9 on 2019-09-02 at 11:48:57

; external perimeters extrusion width = 0.40mm
; perimeters extrusion width = 0.40mm
; infill extrusion width = 0.40mm
; solid infill extrusion width = 0.40mm
; top infill extrusion width = 0.40mm

M107
M83
T0
M116
G21 ; set units to millimeters
G90 ; use absolute coordinates
M83 ; use relative distances for extrusion
G1 E-4.20000 F1500.00000
G1 Z1.000 F15000.000
G1 X7.430 Y-9.406 F15000.000
G1 Z0.300 F15000.000
G1 E4.20000 F1500.00000
G1 X19.673 Y0.265 E1.20239 F960.000
G1 X20.125 Y0.648 E0.04565
G1 X20.444 Y0.957 E0.03421
G1 X20.750 Y1.290 E0.03482
G1 X21.265 Y1.963 E0.06529
G1 X21.494 Y2.324 E0.03299
G1 X21.712 Y2.720 E0.03482
G1 X21.903 Y3.120 E0.03421
G1 X22.072 Y3.539 E0.03481
G1 X22.213 Y3.960 E0.03421
G1 X22.398 Y4.704 E0.05908
G1 X22.489 Y5.217 E0.04013
G1 X22.565 Y6.075 E0.06638
G1 X22.564 Y6.532 E0.03526
G1 X22.533 Y7.013 E0.03712
G1 X22.472 Y7.483 E0.03648
G1 X22.378 Y7.955 E0.03712
G1 X22.257 Y8.412 E0.03647
G1 X22.103 Y8.869 E0.03712
G1 X21.929 Y9.292 E0.03526
G1 X21.733 Y9.697 E0.03465
G1 X21.508 Y10.096 E0.03526
G1 X21.246 Y10.499 E0.03712
G1 X20.962 Y10.878 E0.03647
G1 X20.649 Y11.244 E0.03712
G1 X20.319 Y11.583 E0.03648
G1 X19.961 Y11.906 E0.03712
G1 X19.589 Y12.199 E0.03648
G1 X19.193 Y12.472 E0.03712
G1 X18.800 Y12.707 E0.03526
G1 X18.401 Y12.914 E0.03465
G1 X17.982 Y13.098 E0.03526
G1 X17.530 Y13.263 E0.03712
G1 X17.184 Y13.371 E0.02792
G1 X4.839 Y16.538 E0.98214
G1 X3.400 Y16.847 E0.11344
G1 X2.332 Y17.009 E0.08324
G1 X1.036 Y17.133 E0.10033
G1 X-0.641 Y17.176 E0.12930
G1 X-1.581 Y17.141 E0.07247
G1 X-2.445 Y17.073 E0.06683
G1 X-3.604 Y16.927 E0.09003
G1 X-4.520 Y16.764 E0.07166
G1 X-5.443 Y16.558 E0.07290
G1 X-6.337 Y16.317 E0.07135
G1 X-7.339 Y15.997 E0.08106
G1 X-8.446 Y15.577 E0.09125
G1 X-9.295 Y15.207 E0.07135
G1 X-10.145 Y14.792 E0.07289
G1 X-11.108 Y14.261 E0.08478
G1 X-11.914 Y13.766 E0.07289
G1 X-12.826 Y13.143 E0.08510
G1 X-13.564 Y12.585 E0.07135
G1 X-14.294 Y11.982 E0.07288
G1 X-15.255 Y11.098 E0.10065
G1 X-16.147 Y10.172 E0.09911
G1 X-16.884 Y9.313 E0.08722
G1 X-17.545 Y8.459 E0.08324
G1 X-18.282 Y7.386 E0.10033
G1 X-18.953 Y6.270 E0.10032
G1 X-19.615 Y4.988 E0.11117
G1 X-20.097 Y3.893 E0.09225
G1 X-20.480 Y2.883 E0.08324
G1 X-20.931 Y1.428 E0.11741
G1 X-21.224 Y0.208 E0.09666
G1 X-22.453 Y-6.129 E0.49747
G1 X-22.552 Y-6.985 E0.06639
G1 X-22.568 Y-7.428 E0.03421
G1 X-22.554 Y-7.941 E0.03952
G1 X-22.515 Y-8.383 E0.03421
G1 X-22.439 Y-8.890 E0.03952
G1 X-22.347 Y-9.324 E0.03421
G1 X-22.210 Y-9.819 E0.03952
G1 X-22.071 Y-10.224 E0.03299
G1 X-21.890 Y-10.664 E0.03670
G1 X-21.713 Y-11.036 E0.03177
G1 X-21.484 Y-11.454 E0.03670
G1 X-21.265 Y-11.803 E0.03176
G1 X-20.990 Y-12.192 E0.03670
G1 X-20.733 Y-12.515 E0.03178
G1 X-20.416 Y-12.870 E0.03670
G1 X-20.124 Y-13.161 E0.03176
G1 X-19.769 Y-13.478 E0.03670
G1 X-19.446 Y-13.734 E0.03177
G1 X-19.057 Y-14.009 E0.03670
G1 X-18.708 Y-14.228 E0.03177
G1 X-18.290 Y-14.456 E0.03670
G1 X-17.918 Y-14.634 E0.03177
G1 X-17.477 Y-14.814 E0.03670
G1 X-17.041 Y-14.961 E0.03543
G1 X-16.228 Y-15.169 E0.06471
G1 X-6.607 Y-17.035 E0.75523
G1 X-5.681 Y-17.156 E0.07202
G1 X-5.257 Y-17.175 E0.03271
G1 X-4.798 Y-17.166 E0.03533
G1 X-4.164 Y-17.115 E0.04901 F960.000
G1 X-3.627 Y-17.030 E0.04195
G1 X-3.022 Y-16.888 E0.04790
G1 X-2.508 Y-16.726 E0.04146
G1 X-1.931 Y-16.496 E0.04789
G1 X-1.447 Y-16.261 E0.04146
G1 X-0.910 Y-15.948 E0.04790
G1 X-0.486 Y-15.659 E0.03959
G1 X7.383 Y-9.443 E0.77280
G1 E-4.20000 F1500.00000
G1 Z1.300 F15000.000
G1 X-7.425 Y10.981 F15000.000
G1 Z0.300 F15000.000
G1 E4.20000 F1500.00000
G1 X-8.074 Y10.660 E0.05582 F720.000
G1 X-8.842 Y10.233 E0.06771
G1 X-9.459 Y9.850 E0.05598
G1 X-10.059 Y9.441 E0.05598
G1 X-10.760 Y8.911 E0.06771
G1 X-11.317 Y8.447 E0.05582
G1 X-11.961 Y7.856 E0.06737
G1 X-12.675 Y7.122 E0.07893
G1 X-13.245 Y6.465 E0.06704
G1 X-13.870 Y5.656 E0.07876
G1 X-14.443 Y4.813 E0.07860
G1 X-14.965 Y3.935 E0.07866
G1 X-15.407 Y3.078 E0.07432
G1 X-15.785 Y2.231 E0.07150
G1 X-16.147 Y1.276 E0.07870
G1 X-16.448 Y0.302 E0.07860
G1 X-16.692 Y-0.695 E0.07910
G1 X-17.474 Y-4.725 E0.31638
G1 X-17.215 Y-4.855 E0.02230
G1 X-16.981 Y-4.597 E0.02679
G1 X-16.651 Y-4.300 E0.03425
G1 X-16.318 Y-4.055 E0.03187
G1 X-15.964 Y-3.845 E0.03170
G1 X-15.593 Y-3.669 E0.03170
G1 X-15.205 Y-3.530 E0.03176
G1 X-14.793 Y-3.426 E0.03269
G1 X-14.364 Y-3.362 E0.03341
G1 X-13.950 Y-3.342 E0.03198
G1 X-13.506 Y-3.365 E0.03425
G1 X-13.098 Y-3.428 E0.03187
G1 X-12.699 Y-3.529 E0.03170
G1 X-12.312 Y-3.668 E0.03170
G1 X-11.940 Y-3.843 E0.03170
G1 X-11.584 Y-4.055 E0.03187
G1 X-11.227 Y-4.319 E0.03425
G1 X-10.921 Y-4.597 E0.03187
G1 X-10.642 Y-4.903 E0.03187
G1 X-10.378 Y-5.260 E0.03425
G1 X-10.166 Y-5.615 E0.03187
G1 X-9.991 Y-5.987 E0.03170
G1 X-9.852 Y-6.374 E0.03170
G1 X-9.750 Y-6.775 E0.03187
G1 X-9.684 Y-7.214 E0.03425
G1 X-9.664 Y-7.627 E0.03187
G1 X-9.683 Y-8.038 E0.03170
G1 X-9.742 Y-8.447 E0.03187
G1 X-9.850 Y-8.879 E0.03425
G1 X-9.989 Y-9.268 E0.03187
G1 X-10.165 Y-9.640 E0.03170
G1 X-10.375 Y-9.994 E0.03176
G1 X-10.627 Y-10.336 E0.03269
G1 X-10.917 Y-10.658 E0.03342
G1 X-11.222 Y-10.936 E0.03181
G1 X-11.750 Y-11.330 E0.05077
G1 X-8.545 Y-11.952 E0.25161
G1 X-8.899 Y-11.357 E0.05337
G1 X-9.075 Y-10.984 E0.03176 F720.000
G1 X-9.218 Y-10.585 E0.03269
G1 X-9.323 Y-10.164 E0.03342
G1 X-9.382 Y-9.755 E0.03181
G1 X-9.402 Y-9.345 E0.03170
G1 X-9.382 Y-8.934 E0.03170
G1 X-9.323 Y-8.524 E0.03187
G1 X-9.216 Y-8.093 E0.03425
G1 X-9.076 Y-7.702 E0.03203
G1 X-8.884 Y-7.301 E0.03425
G1 X-8.670 Y-6.947 E0.03187
G1 X-8.424 Y-6.617 E0.03170
G1 X-8.148 Y-6.313 E0.03170
G1 X-7.843 Y-6.036 E0.03170
G1 X-7.514 Y-5.790 E0.03170
G1 X-7.160 Y-5.575 E0.03187
G1 X-6.759 Y-5.384 E0.03425
G1 X-6.370 Y-5.244 E0.03187
G1 X-5.971 Y-5.142 E0.03176
G1 X-5.551 Y-5.078 E0.03269
G1 X-5.118 Y-5.056 E0.03348
G1 X-4.692 Y-5.077 E0.03280
G1 X-4.264 Y-5.141 E0.03342
G1 X-3.863 Y-5.243 E0.03181
G1 X-3.476 Y-5.382 E0.03170
G1 X-3.103 Y-5.557 E0.03176
G1 X-2.719 Y-5.787 E0.03449
G1 X-2.776 Y-5.179 E0.04704
G1 X-2.791 Y-4.493 E0.05288
G1 X-2.752 Y-3.729 E0.05897
G1 X-2.666 Y-3.046 E0.05304
G1 X-2.514 Y-2.293 E0.05920
G1 X-2.293 Y-1.524 E0.06168
G1 X-2.002 Y-0.755 E0.06333
G1 X-1.671 Y-0.059 E0.05941
G1 X-1.287 Y0.608 E0.05930
G1 X-0.852 Y1.242 E0.05930
G1 X-0.369 Y1.841 E0.05930
G1 X0.160 Y2.400 E0.05930
G1 X0.731 Y2.916 E0.05930
G1 X1.341 Y3.385 E0.05930
G1 X1.986 Y3.805 E0.05930
G1 X2.662 Y4.173 E0.05930
G1 X3.366 Y4.487 E0.05947
G1 X4.116 Y4.750 E0.06124
G1 X4.053 Y5.074 E0.02540
G1 X3.590 Y5.052 E0.03576
G1 X3.157 Y5.075 E0.03342
G1 X2.749 Y5.138 E0.03181
G1 X2.350 Y5.239 E0.03170
G1 X1.963 Y5.378 E0.03170
G1 X1.591 Y5.553 E0.03171
G1 X1.236 Y5.764 E0.03176
G1 X0.895 Y6.015 E0.03269
G1 X0.573 Y6.306 E0.03342
G1 X0.295 Y6.612 E0.03187
G1 X0.041 Y6.952 E0.03269
G1 X-0.182 Y7.324 E0.03341
G1 X-0.358 Y7.697 E0.03181
G1 X-0.498 Y8.086 E0.03187
G1 X-0.606 Y8.517 E0.03425
G1 X-0.665 Y8.927 E0.03187
G1 X-0.685 Y9.338 E0.03176
G1 X-0.664 Y9.762 E0.03269
G1 X-0.600 Y10.191 E0.03342
G1 X-0.498 Y10.591 E0.03181
G1 X-0.359 Y10.978 E0.03170
G1 X-0.184 Y11.350 E0.03170
G1 X0.027 Y11.706 E0.03187
G1 X0.291 Y12.063 E0.03425
G1 X0.711 Y12.526 E0.04816
G1 X-0.520 Y12.556 E0.09496
G1 X-1.241 Y12.533 E0.05554
G1 X-2.059 Y12.468 E0.06326
G1 X-2.837 Y12.369 E0.06044
G1 X-3.554 Y12.245 E0.05608
G1 X-4.264 Y12.090 E0.05598
G1 X-5.111 Y11.862 E0.06760
G1 X-5.889 Y11.609 E0.06309
G1 X-6.621 Y11.332 E0.06028
G1 X-7.370 Y11.005 E0.06301
G1 E-4.20000 F1500.00000
G1 Z1.300 F15000.000
G1 X8.519 Y10.825 F15000.000
G1 Z0.300 F15000.000
G1 E4.20000 F1500.00000
G1 X7.526 Y11.079 E0.07900 F600.000
G1 X7.701 Y10.594 E0.03975
G1 X7.803 Y10.193 E0.03186
G1 X7.869 Y9.754 E0.03425
G1 X7.889 Y9.341 E0.03187
G1 X7.869 Y8.930 E0.03170
G1 X7.810 Y8.523 E0.03170
G1 X7.712 Y8.121 E0.03187
G1 X7.564 Y7.702 E0.03425
G1 X7.388 Y7.328 E0.03187
G1 X7.177 Y6.974 E0.03176
G1 X6.926 Y6.632 E0.03269
G1 X6.635 Y6.310 E0.03342
G1 X6.330 Y6.032 E0.03181
G1 X5.999 Y5.785 E0.03187
G1 X5.618 Y5.556 E0.03425
G1 X5.243 Y5.379 E0.03193
G1 X5.035 Y5.305 E0.01702
G1 X5.114 Y4.972 E0.02634
G1 X5.496 Y5.020 E0.02961
G1 X6.097 Y5.022 E0.04635
G1 X6.710 Y4.952 E0.04752
G1 X14.864 Y3.380 E0.63997
G1 X15.217 Y3.360 E0.02722
G1 X15.570 Y3.387 E0.02734
G1 X15.918 Y3.459 E0.02734 F600.000
G1 X16.255 Y3.577 E0.02751
G1 X16.549 Y3.724 E0.02536
G1 X16.825 Y3.907 E0.02552
G1 X17.077 Y4.122 E0.02552
G1 X17.302 Y4.368 E0.02569
G1 X17.479 Y4.614 E0.02337
G1 X17.641 Y4.906 E0.02569
G1 X17.764 Y5.213 E0.02552
G1 X17.855 Y5.550 E0.02688
G1 X17.928 Y5.965 E0.03252
G1 X17.948 Y6.296 E0.02555
G1 X17.925 Y6.651 E0.02738
G1 X17.857 Y6.997 E0.02721
G1 X17.743 Y7.334 E0.02738
G1 X17.602 Y7.626 E0.02507
G1 X17.408 Y7.924 E0.02738
G1 X17.178 Y8.193 E0.02721
G1 X16.916 Y8.429 E0.02721
G1 X16.623 Y8.630 E0.02738
G1 X16.334 Y8.780 E0.02507
G1 X15.987 Y8.907 E0.02854
G1 X8.577 Y10.810 E0.58953
G1 X8.735 Y11.425 F15000.000
G1 X6.472 Y12.006 E0.18006 F720.000
G1 X6.326 Y11.763 E0.02188
G1 X6.627 Y11.382 E0.03747
G1 X6.810 Y11.082 E0.02705
G1 X6.973 Y10.738 E0.02933
G1 X7.092 Y10.408 E0.02705
G1 X7.179 Y10.068 E0.02705
G1 X7.235 Y9.691 E0.02933
G1 X7.252 Y9.341 E0.02705
G1 X7.235 Y8.991 E0.02700
G1 X7.185 Y8.644 E0.02699
G1 X7.102 Y8.303 E0.02705
G1 X6.975 Y7.944 E0.02933
G1 X6.826 Y7.627 E0.02705
G1 X6.646 Y7.325 E0.02701
G1 X6.432 Y7.034 E0.02785
G1 X6.184 Y6.759 E0.02853
G1 X5.925 Y6.523 E0.02703
G1 X5.644 Y6.313 E0.02705
G1 X5.317 Y6.117 E0.02933
G1 X5.000 Y5.967 E0.02708
G1 X4.660 Y5.845 E0.02784
G1 X4.300 Y5.756 E0.02854
G1 X3.953 Y5.706 E0.02705
G1 X3.592 Y5.689 E0.02785
G1 X3.222 Y5.709 E0.02854
G1 X2.875 Y5.762 E0.02703
G1 X2.536 Y5.848 E0.02699
G1 X2.206 Y5.966 E0.02699
G1 X1.889 Y6.115 E0.02700
G1 X1.588 Y6.294 E0.02701
G1 X1.297 Y6.508 E0.02784
G1 X1.022 Y6.757 E0.02853
G1 X0.786 Y7.016 E0.02706
G1 X0.570 Y7.306 E0.02784
G1 X0.380 Y7.624 E0.02853
G1 X0.230 Y7.941 E0.02703
G1 X0.111 Y8.271 E0.02705
G1 X0.019 Y8.640 E0.02933
G1 X-0.032 Y8.988 E0.02705
G1 X-0.049 Y9.338 E0.02702
G1 X-0.031 Y9.699 E0.02784
G1 X0.024 Y10.065 E0.02853
G1 X0.110 Y10.405 E0.02703
G1 X0.229 Y10.735 E0.02699
G1 X0.378 Y11.052 E0.02699
G1 X0.557 Y11.353 E0.02705
G1 X0.784 Y11.659 E0.02933
G1 X1.020 Y11.919 E0.02705
G1 X1.279 Y12.155 E0.02699
G1 X1.559 Y12.365 E0.02699
G1 X1.859 Y12.547 E0.02706
G1 X2.225 Y12.721 E0.03122
G1 X2.184 Y13.000 E0.02171
G1 X1.743 Y13.067 E0.03431
G1 X0.690 Y13.162 E0.08153
G1 X-0.523 Y13.192 E0.09348
G1 X-1.276 Y13.168 E0.05807
G1 X-2.124 Y13.101 E0.06556
G1 X-2.931 Y12.998 E0.06272
G1 X-3.676 Y12.869 E0.05826
G1 X-4.414 Y12.708 E0.05822
G1 X-5.292 Y12.471 E0.07002
G1 X-6.100 Y12.209 E0.06550
G1 X-6.860 Y11.921 E0.06266
G1 X-7.693 Y11.558 E0.07003
G1 X-8.370 Y11.223 E0.05816
G1 X-9.164 Y10.781 E0.07005
G1 X-9.806 Y10.383 E0.05822
G1 X-10.430 Y9.957 E0.05822
G1 X-11.156 Y9.409 E0.07005
G1 X-11.736 Y8.926 E0.05816
G1 X-12.404 Y8.312 E0.06994
G1 X-13.143 Y7.552 E0.08171
G1 X-13.737 Y6.868 E0.06982
G1 X-14.385 Y6.030 E0.08165
G1 X-14.980 Y5.154 E0.08159
G1 X-15.521 Y4.244 E0.08161
G1 X-15.980 Y3.354 E0.07716
G1 X-16.373 Y2.473 E0.07431
G1 X-16.748 Y1.483 E0.08162
G1 X-17.061 Y0.472 E0.08159
G1 X-17.313 Y-0.559 E0.08177
G1 X-18.538 Y-6.871 E0.49553
G1 X-18.583 Y-7.344 E0.03657
G1 X-18.570 Y-7.814 E0.03622
G1 X-18.501 Y-8.279 E0.03622
G1 X-18.375 Y-8.732 E0.03628
G1 X-18.210 Y-9.135 E0.03358
G1 X-18.000 Y-9.518 E0.03364
G1 X-17.748 Y-9.874 E0.03364
G1 X-17.457 Y-10.200 E0.03364
G1 X-17.131 Y-10.490 E0.03364
G1 X-16.774 Y-10.742 E0.03364
G1 X-16.392 Y-10.952 E0.03364
G1 X-15.990 Y-11.116 E0.03346
G1 X-15.764 Y-11.176 E0.01800
G1 X-15.634 Y-10.872 E0.02549
G1 X-15.991 Y-10.656 E0.03211
G1 X-16.271 Y-10.447 E0.02699
G1 X-16.531 Y-10.211 E0.02700
G1 X-16.767 Y-9.952 E0.02705
G1 X-16.993 Y-9.646 E0.02933
G1 X-17.173 Y-9.344 E0.02705
G1 X-17.322 Y-9.027 E0.02699
G1 X-17.441 Y-8.698 E0.02699
G1 X-17.527 Y-8.358 E0.02700
G1 X-17.581 Y-8.011 E0.02705
G1 X-17.601 Y-7.631 E0.02933
G1 X-17.584 Y-7.281 E0.02705
G1 X-17.534 Y-6.934 E0.02702
G1 X-17.448 Y-6.583 E0.02785
G1 X-17.324 Y-6.234 E0.02853
G1 X-17.174 Y-5.916 E0.02706
G1 X-16.989 Y-5.606 E0.02784
G1 X-16.768 Y-5.309 E0.02854
G1 X-16.532 Y-5.048 E0.02709
G1 X-16.250 Y-4.793 E0.02933
G1 X-15.966 Y-4.586 E0.02705
G1 X-15.666 Y-4.407 E0.02699
G1 X-15.349 Y-4.257 E0.02699
G1 X-15.019 Y-4.138 E0.02702
G1 X-14.669 Y-4.050 E0.02785
G1 X-14.302 Y-3.996 E0.02853
G1 X-13.951 Y-3.979 E0.02709
G1 X-13.571 Y-3.998 E0.02933
G1 X-13.224 Y-4.052 E0.02705
G1 X-12.885 Y-4.138 E0.02700
G1 X-12.555 Y-4.256 E0.02700
G1 X-12.238 Y-4.405 E0.02699
G1 X-11.936 Y-4.585 E0.02706
G1 X-11.630 Y-4.811 E0.02933
G1 X-11.370 Y-5.047 E0.02705
G1 X-11.134 Y-5.307 E0.02705
G1 X-10.908 Y-5.612 E0.02933
G1 X-10.728 Y-5.914 E0.02705
G1 X-10.579 Y-6.231 E0.02699
G1 X-10.460 Y-6.560 E0.02699
G1 X-10.373 Y-6.901 E0.02705
G1 X-10.317 Y-7.277 E0.02933
G1 X-10.300 Y-7.628 E0.02705
G1 X-10.317 Y-7.977 E0.02699
G1 X-10.367 Y-8.325 E0.02706
G1 X-10.459 Y-8.694 E0.02933
G1 X-10.577 Y-9.025 E0.02705
G1 X-10.727 Y-9.342 E0.02699
G1 X-10.906 Y-9.643 E0.02702
G1 X-11.120 Y-9.934 E0.02784
G1 X-11.368 Y-10.209 E0.02854
G1 X-11.627 Y-10.445 E0.02703
G1 X-11.908 Y-10.655 E0.02699
G1 X-12.208 Y-10.837 E0.02705
G1 X-12.551 Y-11.001 E0.02933
G1 X-12.883 Y-11.120 E0.02711
G1 X-13.252 Y-11.212 E0.02933
G1 X-13.696 Y-11.277 E0.03461
G1 X-13.704 Y-11.599 E0.02483
G1 X-6.832 Y-12.932 E0.53944
G1 X-6.718 Y-12.632 E0.02470
G1 X-7.138 Y-12.381 E0.03772 F720.000
G1 X-7.436 Y-12.161 E0.02854
G1 X-7.695 Y-11.925 E0.02703
G1 X-7.932 Y-11.665 E0.02705
G1 X-8.158 Y-11.359 E0.02933
G1 X-8.338 Y-11.058 E0.02705
G1 X-8.487 Y-10.741 E0.02702
G1 X-8.609 Y-10.401 E0.02784
G1 X-8.698 Y-10.041 E0.02853
G1 X-8.749 Y-9.694 E0.02704
G1 X-8.766 Y-9.344 E0.02699
G1 X-8.749 Y-8.994 E0.02700
G1 X-8.699 Y-8.647 E0.02705
G1 X-8.607 Y-8.278 E0.02933
G1 X-8.488 Y-7.946 E0.02711
G1 X-8.324 Y-7.603 E0.02933
G1 X-8.142 Y-7.303 E0.02705
G1 X-7.933 Y-7.022 E0.02699
G1 X-7.697 Y-6.763 E0.02700
G1 X-7.438 Y-6.527 E0.02699
G1 X-7.158 Y-6.317 E0.02700
G1 X-6.858 Y-6.135 E0.02705
G1 X-6.514 Y-5.971 E0.02933
G1 X-6.184 Y-5.852 E0.02705
G1 X-5.844 Y-5.766 E0.02702
G1 X-5.487 Y-5.711 E0.02785
G1 X-5.117 Y-5.692 E0.02856
G1 X-4.755 Y-5.710 E0.02788
G1 X-4.389 Y-5.765 E0.02854
G1 X-4.049 Y-5.851 E0.02703
G1 X-3.720 Y-5.970 E0.02700
G1 X-3.402 Y-6.119 E0.02702
G1 X-3.092 Y-6.304 E0.02784
G1 X-2.795 Y-6.525 E0.02854
G1 X-2.535 Y-6.761 E0.02705
G1 X-2.292 Y-7.029 E0.02785
G1 X-2.069 Y-7.330 E0.02892
G1 X-1.783 Y-7.188 E0.02464
G1 X-1.993 Y-6.332 E0.06793
G1 X-2.081 Y-5.778 E0.04325
G1 X-2.141 Y-5.142 E0.04923
G1 X-2.156 Y-4.502 E0.04935
G1 X-2.119 Y-3.785 E0.05533
G1 X-2.039 Y-3.149 E0.04941
G1 X-1.896 Y-2.444 E0.05541
G1 X-1.690 Y-1.724 E0.05769
G1 X-1.417 Y-1.005 E0.05931
G1 X-1.108 Y-0.355 E0.05549
G1 X-0.749 Y0.269 E0.05545
G1 X-0.342 Y0.863 E0.05545
G1 X0.110 Y1.422 E0.05545
G1 X0.605 Y1.945 E0.05545
G1 X1.139 Y2.427 E0.05545
G1 X1.709 Y2.866 E0.05545
G1 X2.312 Y3.258 E0.05545
G1 X2.944 Y3.603 E0.05545
G1 X3.602 Y3.896 E0.05551
G1 X4.355 Y4.161 E0.06155
G1 X4.939 Y4.310 E0.04646
G1 X5.536 Y4.384 E0.04635
G1 X6.062 Y4.386 E0.04051
G1 X6.613 Y4.323 E0.04277
G1 X14.785 Y2.748 E0.64138
G1 X15.222 Y2.723 E0.03372
G1 X15.659 Y2.756 E0.03376
G1 X16.088 Y2.845 E0.03376
G1 X16.502 Y2.990 E0.03382
G1 X16.868 Y3.172 E0.03146
G1 X17.209 Y3.398 E0.03151
G1 X17.519 Y3.664 E0.03152
G1 X17.796 Y3.966 E0.03158
G1 X18.017 Y4.273 E0.02915
G1 X18.215 Y4.632 E0.03158
G1 X18.368 Y5.011 E0.03152
G1 X18.476 Y5.412 E0.03200
G1 X18.560 Y5.890 E0.03743
G1 X18.585 Y6.297 E0.03142
G1 X18.557 Y6.733 E0.03366
G1 X18.473 Y7.161 E0.03360
G1 X18.333 Y7.575 E0.03366
G1 X18.156 Y7.940 E0.03125
G1 X17.918 Y8.306 E0.03366
G1 X17.635 Y8.637 E0.03360
G1 X17.311 Y8.929 E0.03360
G1 X16.951 Y9.177 E0.03366
G1 X16.591 Y9.363 E0.03125
G1 X16.175 Y9.515 E0.03407
G1 X8.793 Y11.410 E0.58735
G1 X8.455 Y11.139 F15000.000
G1 E-4.20000 F1500.00000
G1 Z1.300 F15000.000
G1 X-6.441 Y-12.889 F15000.000
G1 Z0.300 F15000.000
G1 E4.20000 F1500.00000
G1 X-5.840 Y-13.022 E0.04746 F720.000
G1 X-5.474 Y-13.075 E0.02847
