; generated by Slic3r 1.2.9 on 2019-07-04 at 10:18:51

; external perimeters extrusion width = 0.40mm
; perimeters extrusion width = 0.40mm
; infill extrusion width = 0.40mm
; solid infill extrusion width = 0.40mm
; top infill extrusion width = 0.40mm

M107
M83
T0
M116
G21 ; set units to millimeters
G90 ; use absolute coordinates
M83 ; use relative distances for extrusion
G1 E-4.20000 F1500.00000
G1 Z1.000 F15000.000
G1 X-9.163 Y6.768 F15000.000
G1 Z0.300 F15000.000
G1 E4.20000 F1500.00000
G1 X-9.515 Y6.272 E0.04684 F2400.000
G1 X-9.994 Y5.478 E0.07154
G1 X-10.401 Y4.666 E0.07000
G1 X-10.748 Y3.812 E0.07105
G1 X-10.946 Y3.211 E0.04872
G1 X-11.174 Y2.319 E0.07098
G1 X-11.332 Y1.405 E0.07146
G1 X-11.416 Y0.493 E0.07056
G1 X-11.427 Y-0.336 E0.06394
G1 X-11.371 Y-1.275 E0.07250
G1 X-11.332 Y-1.633 E0.02775
G1 X-11.174 Y-2.540 E0.07094
G1 X-11.025 Y-3.154 E0.04872
G1 X-10.748 Y-4.033 E0.07098
G1 X-10.402 Y-4.887 E0.07101
G1 X-9.989 Y-5.709 E0.07090
G1 X-9.350 Y-6.737 E0.09329
G1 X-8.793 Y-7.472 E0.07106
G1 X-8.180 Y-8.158 E0.07089
G1 X-7.729 Y-8.601 E0.04873
G1 X-7.029 Y-9.200 E0.07098
G1 X-6.284 Y-9.742 E0.07100
G1 X-5.502 Y-10.221 E0.07072
G1 X-4.413 Y-10.757 E0.09348
G1 X-3.553 Y-11.086 E0.07098
G1 X-2.680 Y-11.343 E0.07017
G1 X-2.054 Y-11.482 E0.04939
G1 X-1.141 Y-11.622 E0.07122
G1 X-0.206 Y-11.689 E0.07221
G1 X0.700 Y-11.681 E0.06981
G1 X1.595 Y-11.604 E0.06924 F2400.000
G1 X2.503 Y-11.453 E0.07095
G1 X3.693 Y-11.140 E0.09480
G1 X4.290 Y-10.930 E0.04876
G1 X5.136 Y-10.567 E0.07098
G1 X6.200 Y-9.990 E0.09324
G1 X6.949 Y-9.490 E0.06943
G1 X7.461 Y-9.096 E0.04977
G1 X8.363 Y-8.281 E0.09373
G1 X8.986 Y-7.603 E0.07092
G1 X9.382 Y-7.109 E0.04877
G1 X9.901 Y-6.365 E0.06991
G1 X10.371 Y-5.564 E0.07157
G1 X10.887 Y-4.462 E0.09378
G1 X11.108 Y-3.871 E0.04864
G1 X11.368 Y-3.002 E0.06992
G1 X11.611 Y-1.803 E0.09427
G1 X11.686 Y-1.175 E0.04874
G1 X11.734 Y-0.255 E0.07098
G1 X11.686 Y0.954 E0.09324
G1 X11.565 Y1.867 E0.07097
G1 X11.374 Y2.759 E0.07032
G1 X11.199 Y3.373 E0.04923
G1 X10.886 Y4.243 E0.07121
G1 X10.374 Y5.338 E0.09316
G1 X10.061 Y5.887 E0.04873
G1 X9.554 Y6.656 E0.07098
G1 X8.797 Y7.599 E0.09325
G1 X8.157 Y8.261 E0.07092
G1 X7.688 Y8.686 E0.04877
G1 X6.726 Y9.427 E0.09357
G1 X5.951 Y9.916 E0.07062
G1 X5.136 Y10.346 E0.07100
G1 X4.290 Y10.709 E0.07098
G1 X3.693 Y10.918 E0.04873
G1 X2.525 Y11.227 E0.09316
G1 X1.902 Y11.340 E0.04878
G1 X0.986 Y11.443 E0.07102
G1 X0.066 Y11.473 E0.07090
G1 X-0.854 Y11.429 E0.07102
G1 X-2.052 Y11.261 E0.09324
G1 X-2.949 Y11.050 E0.07098
G1 X-3.553 Y10.865 E0.04873
G1 X-4.678 Y10.418 E0.09321
G1 X-5.245 Y10.139 E0.04874
G1 X-6.041 Y9.679 E0.07089
G1 X-7.029 Y8.979 E0.09330
G1 X-7.514 Y8.573 E0.04872
G1 X-8.180 Y7.937 E0.07098
G1 X-8.794 Y7.249 E0.07104
G1 X-9.127 Y6.817 E0.04209
G1 E-4.20000 F1500.00000
G1 Z1.300 F15000.000
G1 X-2.219 Y1.889 F15000.000
G1 Z0.300 F15000.000
G1 E4.20000 F1500.00000
G1 X-2.529 Y1.448 E0.04154 F2400.000
G1 X-2.759 Y0.961 E0.04154
G1 X-2.900 Y0.441 E0.04154
G1 X-2.950 Y-0.096 E0.04154
G1 X-2.905 Y-0.633 E0.04154
G1 X-2.769 Y-1.155 E0.04154
G1 X-2.422 Y-1.911 E0.06410
G1 X-3.465 Y-1.911 E0.08037
G1 X-3.465 Y-6.011 E0.31597
G1 X3.768 Y-6.011 E0.55737 F2400.000
G1 X3.768 Y-1.911 E0.31597
G1 X2.725 Y-1.911 E0.08037
G1 X3.072 Y-1.155 E0.06410
G1 X3.207 Y-0.641 E0.04095
G1 X3.242 Y-0.358 E0.02196
G1 X3.240 Y0.173 E0.04095
G1 X3.144 Y0.704 E0.04154
G1 X2.961 Y1.202 E0.04095
G1 X2.828 Y1.455 E0.02195
G1 X2.525 Y1.885 E0.04060
G1 X2.140 Y2.269 E0.04188
G1 X1.698 Y2.578 E0.04155
G1 X1.209 Y2.805 E0.04153
G1 X0.701 Y2.941 E0.04059
G1 X0.414 Y2.979 E0.02230
G1 X-0.118 Y2.979 E0.04097
G1 X-0.641 Y2.887 E0.04095
G1 X-0.913 Y2.802 E0.02196
G1 X-1.395 Y2.578 E0.04095
G1 X-1.837 Y2.269 E0.04154
G1 X-2.177 Y1.931 E0.03691
G1 X-2.615 Y1.948 F15000.000
G1 E-4.20000 F1500.00000
G1 Z1.300 F15000.000
G1 X-0.022 Y-6.646 F15000.000
G1 Z0.300 F15000.000
G1 E4.20000 F1500.00000
G1 X-0.791 Y-6.646 E0.05932 F2400.000
G1 X-0.816 Y-7.001 E0.02741
G1 X-0.539 Y-7.040 E0.02153
G1 X0.025 Y-7.073 E0.04360
G1 X0.567 Y-7.062 E0.04173
G1 X1.102 Y-7.009 E0.04145 F2400.000
G1 X1.084 Y-6.646 E0.02797
G1 X0.038 Y-6.646 E0.08057
G1 E-4.20000 F1500.00000
G1 Z1.300 F15000.000
G1 X0.827 Y6.815 F15000.000
G1 Z0.300 F15000.000
G1 E4.20000 F1500.00000
G1 X0.566 Y6.841 E0.02016 F2400.000
G1 X0.014 Y6.852 E0.04259
G1 X-0.540 Y6.819 E0.04271
G1 X-1.088 Y6.742 E0.04267
G1 X-1.628 Y6.622 E0.04267
G1 X-2.158 Y6.459 E0.04269
G1 X-2.672 Y6.255 E0.04265
G1 X-3.169 Y6.010 E0.04270
G1 X-3.644 Y5.727 E0.04259
G1 X-4.097 Y5.407 E0.04272
G1 X-4.522 Y5.052 E0.04267
G1 X-4.917 Y4.664 E0.04267
G1 X-5.281 Y4.246 E0.04273
G1 X-5.609 Y3.802 E0.04254
G1 X-5.907 Y3.321 E0.04360
G1 X-6.156 Y2.840 E0.04174
G1 X-6.371 Y2.329 E0.04274
G1 X-6.544 Y1.803 E0.04267
G1 X-6.675 Y1.265 E0.04266
G1 X-6.763 Y0.714 E0.04304
G1 X-6.807 Y0.157 E0.04304
G1 X-6.812 Y-0.098 E0.01963
G1 X-6.761 Y-0.949 E0.06573
G1 X-6.675 Y-1.486 E0.04190
G1 X-6.544 Y-2.024 E0.04268
G1 X-6.371 Y-2.550 E0.04267
G1 X-6.156 Y-3.061 E0.04270
G1 X-5.902 Y-3.552 E0.04259
G1 X-5.609 Y-4.022 E0.04271
G1 X-5.280 Y-4.468 E0.04273
G1 X-4.917 Y-4.885 E0.04259
G1 X-4.522 Y-5.273 E0.04269
G1 X-4.100 Y-5.625 E0.04232
G1 X-4.100 Y-1.275 E0.33525
G1 X-3.394 Y-1.275 E0.05440
G1 X-3.534 Y-0.741 E0.04256
G1 X-3.588 Y-0.093 E0.05008
G1 X-3.528 Y0.554 E0.05008
G1 X-3.358 Y1.181 E0.05008
G1 X-3.081 Y1.769 E0.05008
G1 X-2.707 Y2.300 E0.05008
G1 X-2.246 Y2.759 E0.05008
G1 X-1.713 Y3.131 E0.05008
G1 X-1.143 Y3.396 E0.04842
G1 X-0.792 Y3.506 E0.02836
G1 X-0.173 Y3.615 E0.04842
G1 X0.456 Y3.615 E0.04848
G1 X0.825 Y3.566 E0.02871
G1 X1.427 Y3.405 E0.04803
G1 X2.016 Y3.131 E0.05007
G1 X2.550 Y2.759 E0.05013
G1 X3.013 Y2.296 E0.05043
G1 X3.372 Y1.787 E0.04804
G1 X3.543 Y1.461 E0.02835
G1 X3.760 Y0.871 E0.04842
G1 X3.875 Y0.232 E0.05009
G1 X3.878 Y-0.397 E0.04842
G1 X3.832 Y-0.762 E0.02836
G1 X3.697 Y-1.275 E0.04089
G1 X4.403 Y-1.275 E0.05440
G1 X4.403 Y-5.647 E0.33695
G1 X5.027 Y-5.083 E0.06478
G1 X5.406 Y-4.681 E0.04259 F2400.000
G1 X5.752 Y-4.248 E0.04273
G1 X6.056 Y-3.801 E0.04166
G1 X6.338 Y-3.308 E0.04374
G1 X6.572 Y-2.807 E0.04266
G1 X6.766 Y-2.289 E0.04259
G1 X6.914 Y-1.769 E0.04169
G1 X7.027 Y-1.213 E0.04371
G1 X7.093 Y-0.664 E0.04263
G1 X7.115 Y-0.111 E0.04267
G1 X7.093 Y0.443 E0.04267
G1 X7.027 Y0.993 E0.04272
G1 X6.919 Y1.529 E0.04214
G1 X6.766 Y2.068 E0.04318
G1 X6.571 Y2.587 E0.04271
G1 X6.337 Y3.088 E0.04259
G1 X6.064 Y3.569 E0.04268
G1 X5.752 Y4.027 E0.04267
G1 X5.406 Y4.459 E0.04270
G1 X5.027 Y4.862 E0.04259
G1 X4.616 Y5.234 E0.04271
G1 X4.174 Y5.573 E0.04295
G1 X3.713 Y5.873 E0.04237
G1 X3.226 Y6.137 E0.04270
G1 X2.720 Y6.362 E0.04267
G1 X2.198 Y6.546 E0.04269
G1 X1.663 Y6.687 E0.04259
G1 X1.118 Y6.786 E0.04273
G1 X0.886 Y6.809 E0.01792
G1 X0.949 Y7.441 F15000.000
G1 X0.604 Y7.476 E0.02673 F2400.000
G1 X0.001 Y7.488 E0.04649
G1 X-0.603 Y7.452 E0.04661
G1 X-1.201 Y7.368 E0.04657
G1 X-1.791 Y7.237 E0.04657
G1 X-2.369 Y7.059 E0.04659
G1 X-2.930 Y6.836 E0.04655
G1 X-3.473 Y6.569 E0.04660
G1 X-3.991 Y6.261 E0.04649
G1 X-4.485 Y5.911 E0.04662
G1 X-4.949 Y5.524 E0.04657
G1 X-5.380 Y5.101 E0.04657
G1 X-5.777 Y4.644 E0.04663
G1 X-6.135 Y4.159 E0.04647
G1 X-6.460 Y3.635 E0.04750
G1 X-6.732 Y3.110 E0.04561
G1 X-6.967 Y2.552 E0.04663
G1 X-7.156 Y1.978 E0.04657
G1 X-7.298 Y1.391 E0.04656
G1 X-7.395 Y0.789 E0.04694
G1 X-7.442 Y0.188 E0.04646
G1 X-7.448 Y-0.111 E0.02305
G1 X-7.394 Y-1.019 E0.07010
G1 X-7.298 Y-1.612 E0.04628
G1 X-7.156 Y-2.199 E0.04657
G1 X-6.967 Y-2.773 E0.04657
G1 X-6.732 Y-3.330 E0.04660
G1 X-6.455 Y-3.866 E0.04649
G1 X-6.136 Y-4.380 E0.04661
G1 X-5.776 Y-4.866 E0.04663
G1 X-5.380 Y-5.322 E0.04649
G1 X-4.949 Y-5.745 E0.04659
G1 X-4.485 Y-6.132 E0.04657
G1 X-3.992 Y-6.482 E0.04659
G1 X-3.475 Y-6.789 E0.04635
G1 X-2.930 Y-7.057 E0.04677
G1 X-2.368 Y-7.280 E0.04661
G1 X-1.798 Y-7.456 E0.04593
G1 X-1.200 Y-7.589 E0.04724
G1 X-0.602 Y-7.673 E0.04654
G1 X0.013 Y-7.709 E0.04751
G1 X0.605 Y-7.697 E0.04558
G1 X1.188 Y-7.639 E0.04517 F2400.000
G1 X1.788 Y-7.532 E0.04701
G1 X2.384 Y-7.375 E0.04749
G1 X2.955 Y-7.174 E0.04660
G1 X3.507 Y-6.929 E0.04657
G1 X4.038 Y-6.641 E0.04657
G1 X4.533 Y-6.319 E0.04552
G1 X5.024 Y-5.943 E0.04763
G1 X5.472 Y-5.537 E0.04657
G1 X5.886 Y-5.098 E0.04649
G1 X6.264 Y-4.626 E0.04663
G1 X6.596 Y-4.138 E0.04552
G1 X6.902 Y-3.601 E0.04764
G1 X7.159 Y-3.053 E0.04660
G1 X7.370 Y-2.488 E0.04649
G1 X7.532 Y-1.920 E0.04554
G1 X7.655 Y-1.314 E0.04761
G1 X7.727 Y-0.714 E0.04657
G1 X7.751 Y-0.111 E0.04657
G1 X7.727 Y0.493 E0.04657
G1 X7.655 Y1.094 E0.04661
G1 X7.537 Y1.679 E0.04602
G1 X7.370 Y2.267 E0.04708
G1 X7.158 Y2.833 E0.04663
G1 X6.902 Y3.380 E0.04649
G1 X6.604 Y3.905 E0.04658
G1 X6.264 Y4.405 E0.04657
G1 X5.886 Y4.877 E0.04659
G1 X5.472 Y5.316 E0.04649
G1 X5.024 Y5.722 E0.04662
G1 X4.542 Y6.093 E0.04685
G1 X4.039 Y6.420 E0.04626
G1 X3.507 Y6.708 E0.04660
G1 X2.955 Y6.953 E0.04657
G1 X2.385 Y7.154 E0.04658
G1 X1.801 Y7.308 E0.04649
G1 X1.009 Y7.435 E0.06185
G1 X0.742 Y7.163 F15000.000
G1 X-1.788 Y6.122 F15000.000
G1 X-6.077 Y1.833 E0.47168 F2400.000
G1 X-6.361 Y0.642 E0.09527
G1 X-0.602 Y6.400 E0.63340
G1 X0.366 Y6.462 E0.07548
G1 X-6.420 Y-0.325 E0.74646
G1 X-6.356 Y-1.167 E0.06572
G1 X-3.721 Y1.468 E0.28981
G1 X-3.949 Y0.332 E0.09005
G1 X-6.201 Y-1.920 E0.24778
G1 X-5.976 Y-2.602 E0.05585
G1 X-3.926 Y-0.552 E0.22549
G1 X-4.486 Y-2.019 F15000.000
G1 X-5.691 Y-3.224 E0.13254 F2400.000
G1 X-5.356 Y-3.797 E0.05158
G1 X-4.486 Y-2.926 E0.09573
G1 X-4.486 Y-3.833 E0.07056
G1 X-4.971 Y-4.319 E0.05343
G1 X-4.862 Y3.955 F15000.000
G1 X-3.909 Y4.908 E0.10474 F2400.000
G1 X-1.430 Y3.758 F15000.000
G1 X1.211 Y6.399 E0.29049 F2400.000
G1 X1.960 Y6.241 E0.05953
G1 X-0.281 Y4.000 E0.24647
G1 X0.594 Y3.968 E0.06813
G1 X2.645 Y6.019 E0.22557
G1 X3.265 Y5.732 E0.05316
G1 X1.331 Y3.798 E0.21277
G1 X1.969 Y3.529 E0.05386
G1 X3.836 Y5.395 E0.20532
G1 X4.360 Y5.012 E0.05050
G1 X2.527 Y3.180 E0.20160
G1 X3.015 Y2.760 E0.05003
G1 X4.824 Y4.569 E0.19901
G1 X5.267 Y4.104 E0.04991
G1 X3.436 Y2.273 E0.20139
G1 X3.789 Y1.720 E0.05110
G1 X5.652 Y3.583 E0.20491
G1 X5.992 Y3.015 E0.05144
G1 X4.054 Y1.077 E0.21314
G1 X4.225 Y0.341 E0.05878
G1 X6.275 Y2.391 E0.22544
G1 X6.500 Y1.709 E0.05584
G1 X4.264 Y-0.527 E0.24600
G1 X4.789 Y-0.909 E0.05051
G1 X6.658 Y0.960 E0.20561
G1 X6.725 Y0.120 E0.06553
G1 X4.789 Y-1.817 E0.21302
G1 X4.789 Y-2.724 E0.07056
G1 X6.666 Y-0.847 E0.20647
G1 X6.393 Y-2.027 E0.09425
G1 X4.789 Y-3.631 E0.17640
G1 X4.789 Y-4.538 E0.07056
G1 X5.249 Y-4.078 E0.05057
G1 X3.292 Y-6.495 F15000.000
G1 X2.180 Y-6.708 E0.18342 F2400.000
G1 X1.410 Y-6.807 E0.12566
G1 X-1.121 Y-6.799 F15000.000
G1 X-2.151 Y-6.664 E0.16834 F2400.000
G1 X-2.994 Y-6.491 E0.13931
G1 E-4.20000 F1500.00000
G1 Z1.300 F15000.000
G1 X-2.994 Y-6.218 F15000.000
G1 Z0.500 F15000.000
G1 E4.20000 F1500.00000
G1 X3.919 Y-6.218 E0.19951 F2400.000
G1 X3.919 Y-1.704 E0.13029
G1 X3.048 Y-1.704 E0.02513
G1 X3.268 Y-1.225 E0.01521
G1 X3.413 Y-0.668 E0.01660
G1 X3.461 Y-0.095 E0.01659
G1 X3.410 Y0.456 E0.01599
G1 X3.343 Y0.757 E0.00889
G1 X3.252 Y1.044 E0.00868
G1 X3.012 Y1.553 E0.01625
G1 X2.681 Y2.023 E0.01660
G1 X2.273 Y2.429 E0.01660
G1 X1.802 Y2.758 E0.01660
G1 X1.280 Y3.000 E0.01660
G1 X0.725 Y3.149 E0.01659
G1 X0.173 Y3.197 E0.01599
G1 X-0.147 Y3.184 E0.00924
G1 X-0.690 Y3.089 E0.01592
G1 X-0.988 Y2.995 E0.00901
G1 X-1.499 Y2.758 E0.01625
G1 X-1.970 Y2.429 E0.01660
G1 X-2.378 Y2.023 E0.01660
G1 X-2.709 Y1.553 E0.01660
G1 X-2.954 Y1.032 E0.01660
G1 X-3.105 Y0.478 E0.01660
G1 X-3.158 Y-0.095 E0.01660
G1 X-3.110 Y-0.668 E0.01660
G1 X-2.965 Y-1.225 E0.01660
G1 X-2.745 Y-1.704 E0.01521
G1 X-3.615 Y-1.704 E0.02513
G1 X-3.615 Y-6.218 E0.13029
G1 X-3.054 Y-6.218 E0.01621 F2400.000
G1 X-3.054 Y-5.861 F15000.000
G1 X3.561 Y-5.861 E0.19094 F2400.000
G1 X3.561 Y-2.061 E0.10968
G1 X2.354 Y-2.061 E0.03486
G1 X2.577 Y-1.791 E0.01011
G1 X2.718 Y-1.566 E0.00766
G1 X2.930 Y-1.104 E0.01468
G1 X3.060 Y-0.608 E0.01480
G1 X3.102 Y-0.097 E0.01480
G1 X3.057 Y0.401 E0.01444
G1 X2.998 Y0.664 E0.00777
G1 X2.919 Y0.913 E0.00754
G1 X2.702 Y1.373 E0.01468
G1 X2.407 Y1.792 E0.01480
G1 X2.044 Y2.154 E0.01480
G1 X1.623 Y2.447 E0.01480
G1 X1.158 Y2.663 E0.01480
G1 X0.663 Y2.796 E0.01480
G1 X0.164 Y2.839 E0.01444
G1 X-0.109 Y2.828 E0.00789
G1 X-0.606 Y2.741 E0.01456
G1 X-0.859 Y2.661 E0.00766
G1 X-1.320 Y2.447 E0.01468
G1 X-1.740 Y2.154 E0.01480
G1 X-2.104 Y1.792 E0.01480
G1 X-2.399 Y1.373 E0.01480
G1 X-2.618 Y0.909 E0.01480
G1 X-2.752 Y0.414 E0.01480
G1 X-2.799 Y-0.097 E0.01480
G1 X-2.757 Y-0.608 E0.01480
G1 X-2.627 Y-1.104 E0.01480
G1 X-2.413 Y-1.570 E0.01480
G1 X-2.074 Y-2.061 E0.01721
G1 X-3.258 Y-2.061 E0.03417
G1 X-3.258 Y-5.861 E0.10968
G1 X-3.114 Y-5.861 E0.00417 F2400.000
G1 X-2.854 Y-6.207 F15000.000
G1 E-4.20000 F1500.00000
G1 Z1.500 F15000.000
G1 X0.554 Y7.269 F15000.000
G1 Z0.500 F15000.000
G1 E4.20000 F1500.00000
G1 X0.005 Y7.280 E0.01583 F2400.000
G1 X-0.582 Y7.245 E0.01698
G1 X-1.164 Y7.164 E0.01697
G1 X-1.738 Y7.036 E0.01697
G1 X-2.301 Y6.863 E0.01698
G1 X-2.846 Y6.647 E0.01695
G1 X-3.374 Y6.387 E0.01698
G1 X-3.878 Y6.087 E0.01694
G1 X-4.358 Y5.747 E0.01698
G1 X-4.809 Y5.370 E0.01697
G1 X-5.229 Y4.958 E0.01697
G1 X-5.615 Y4.514 E0.01699
G1 X-5.963 Y4.043 E0.01691
G1 X-6.290 Y3.513 E0.01797
G1 X-6.544 Y3.022 E0.01597
G1 X-6.772 Y2.479 E0.01699
G1 X-6.956 Y1.921 E0.01697
G1 X-7.095 Y1.350 E0.01696
G1 X-7.190 Y0.754 E0.01740
G1 X-7.241 Y-0.119 E0.02526
G1 X-7.187 Y-0.997 E0.02537
G1 X-7.095 Y-1.571 E0.01679
G1 X-6.956 Y-2.142 E0.01697
G1 X-6.772 Y-2.700 E0.01697
G1 X-6.545 Y-3.243 E0.01698
G1 X-6.275 Y-3.764 E0.01694
G1 X-5.964 Y-4.263 E0.01698
G1 X-5.615 Y-4.737 E0.01699
G1 X-5.229 Y-5.179 E0.01694
G1 X-4.809 Y-5.591 E0.01697
G1 X-4.358 Y-5.968 E0.01697
G1 X-3.878 Y-6.308 E0.01698
G1 X-3.381 Y-6.604 E0.01670
G1 X-2.846 Y-6.868 E0.01722
G1 X-2.299 Y-7.085 E0.01698
G1 X-1.760 Y-7.251 E0.01629
G1 X-1.163 Y-7.385 E0.01766
G1 X-0.582 Y-7.467 E0.01692
G1 X0.041 Y-7.502 E0.01802
G1 X0.592 Y-7.490 E0.01592
G1 X1.127 Y-7.438 E0.01549 F2400.000
G1 X1.721 Y-7.334 E0.01743
G1 X2.324 Y-7.177 E0.01798
G1 X2.878 Y-6.982 E0.01696
G1 X3.416 Y-6.743 E0.01697
G1 X3.919 Y-6.472 E0.01649
G1 X4.392 Y-6.164 E0.01631
G1 X4.892 Y-5.783 E0.01812
G1 X5.327 Y-5.389 E0.01694
G1 X5.729 Y-4.962 E0.01694
G1 X6.097 Y-4.503 E0.01699
G1 X6.428 Y-4.017 E0.01697
G1 X6.718 Y-3.506 E0.01697
G1 X6.967 Y-2.973 E0.01698
G1 X7.173 Y-2.423 E0.01694
G1 X7.335 Y-1.858 E0.01698
G1 X7.451 Y-1.283 E0.01694
G1 X7.521 Y-0.698 E0.01699
G1 X7.544 Y-0.111 E0.01697
G1 X7.521 Y0.477 E0.01697
G1 X7.451 Y1.061 E0.01699
G1 X7.339 Y1.617 E0.01638
G1 X7.173 Y2.202 E0.01754
G1 X6.967 Y2.753 E0.01697
G1 X6.718 Y3.285 E0.01694
G1 X6.428 Y3.796 E0.01697
G1 X6.097 Y4.282 E0.01697
G1 X5.729 Y4.741 E0.01698
G1 X5.327 Y5.168 E0.01694
G1 X4.891 Y5.563 E0.01698
G1 X4.415 Y5.928 E0.01731
G1 X3.933 Y6.242 E0.01661
G1 X3.416 Y6.522 E0.01698
G1 X2.878 Y6.761 E0.01697
G1 X2.324 Y6.956 E0.01697
G1 X1.756 Y7.106 E0.01694
G1 X1.177 Y7.210 E0.01699
G1 X0.613 Y7.267 E0.01635
G1 X0.649 Y7.622 F15000.000
G1 X-0.002 Y7.638 E0.01879 F2400.000
G1 X-0.618 Y7.601 E0.01780
G1 X-1.228 Y7.515 E0.01779
G1 X-1.829 Y7.382 E0.01779
G1 X-2.419 Y7.200 E0.01780
G1 X-2.991 Y6.973 E0.01777
G1 X-3.544 Y6.701 E0.01780
G1 X-4.073 Y6.386 E0.01776
G1 X-4.576 Y6.030 E0.01780
G1 X-5.049 Y5.635 E0.01779
G1 X-5.489 Y5.203 E0.01779
G1 X-5.894 Y4.738 E0.01781
G1 X-6.260 Y4.243 E0.01775
G1 X-6.601 Y3.689 E0.01879
G1 X-6.868 Y3.173 E0.01677
G1 X-7.107 Y2.604 E0.01781
G1 X-7.300 Y2.019 E0.01779
G1 X-7.446 Y1.420 E0.01778
G1 X-7.545 Y0.797 E0.01823
G1 X-7.592 Y0.196 E0.01740
G1 X-7.598 Y-0.127 E0.00932
G1 X-7.543 Y-1.036 E0.02628
G1 X-7.446 Y-1.641 E0.01770
G1 X-7.300 Y-2.240 E0.01779
G1 X-7.107 Y-2.825 E0.01779
G1 X-6.868 Y-3.394 E0.01780
G1 X-6.586 Y-3.940 E0.01776
G1 X-6.260 Y-4.464 E0.01780
G1 X-5.893 Y-4.960 E0.01781
G1 X-5.490 Y-5.425 E0.01776
G1 X-5.049 Y-5.856 E0.01779
G1 X-4.576 Y-6.251 E0.01779
G1 X-4.073 Y-6.608 E0.01779
G1 X-3.552 Y-6.918 E0.01752
G1 X-2.991 Y-7.195 E0.01804
G1 X-2.418 Y-7.422 E0.01780
G1 X-1.852 Y-7.597 E0.01709
G1 X-1.227 Y-7.737 E0.01849
G1 X-0.617 Y-7.822 E0.01777
G1 X0.035 Y-7.859 E0.01884
