; generated by Slic3r 1.2.9 on 2019-07-04 at 10:24:28

; external perimeters extrusion width = 0.40mm
; perimeters extrusion width = 0.40mm
; infill extrusion width = 0.40mm
; solid infill extrusion width = 0.40mm
; top infill extrusion width = 0.40mm

M107
M83
T0
M116
G21 ; set units to millimeters
G90 ; use absolute coordinates
M83 ; use relative distances for extrusion
G1 E-4.20000 F1500.00000
G1 Z1.000 F15000.000
G1 X-5.593 Y20.873 F15000.000
G1 Z0.300 F15000.000
G1 E4.20000 F1500.00000
G1 X-7.588 Y20.324 E0.15945 F960.000
G1 X-8.634 Y19.911 E0.08669
G1 X-9.005 Y19.730 E0.03177
G1 X-12.134 Y17.976 E0.27647
G1 X-12.518 Y17.728 E0.03525
G1 X-13.280 Y17.164 E0.07301
G1 X-13.628 Y16.871 E0.03512
G1 X-16.223 Y14.394 E0.27647
G1 X-16.533 Y14.058 E0.03526
G1 X-17.131 Y13.323 E0.07300
G1 X-17.396 Y12.952 E0.03511
G1 X-19.293 Y9.907 E0.27647
G1 X-19.510 Y9.504 E0.03525
G1 X-19.906 Y8.644 E0.07301
G1 X-20.070 Y8.219 E0.03512
G1 X-21.151 Y4.798 E0.27647
G1 X-21.315 Y4.083 E0.05654
G1 X-21.435 Y3.396 E0.05370
G1 X-21.484 Y2.969 E0.03313
G1 X-21.679 Y-0.613 E0.27647
G1 X-21.675 Y-1.070 E0.03525
G1 X-21.608 Y-2.015 E0.07301
G1 X-21.547 Y-2.467 E0.03512
G1 X-20.846 Y-5.985 E0.27647
G1 X-20.728 Y-6.427 E0.03525
G1 X-20.428 Y-7.326 E0.07301
G1 X-20.257 Y-7.748 E0.03512
G1 X-18.703 Y-10.981 E0.27647
G1 X-18.333 Y-11.615 E0.05654
G1 X-17.950 Y-12.197 E0.05370
G1 X-17.694 Y-12.542 E0.03313
G1 X-15.384 Y-15.287 E0.27647
G1 X-15.016 Y-15.670 E0.04090
G1 X-14.361 Y-16.271 E0.06856
G1 X-14.019 Y-16.548 E0.03392
G1 X-11.099 Y-18.633 E0.27647
G1 X-10.711 Y-18.875 E0.03525
G1 X-9.877 Y-19.324 E0.07301
G1 X-9.463 Y-19.515 E0.03512
G1 X-6.116 Y-20.808 E0.27647
G1 X-5.733 Y-20.932 E0.03108
G1 X-5.230 Y-21.063 E0.04007
G1 X-4.718 Y-21.183 E0.04047
G1 X-4.312 Y-21.255 E0.03177
G1 X-0.750 Y-21.675 E0.27647
G1 X0.113 Y-21.702 E0.06655
G1 X0.691 Y-21.691 E0.04453 F960.000
G1 X1.109 Y-21.659 E0.03229
G1 X4.664 Y-21.180 E0.27647
G1 X5.060 Y-21.104 E0.03109
G1 X6.070 Y-20.836 E0.08053
G1 X6.460 Y-20.703 E0.03177
G1 X9.785 Y-19.355 E0.27647
G1 X10.197 Y-19.157 E0.03526
G1 X11.024 Y-18.693 E0.07301
G1 X11.406 Y-18.446 E0.03511
G1 X14.291 Y-16.314 E0.27647
G1 X14.614 Y-16.045 E0.03237
G1 X15.042 Y-15.645 E0.04515
G1 X15.635 Y-15.030 E0.06585
G1 X17.899 Y-12.247 E0.27647
G1 X18.136 Y-11.920 E0.03109
G1 X18.688 Y-11.033 E0.08054
G1 X18.882 Y-10.669 E0.03177
G1 X20.382 Y-7.411 E0.27647
G1 X20.547 Y-6.984 E0.03525
G1 X20.832 Y-6.081 E0.07300
G1 X20.942 Y-5.638 E0.03512
G1 X21.585 Y-2.109 E0.27647
G1 X21.637 Y-1.679 E0.03337
G1 X21.681 Y-0.969 E0.05487
G1 X21.686 Y-0.253 E0.05513
G1 X21.431 Y3.325 E0.27647
G1 X21.377 Y3.742 E0.03237
G1 X21.172 Y4.767 E0.08058
G1 X21.068 Y5.148 E0.03044
G1 X19.931 Y8.550 E0.27647
G1 X19.759 Y8.974 E0.03526
G1 X19.349 Y9.828 E0.07301
G1 X19.126 Y10.225 E0.03511
G1 X17.179 Y13.238 E0.27647
G1 X16.915 Y13.596 E0.03421
G1 X16.388 Y14.227 E0.06337
G1 X15.982 Y14.661 E0.04580
G1 X13.347 Y17.095 E0.27647
G1 X13.012 Y17.369 E0.03337
G1 X12.160 Y17.976 E0.08061
G1 X11.834 Y18.175 E0.02941
G1 X8.676 Y19.877 E0.27647
G1 X8.260 Y20.068 E0.03525
G1 X7.377 Y20.409 E0.07301
G1 X6.942 Y20.547 E0.03512
G1 X3.460 Y21.410 E0.27647
G1 X3.010 Y21.492 E0.03525
G1 X2.069 Y21.603 E0.07301
G1 X1.614 Y21.628 E0.03512
G1 X-1.973 Y21.598 E0.27647
G1 X-2.429 Y21.565 E0.03525
G1 X-3.368 Y21.439 E0.07301
G1 X-3.823 Y21.347 E0.03574
G1 X-5.535 Y20.889 E0.13660
G1 E-4.20000 F1500.00000
G1 Z1.300 F15000.000
G1 X-1.000 Y13.953 F15000.000
G1 Z0.300 F15000.000
G1 E4.20000 F1500.00000
G1 X-1.253 Y13.746 E0.02520 F720.000
G1 X-1.463 Y13.500 E0.02493
G1 X-1.622 Y13.225 E0.02447
G1 X-1.733 Y12.917 E0.02522
G1 X-2.906 Y5.608 E0.57052
G1 X-2.924 Y5.075 E0.04104
G1 X-3.419 Y5.327 E0.04282
G1 X-10.289 Y7.950 E0.56667
G1 X-10.740 Y8.029 E0.03528
G1 X-11.247 Y7.973 E0.03933
G1 X-11.710 Y7.780 E0.03864
G1 X-12.085 Y7.482 E0.03692
G1 X-12.314 Y7.186 E0.02884
G1 X-12.469 Y6.876 E0.02670
G1 X-12.561 Y6.543 E0.02662
G1 X-12.588 Y6.188 E0.02745
G1 X-12.543 Y5.835 E0.02745
G1 X-12.433 Y5.506 E0.02674
G1 X-12.258 Y5.198 E0.02729
G1 X-12.038 Y4.944 E0.02590
G1 X-6.280 Y0.263 E0.57185
G1 X-5.804 Y0.006 E0.04167
G1 X-6.244 Y-0.238 E0.03878
G1 X-12.058 Y-4.960 E0.57722
G1 X-12.363 Y-5.351 E0.03820
G1 X-12.552 Y-5.847 E0.04088
G1 X-12.589 Y-6.376 E0.04089
G1 X-12.469 Y-6.893 E0.04088
G1 X-12.204 Y-7.352 E0.04088
G1 X-11.816 Y-7.714 E0.04088
G1 X-11.338 Y-7.948 E0.04102
G1 X-10.835 Y-8.026 E0.03925
G1 X-10.488 Y-7.997 E0.02682
G1 X-10.213 Y-7.922 E0.02193
G1 X-3.428 Y-5.330 E0.55980
G1 X-2.909 Y-5.069 E0.04475
G1 X-2.907 Y-5.599 E0.04083
G1 X-1.732 Y-12.931 E0.57228
G1 X-1.517 Y-13.437 E0.04232
G1 X-1.119 Y-13.877 E0.04573
G1 X-0.598 Y-14.165 E0.04586
G1 X-0.004 Y-14.268 E0.04647 F720.000
G1 X0.585 Y-14.170 E0.04602
G1 X1.107 Y-13.887 E0.04574
G1 X1.508 Y-13.450 E0.04572
G1 X1.729 Y-12.942 E0.04267
G1 X2.905 Y-5.611 E0.57219
G1 X2.927 Y-5.079 E0.04108
G1 X3.427 Y-5.330 E0.04313
G1 X10.210 Y-7.921 E0.55952
G1 X10.475 Y-7.994 E0.02124
G1 X10.826 Y-8.026 E0.02713
G1 X11.324 Y-7.952 E0.03883
G1 X11.803 Y-7.723 E0.04092
G1 X12.194 Y-7.364 E0.04088
G1 X12.463 Y-6.907 E0.04089
G1 X12.588 Y-6.390 E0.04102
G1 X12.553 Y-5.851 E0.04162
G1 X12.362 Y-5.351 E0.04118
G1 X12.058 Y-4.960 E0.03821
G1 X6.203 Y-0.205 E0.58130
G1 X5.764 Y-0.013 E0.03692
G1 X6.278 Y0.262 E0.04496
G1 X12.038 Y4.944 E0.57199
G1 X12.258 Y5.198 E0.02591
G1 X12.433 Y5.505 E0.02729
G1 X12.543 Y5.835 E0.02675
G1 X12.587 Y6.186 E0.02729
G1 X12.563 Y6.532 E0.02675
G1 X12.470 Y6.874 E0.02729
G1 X12.315 Y7.185 E0.02676
G1 X12.084 Y7.483 E0.02910
G1 X11.700 Y7.786 E0.03767
G1 X11.236 Y7.975 E0.03864
G1 X10.738 Y8.028 E0.03862
G1 X10.289 Y7.950 E0.03513
G1 X3.419 Y5.327 E0.56667
G1 X2.911 Y5.069 E0.04389
G1 X2.906 Y5.609 E0.04158
G1 X1.737 Y12.902 E0.56928
G1 X1.556 Y13.366 E0.03839
G1 X1.223 Y13.785 E0.04123
G1 X0.773 Y14.090 E0.04189
G1 X0.281 Y14.239 E0.03962
G1 X-0.078 Y14.256 E0.02768
G1 X-0.402 Y14.212 E0.02524
G1 X-0.713 Y14.110 E0.02521
G1 X-0.947 Y13.982 E0.02057
G1 X-0.642 Y13.424 F15000.000
G1 X-0.806 Y13.290 E0.01635 F600.000
G1 X-0.941 Y13.131 E0.01606
G1 X-1.043 Y12.955 E0.01568
G1 X-1.115 Y12.757 E0.01622
G1 X-2.272 Y5.546 E0.56284
G1 X-2.280 Y5.315 E0.01785
G1 X-2.237 Y5.076 E0.01870
G1 X-2.141 Y4.846 E0.01919
G1 X-1.999 Y4.643 E0.01909
G1 X-1.821 Y4.478 E0.01871
G1 X-1.607 Y4.351 E0.01920
G1 X-1.372 Y4.273 E0.01908
G1 X-1.150 Y4.250 E0.01722 F600.000
G1 X1.158 Y4.250 E0.17786
G1 X1.396 Y4.278 E0.01842
G1 X1.706 Y4.400 E0.02571
G1 X1.979 Y4.617 E0.02689
G1 X2.174 Y4.907 E0.02693
G1 X2.274 Y5.242 E0.02688
G1 X2.271 Y5.555 E0.02414
G1 X1.120 Y12.735 E0.56039
G1 X0.999 Y13.046 E0.02572
G1 X0.786 Y13.313 E0.02638
G1 X0.496 Y13.510 E0.02696
G1 X0.172 Y13.608 E0.02609
G1 X-0.050 Y13.619 E0.01716
G1 X-0.259 Y13.590 E0.01623
G1 X-0.459 Y13.524 E0.01622
G1 X-0.589 Y13.453 E0.01145
G1 X-0.835 Y13.512 F15000.000
G1 X-3.885 Y4.824 F15000.000
G1 X-10.458 Y7.334 E0.54230 F600.000
G1 X-10.760 Y7.387 E0.02358
G1 X-11.087 Y7.351 E0.02536
G1 X-11.384 Y7.228 E0.02478
G1 X-11.629 Y7.032 E0.02417
G1 X-11.773 Y6.846 E0.01814
G1 X-11.873 Y6.647 E0.01715
G1 X-11.932 Y6.434 E0.01707
G1 X-11.949 Y6.205 E0.01770
G1 X-11.920 Y5.977 E0.01770
G1 X-11.850 Y5.766 E0.01711
G1 X-11.737 Y5.567 E0.01766
G1 X-11.594 Y5.402 E0.01681
G1 X-5.925 Y0.794 E0.56298
G1 X-5.621 Y0.630 E0.02670
G1 X-5.256 Y0.567 E0.02854 F600.000
G1 X-4.980 Y0.598 E0.02138
G1 X-4.734 Y0.686 E0.02009
G1 X-4.515 Y0.827 E0.02008
G1 X-4.326 Y1.021 E0.02088
G1 X-3.077 Y3.173 E0.19179
G1 X-2.970 Y3.507 E0.02702
G1 X-2.974 Y3.877 E0.02849
G1 X-3.094 Y4.225 E0.02843
G1 X-3.306 Y4.504 E0.02700
G1 X-3.494 Y4.652 E0.01841
G1 X-3.828 Y4.802 E0.02827
G1 X-3.941 Y5.220 F15000.000
G1 X-2.079 Y3.600 F15000.000
G1 X-4.157 Y-0.000 E0.32036 F600.000
G1 X-2.079 Y-3.600 E0.32035
G1 X2.078 Y-3.600 E0.32036 F600.000
G1 X4.157 Y-0.000 E0.32035
G1 X2.078 Y3.600 E0.32036
G1 X-2.019 Y3.600 E0.31573
G1 X-2.454 Y3.737 F15000.000
G1 X2.970 Y3.543 F15000.000
G1 X3.077 Y3.173 E0.02965 F600.000
G1 X4.326 Y1.021 E0.19179
G1 X4.515 Y0.827 E0.02087
G1 X4.734 Y0.686 E0.02008
G1 X4.979 Y0.599 E0.02003
G1 X5.246 Y0.567 E0.02073 F600.000
G1 X5.612 Y0.627 E0.02854
G1 X5.925 Y0.794 E0.02735
G1 X11.594 Y5.402 E0.56302
G1 X11.737 Y5.567 E0.01681
G1 X11.850 Y5.766 E0.01765
G1 X11.920 Y5.977 E0.01711
G1 X11.949 Y6.204 E0.01765
G1 X11.933 Y6.425 E0.01711
G1 X11.873 Y6.646 E0.01765
G1 X11.774 Y6.845 E0.01712
G1 X11.629 Y7.033 E0.01829
G1 X11.377 Y7.232 E0.02471
G1 X11.079 Y7.353 E0.02478
G1 X10.759 Y7.387 E0.02483
G1 X10.458 Y7.334 E0.02353
G1 X3.677 Y4.745 E0.55940
G1 X3.494 Y4.652 E0.01583
G1 X3.306 Y4.504 E0.01842
G1 X3.094 Y4.225 E0.02702
G1 X2.973 Y3.877 E0.02842
G1 X2.970 Y3.603 E0.02111
G1 X2.677 Y3.293 F15000.000
G1 X4.711 Y-0.697 F15000.000
G1 X4.411 Y-0.920 E0.02881 F600.000
G1 X4.256 Y-1.128 E0.02004
G1 X3.025 Y-3.288 E0.19153
G1 X2.959 Y-3.617 E0.02589
G1 X2.988 Y-3.945 E0.02540
G1 X3.109 Y-4.252 E0.02541
G1 X3.308 Y-4.506 E0.02481
G1 X3.494 Y-4.652 E0.01831
G1 X3.684 Y-4.747 E0.01635
G1 X10.408 Y-7.316 E0.55473
G1 X10.590 Y-7.367 E0.01452
G1 X10.807 Y-7.387 E0.01684 F600.000
G1 X11.136 Y-7.337 E0.02559
G1 X11.443 Y-7.190 E0.02627
G1 X11.695 Y-6.960 E0.02626
G1 X11.868 Y-6.666 E0.02626
G1 X11.947 Y-6.335 E0.02631
G1 X11.925 Y-5.987 E0.02680
G1 X11.803 Y-5.667 E0.02643
G1 X11.601 Y-5.408 E0.02530
G1 X5.869 Y-0.753 E0.56909
G1 X5.516 Y-0.598 E0.02971
G1 X5.131 Y-0.573 E0.02967
G1 X4.912 Y-0.617 E0.01723
G1 X4.767 Y-0.675 E0.01202
G1 X4.383 Y-0.519 F15000.000
G1 X1.898 Y-4.541 F15000.000
G1 X1.713 Y-4.407 E0.01764 F600.000
G1 X1.507 Y-4.311 E0.01755
G1 X1.285 Y-4.258 E0.01757
G1 X-1.149 Y-4.250 E0.18757
G1 X-1.378 Y-4.274 E0.01776
G1 X-1.697 Y-4.394 E0.02629
G1 X-1.972 Y-4.610 E0.02695
G1 X-2.170 Y-4.898 E0.02694
G1 X-2.273 Y-5.232 E0.02690
G1 X-2.272 Y-5.548 E0.02434
G1 X-1.116 Y-12.754 E0.56243
G1 X-0.973 Y-13.090 E0.02813
G1 X-0.718 Y-13.373 E0.02936
G1 X-0.385 Y-13.557 E0.02939
G1 X-0.002 Y-13.623 E0.02989 F600.000
G1 X0.375 Y-13.560 E0.02951
G1 X0.710 Y-13.379 E0.02935
G1 X0.968 Y-13.098 E0.02934
G1 X1.114 Y-12.762 E0.02827
G1 X2.272 Y-5.548 E0.56309
G1 X2.281 Y-5.333 E0.01654
G1 X2.247 Y-5.115 E0.01706
G1 X2.168 Y-4.899 E0.01765
G1 X2.049 Y-4.705 E0.01753
G1 X1.939 Y-4.586 E0.01255
G1 X1.938 Y-4.316 F15000.000
G1 X-2.989 Y-3.945 F15000.000
G1 X-2.959 Y-3.617 E0.02542 F600.000
G1 X-3.025 Y-3.288 E0.02588
G1 X-4.260 Y-1.122 E0.19212
G1 X-4.412 Y-0.920 E0.01951
G1 X-4.712 Y-0.697 E0.02876
G1 X-4.912 Y-0.617 E0.01664
G1 X-5.131 Y-0.573 E0.01723
G1 X-5.501 Y-0.597 E0.02852
G1 X-5.712 Y-0.670 E0.01723
G1 X-5.887 Y-0.767 E0.01536
G1 X-11.601 Y-5.408 E0.56735
G1 X-11.803 Y-5.667 E0.02531
G1 X-11.925 Y-5.985 E0.02626
G1 X-11.948 Y-6.325 E0.02626
G1 X-11.871 Y-6.657 E0.02625
G1 X-11.701 Y-6.952 E0.02626
G1 X-11.452 Y-7.185 E0.02626
G1 X-11.145 Y-7.335 E0.02631
G1 X-10.812 Y-7.386 E0.02595 F600.000
G1 X-10.599 Y-7.368 E0.01651
G1 X-10.410 Y-7.317 E0.01506
G1 X-3.684 Y-4.747 E0.55489
G1 X-3.495 Y-4.652 E0.01635
G1 X-3.308 Y-4.506 E0.01829
G1 X-3.110 Y-4.252 E0.02481
G1 X-3.011 Y-4.001 E0.02079
G1 X-2.678 Y-3.836 F15000.000
G1 E-4.20000 F1500.00000
G1 Z1.300 F15000.000
G1 X16.006 Y-5.140 F15000.000
G1 Z0.300 F15000.000
G1 E4.20000 F1500.00000
G1 X16.222 Y-5.121 E0.01671 F720.000
G1 X15.632 Y-4.631 E0.05909
G1 X15.044 Y-4.230 E0.05490
G1 X14.782 Y-3.960 E0.02896
G1 X14.600 Y-3.558 E0.03403
G1 X14.566 Y-3.161 E0.03073
G1 X14.737 Y-2.212 E0.07429
G1 X14.945 Y-1.757 E0.03857
G1 X15.410 Y-1.391 E0.04558
G1 X16.182 Y-1.202 E0.06124
G1 X16.971 Y-0.938 E0.06413
G1 X16.473 Y-0.679 E0.04325
G1 X16.125 Y-0.530 E0.02920
G1 X15.538 Y-0.324 E0.04794
G1 X15.179 Y-0.039 E0.03529
G1 X14.919 Y0.404 E0.03963
G1 X14.819 Y1.569 E0.09011
G1 X14.976 Y2.150 E0.04639
G1 X15.360 Y2.538 E0.04206
G1 X15.974 Y2.861 E0.05346
G1 X16.698 Y3.334 E0.06669
G1 X15.835 Y3.486 E0.06760
G1 X15.087 Y3.558 E0.05788
G1 X14.621 Y3.799 E0.04045
G1 X14.306 Y4.196 E0.03906
G1 X13.973 Y5.186 E0.08048
G1 X13.947 Y5.581 E0.03053
G1 X14.066 Y6.008 E0.03411
G1 X14.290 Y6.318 E0.02948
G1 X14.826 Y6.809 E0.05600
G1 X15.331 Y7.371 E0.05825
G1 X14.561 Y7.324 E0.05946
G1 X13.860 Y7.215 E0.05470
G1 X13.493 Y7.231 E0.02828
G1 X13.088 Y7.395 E0.03369
G1 X12.786 Y7.662 E0.03105
G1 X12.262 Y8.468 E0.07411
G1 X12.097 Y8.946 E0.03894
G1 X12.186 Y9.535 E0.04593
G1 X12.619 Y10.201 E0.06125
G1 X13.020 Y10.946 E0.06520
G1 X12.409 Y10.760 E0.04925
G1 X11.547 Y10.404 E0.07183
G1 X11.107 Y10.360 E0.03412
G1 X10.601 Y10.505 E0.04054
G1 X9.732 Y11.286 E0.09004
G1 X9.449 Y11.804 E0.04552
G1 X9.457 Y12.354 E0.04241
G1 X9.698 Y13.063 E0.05766
G1 X9.876 Y13.821 E0.06005
G1 X9.400 Y13.545 E0.04238
G1 X9.087 Y13.331 E0.02927
G1 X8.575 Y12.928 E0.05015
G1 X8.068 Y12.778 E0.04076
G1 X7.558 Y12.851 E0.03969
G1 X6.636 Y13.346 E0.08066
G1 X6.346 Y13.616 E0.03055
G1 X6.142 Y14.007 E0.03394
G1 X6.092 Y14.383 E0.02930
G1 X6.146 Y15.113 E0.05635
G1 X6.130 Y15.870 E0.05840
G1 X5.568 Y15.269 E0.06340
G1 X5.059 Y14.621 E0.06354
G1 X4.529 Y14.346 E0.04600
G1 X4.029 Y14.347 E0.03855
G1 X3.098 Y14.580 E0.07392
G1 X2.745 Y14.778 E0.03120
G1 X2.458 Y15.109 E0.03379
G1 X2.323 Y15.450 E0.02829
G1 X2.195 Y16.166 E0.05604
G1 X1.990 Y16.896 E0.05839
G1 X1.596 Y16.175 E0.06337
G1 X1.274 Y15.441 E0.06176
G1 X0.897 Y15.075 E0.04046
G1 X0.428 Y14.903 E0.03853
G1 X-0.610 Y14.891 E0.07998
G1 X-0.998 Y14.988 E0.03081
G1 X-1.367 Y15.235 E0.03418
G1 X-1.591 Y15.540 E0.02923
G1 X-1.895 Y16.204 E0.05626
G1 X-2.273 Y16.859 E0.05825
G1 X-2.466 Y16.112 E0.05946
G1 X-2.579 Y15.411 E0.05468
G1 X-2.708 Y15.065 E0.02844
G1 X-2.994 Y14.727 E0.03415
G1 X-3.342 Y14.526 E0.03093
G1 X-4.282 Y14.274 E0.07500
G1 X-4.791 Y14.275 E0.03921
G1 X-5.309 Y14.543 E0.04495
G1 X-5.803 Y15.154 E0.06058
G1 X-6.395 Y15.774 E0.06609
G1 X-6.394 Y14.942 E0.06410
G1 X-6.321 Y14.124 E0.06328
G1 X-6.512 Y13.570 E0.04521
G1 X-6.877 Y13.221 E0.03891
G1 X-7.714 Y12.753 E0.07391
G1 X-8.100 Y12.653 E0.03068
G1 X-8.548 Y12.695 E0.03469
G1 X-8.884 Y12.853 E0.02862
G1 X-9.467 Y13.287 E0.05602
G1 X-10.114 Y13.678 E0.05825
G1 X-9.923 Y12.930 E0.05946
G1 X-9.683 Y12.258 E0.05502
G1 X-9.631 Y11.882 E0.02930
G1 X-9.724 Y11.450 E0.03399
G1 X-9.932 Y11.113 E0.03057
G1 X-10.689 Y10.393 E0.08049
G1 X-11.153 Y10.189 E0.03903
G1 X-11.677 Y10.194 E0.04038
G1 X-12.386 Y10.485 E0.05908
G1 X-13.204 Y10.742 E0.06606
G1 X-12.801 Y10.014 E0.06409
G1 X-12.343 Y9.330 E0.06343
G1 X-12.244 Y8.745 E0.04573
G1 X-12.399 Y8.267 E0.03877
G1 X-12.908 Y7.454 E0.07393
G1 X-13.200 Y7.182 E0.03072
G1 X-13.605 Y7.007 E0.03397
G1 X-13.979 Y6.984 E0.02891
G1 X-14.697 Y7.083 E0.05586
G1 X-15.452 Y7.114 E0.05825
G1 X-14.925 Y6.551 E0.05946
G1 X-14.393 Y6.080 E0.05471
G1 X-14.164 Y5.774 E0.02947
G1 X-14.038 Y5.349 E0.03415
G1 X-14.057 Y4.953 E0.03058
G1 X-14.379 Y3.946 E0.08145
G1 X-14.698 Y3.543 E0.03965
G1 X-15.160 Y3.303 E0.04010
G1 X-15.822 Y3.233 E0.05131
G1 X-16.195 Y3.168 E0.02915
G1 X-16.714 Y3.037 E0.04129
G1 X-16.043 Y2.609 E0.06130
G1 X-15.398 Y2.281 E0.05578
G1 X-15.000 Y1.887 E0.04314
G1 X-14.844 Y1.317 E0.04559
G1 X-14.924 Y0.153 E0.08991
G1 X-15.186 Y-0.303 E0.04055
G1 X-15.536 Y-0.582 E0.03449
G1 X-16.284 Y-0.870 E0.06179
G1 X-16.956 Y-1.215 E0.05819
G1 X-16.187 Y-1.463 E0.06231
G1 X-15.384 Y-1.648 E0.06347
G1 X-14.913 Y-2.006 E0.04565
G1 X-14.698 Y-2.461 E0.03878
G1 X-14.512 Y-3.403 E0.07397
G1 X-14.539 Y-3.800 E0.03069
G1 X-14.713 Y-4.203 E0.03381
G1 X-14.968 Y-4.476 E0.02879
G1 X-15.562 Y-4.897 E0.05616
G1 X-16.134 Y-5.392 E0.05825
G1 X-15.364 Y-5.442 E0.05946
G1 X-14.650 Y-5.421 E0.05505
G1 X-14.276 Y-5.488 E0.02933
G1 X-13.894 Y-5.710 E0.03401
G1 X-13.638 Y-6.012 E0.03054
G1 X-13.184 Y-6.962 E0.08112
G1 X-13.139 Y-7.477 E0.03981
G1 X-13.312 Y-7.970 E0.04024
G1 X-13.747 Y-8.474 E0.05133
G1 X-13.973 Y-8.775 E0.02900
G1 X-14.260 Y-9.227 E0.04127
G1 X-13.481 Y-9.081 E0.06105
G1 X-12.788 Y-8.878 E0.05567
G1 X-12.233 Y-8.891 E0.04278
G1 X-11.724 Y-9.199 E0.04586
G1 X-10.989 Y-10.097 E0.08939
G1 X-10.864 Y-10.599 E0.03989
G1 X-10.925 Y-11.060 E0.03583
G1 X-11.191 Y-11.589 E0.04565
G1 X-11.323 Y-11.898 E0.02590
G1 X-11.533 Y-12.495 E0.04877
G1 X-10.798 Y-12.148 E0.06265
