; generated by Slic3r 1.2.9 on 2019-09-02 at 10:49:34

; external perimeters extrusion width = 0.40mm
; perimeters extrusion width = 0.40mm
; infill extrusion width = 0.40mm
; solid infill extrusion width = 0.40mm
; top infill extrusion width = 0.40mm

M107
M83
T0
M116
G21 ; set units to millimeters
G90 ; use absolute coordinates
M83 ; use relative distances for extrusion
G1 E-4.20000 F1500.00000
G1 Z1.000 F15000.000
G1 X21.232 Y-1.104 F15000.000
G1 Z0.300 F15000.000
G1 E4.20000 F1500.00000
G1 X21.583 Y5.891 E0.53971 F960.000
G1 X21.583 Y10.132 E0.32686
G1 X21.546 Y10.996 E0.06668
G1 X21.452 Y11.856 E0.06661
G1 X21.348 Y12.468 E0.04790
G1 X21.156 Y13.311 E0.06661
G1 X20.828 Y14.369 E0.08533
G1 X20.604 Y14.949 E0.04790
G1 X20.248 Y15.736 E0.06661
G1 X19.840 Y16.498 E0.06662
G1 X19.551 Y16.965 E0.04228
G1 X19.244 Y17.431 E0.04306
G1 X18.725 Y18.122 E0.06661
G1 X18.323 Y18.597 E0.04790
G1 X17.728 Y19.224 E0.06661
G1 X17.093 Y19.810 E0.06661
G1 X16.419 Y20.352 E0.06661
G1 X15.507 Y20.978 E0.08532
G1 X14.972 Y21.295 E0.04790
G1 X14.204 Y21.692 E0.06661
G1 X13.412 Y22.037 E0.06662
G1 X12.598 Y22.328 E0.06661
G1 X11.530 Y22.621 E0.08532
G1 X10.681 Y22.785 E0.06662
G1 X9.823 Y22.892 E0.06661
G1 X8.961 Y22.942 E0.06661
G1 X-13.780 Y22.820 E1.75250
G1 X-14.864 Y22.746 E0.08378
G1 X-15.720 Y22.622 E0.06662
G1 X-16.565 Y22.442 E0.06661
G1 X-17.397 Y22.206 E0.06662
G1 X-18.211 Y21.915 E0.06661
G1 X-18.783 Y21.672 E0.04790
G1 X-19.771 Y21.173 E0.08532
G1 X-20.510 Y20.725 E0.06661
G1 X-21.218 Y20.230 E0.06662
G1 X-21.892 Y19.687 E0.06661
G1 X-22.527 Y19.102 E0.06661
G1 X-23.122 Y18.475 E0.06661
G1 X-23.674 Y17.809 E0.06661
G1 X-24.043 Y17.309 E0.04790
G1 X-24.515 Y16.585 E0.06662
G1 X-24.937 Y15.831 E0.06661
G1 X-25.309 Y15.050 E0.06661
G1 X-25.707 Y14.017 E0.08533
G1 X-25.955 Y13.189 E0.06661
G1 X-26.099 Y12.584 E0.04790
G1 X-26.283 Y11.493 E0.08533
G1 X-26.362 Y10.632 E0.06661
G1 X-26.382 Y10.010 E0.04796
G1 X-26.384 Y5.843 E0.32112
G1 X-26.075 Y-18.074 E1.84333
G1 X-26.052 Y-18.771 E0.05370
G1 X-25.974 Y-19.631 E0.06661
G1 X-25.838 Y-20.485 E0.06661
G1 X-25.646 Y-21.328 E0.06662
G1 X-25.397 Y-22.156 E0.06661
G1 X-25.094 Y-22.965 E0.06661
G1 X-24.628 Y-23.969 E0.08533
G1 X-24.206 Y-24.724 E0.06661
G1 X-23.734 Y-25.448 E0.06661
G1 X-23.214 Y-26.139 E0.06662
G1 X-22.813 Y-26.613 E0.04790
G1 X-22.218 Y-27.240 E0.06661
G1 X-21.397 Y-27.983 E0.08532
G1 X-20.909 Y-28.368 E0.04790
G1 X-20.201 Y-28.864 E0.06661
G1 X-19.249 Y-29.428 E0.08532
G1 X-18.694 Y-29.709 E0.04790
G1 X-17.901 Y-30.054 E0.06662
G1 X-16.855 Y-30.417 E0.08533
G1 X-16.256 Y-30.581 E0.04790
G1 X-15.411 Y-30.761 E0.06661
G1 X-14.555 Y-30.884 E0.06661
G1 X-13.503 Y-30.958 E0.08130
G1 X7.021 Y-31.253 E1.58186
G1 X7.938 Y-31.246 E0.07065
G1 X8.800 Y-31.180 E0.06661 F960.000
G1 X9.656 Y-31.057 E0.06661
G1 X10.501 Y-30.876 E0.06661
G1 X11.333 Y-30.640 E0.06661
G1 X12.146 Y-30.349 E0.06661
G1 X12.939 Y-30.004 E0.06661
G1 X13.707 Y-29.607 E0.06661
G1 X14.446 Y-29.160 E0.06661
G1 X15.154 Y-28.664 E0.06661
G1 X15.828 Y-28.122 E0.06661
G1 X16.463 Y-27.536 E0.06662
G1 X16.895 Y-27.089 E0.04790
G1 X17.460 Y-26.434 E0.06661
G1 X17.979 Y-25.743 E0.06662
G1 X18.451 Y-25.019 E0.06661
G1 X18.873 Y-24.265 E0.06661
G1 X19.244 Y-23.484 E0.06662
G1 X19.563 Y-22.681 E0.06661
G1 X19.891 Y-21.623 E0.08533
G1 X20.035 Y-21.019 E0.04790
G1 X20.187 Y-20.168 E0.06661
G1 X20.281 Y-19.308 E0.06661
G1 X21.229 Y-1.164 E1.40024
G1 E-4.20000 F1500.00000
G1 Z1.300 F15000.000
G1 X-7.763 Y-0.172 F15000.000
G1 Z0.300 F15000.000
G1 E4.20000 F1500.00000
G1 X-7.283 Y0.312 E0.05255 F720.000
G1 X-6.924 Y0.737 E0.04282
G1 X-6.595 Y1.184 E0.04282
G1 X-6.296 Y1.652 E0.04282
G1 X-6.029 Y2.140 E0.04282
G1 X-5.795 Y2.644 E0.04282
G1 X-5.595 Y3.162 E0.04282
G1 X-5.430 Y3.693 E0.04282
G1 X-5.302 Y4.233 E0.04282
G1 X-5.209 Y4.781 E0.04282
G1 X-5.154 Y5.334 E0.04282
G1 X-5.134 Y5.906 E0.04415
G1 X-5.134 Y9.872 E0.30559
G1 X-5.154 Y10.444 E0.04415
G1 X-5.209 Y10.997 E0.04282
G1 X-5.302 Y11.545 E0.04282
G1 X-5.430 Y12.086 E0.04282
G1 X-5.595 Y12.616 E0.04282
G1 X-5.795 Y13.135 E0.04282
G1 X-6.029 Y13.639 E0.04282
G1 X-6.296 Y14.126 E0.04282
G1 X-6.595 Y14.594 E0.04282
G1 X-6.924 Y15.042 E0.04282
G1 X-7.283 Y15.466 E0.04282
G1 X-7.669 Y15.865 E0.04282
G1 X-8.081 Y16.238 E0.04282
G1 X-8.517 Y16.582 E0.04282
G1 X-8.975 Y16.897 E0.04282
G1 X-9.453 Y17.180 E0.04282
G1 X-9.949 Y17.431 E0.04282
G1 X-10.461 Y17.647 E0.04282
G1 X-10.986 Y17.830 E0.04282
G1 X-11.521 Y17.976 E0.04282
G1 X-12.066 Y18.087 E0.04282
G1 X-12.617 Y18.161 E0.04282
G1 X-13.171 Y18.198 E0.04282
G1 X-13.727 Y18.198 E0.04282
G1 X-14.281 Y18.161 E0.04282
G1 X-14.832 Y18.087 E0.04282
G1 X-15.376 Y17.976 E0.04282
G1 X-15.912 Y17.830 E0.04282
G1 X-16.437 Y17.647 E0.04282
G1 X-16.948 Y17.431 E0.04282
G1 X-17.444 Y17.180 E0.04282
G1 X-17.922 Y16.897 E0.04282
G1 X-18.380 Y16.582 E0.04282
G1 X-19.019 Y16.055 E0.06381
G1 X-19.228 Y15.865 E0.02180
G1 X-19.615 Y15.466 E0.04282
G1 X-19.973 Y15.042 E0.04282
G1 X-20.303 Y14.594 E0.04282
G1 X-20.602 Y14.126 E0.04282
G1 X-20.869 Y13.639 E0.04282
G1 X-21.103 Y13.135 E0.04282
G1 X-21.303 Y12.616 E0.04282
G1 X-21.467 Y12.086 E0.04282
G1 X-21.596 Y11.545 E0.04282
G1 X-21.688 Y10.997 E0.04282
G1 X-21.744 Y10.444 E0.04282
G1 X-21.763 Y9.872 E0.04415
G1 X-21.763 Y5.906 E0.30559
G1 X-21.744 Y5.334 E0.04415
G1 X-21.688 Y4.781 E0.04282
G1 X-21.596 Y4.233 E0.04282
G1 X-21.467 Y3.693 E0.04282
G1 X-21.303 Y3.162 E0.04282
G1 X-21.103 Y2.644 E0.04282
G1 X-20.869 Y2.140 E0.04282
G1 X-20.602 Y1.652 E0.04282
G1 X-20.303 Y1.184 E0.04282
G1 X-19.973 Y0.737 E0.04282
G1 X-19.615 Y0.312 E0.04282
G1 X-19.228 Y-0.087 E0.04282
G1 X-18.816 Y-0.460 E0.04282
G1 X-18.380 Y-0.804 E0.04282
G1 X-17.922 Y-1.118 E0.04282
G1 X-17.444 Y-1.402 E0.04282
G1 X-16.948 Y-1.652 E0.04282
G1 X-16.437 Y-1.869 E0.04282
G1 X-15.912 Y-2.051 E0.04282
G1 X-15.376 Y-2.198 E0.04282
G1 X-14.832 Y-2.309 E0.04282
G1 X-14.281 Y-2.383 E0.04282
G1 X-13.727 Y-2.420 E0.04282
G1 X-12.899 Y-2.402 E0.06381
G1 X-12.617 Y-2.383 E0.02180 F720.000
G1 X-12.066 Y-2.309 E0.04282
G1 X-11.521 Y-2.198 E0.04282
G1 X-10.986 Y-2.051 E0.04282
G1 X-10.461 Y-1.869 E0.04282
G1 X-9.949 Y-1.652 E0.04282
G1 X-9.453 Y-1.402 E0.04282
G1 X-8.975 Y-1.118 E0.04282
G1 X-8.517 Y-0.804 E0.04282
G1 X-8.081 Y-0.460 E0.04282
G1 X-7.807 Y-0.212 E0.02844
G1 X-7.381 Y-0.684 F15000.000
G1 X-6.811 Y-0.114 E0.06208 F720.000
G1 X-6.425 Y0.343 E0.04609
G1 X-6.070 Y0.824 E0.04609
G1 X-5.748 Y1.328 E0.04609
G1 X-5.461 Y1.853 E0.04609
G1 X-5.209 Y2.395 E0.04609
G1 X-4.994 Y2.953 E0.04609
G1 X-4.817 Y3.525 E0.04609
G1 X-4.678 Y4.106 E0.04609
G1 X-4.579 Y4.696 E0.04609
G1 X-4.519 Y5.291 E0.04609
G1 X-4.499 Y5.896 E0.04661
G1 X-4.499 Y9.882 E0.30723
G1 X-4.519 Y10.487 E0.04661
G1 X-4.579 Y11.082 E0.04609
G1 X-4.678 Y11.672 E0.04609
G1 X-4.817 Y12.254 E0.04609
G1 X-4.994 Y12.825 E0.04609
G1 X-5.209 Y13.383 E0.04609
G1 X-5.461 Y13.926 E0.04609
G1 X-5.748 Y14.450 E0.04609
G1 X-6.070 Y14.954 E0.04609
G1 X-6.425 Y15.436 E0.04609
G1 X-6.811 Y15.893 E0.04609
G1 X-7.227 Y16.322 E0.04609
G1 X-7.671 Y16.724 E0.04609
G1 X-8.140 Y17.094 E0.04609
G1 X-8.633 Y17.433 E0.04609
G1 X-9.148 Y17.738 E0.04609
G1 X-9.681 Y18.007 E0.04609
G1 X-10.232 Y18.241 E0.04609
G1 X-10.797 Y18.437 E0.04609
G1 X-11.374 Y18.595 E0.04609
G1 X-11.960 Y18.714 E0.04609
G1 X-12.553 Y18.794 E0.04609
G1 X-13.150 Y18.834 E0.04609
G1 X-13.748 Y18.834 E0.04609
G1 X-14.345 Y18.794 E0.04609
G1 X-14.937 Y18.714 E0.04609
G1 X-15.523 Y18.595 E0.04609
G1 X-16.100 Y18.437 E0.04609
G1 X-16.665 Y18.241 E0.04609
G1 X-17.216 Y18.007 E0.04609
G1 X-17.750 Y17.738 E0.04609
G1 X-18.264 Y17.433 E0.04609
G1 X-18.758 Y17.094 E0.04609
G1 X-19.227 Y16.724 E0.04609
G1 X-19.445 Y16.526 E0.02266
G1 X-19.671 Y16.322 E0.02343
G1 X-20.086 Y15.893 E0.04609
G1 X-20.473 Y15.436 E0.04609
G1 X-20.827 Y14.954 E0.04609
G1 X-21.149 Y14.450 E0.04609
G1 X-21.437 Y13.926 E0.04609
G1 X-21.688 Y13.383 E0.04609
G1 X-21.903 Y12.825 E0.04609
G1 X-22.081 Y12.254 E0.04609
G1 X-22.219 Y11.672 E0.04609
G1 X-22.319 Y11.082 E0.04609
G1 X-22.379 Y10.487 E0.04609
G1 X-22.399 Y9.882 E0.04661
G1 X-22.399 Y5.896 E0.30723
G1 X-22.379 Y5.291 E0.04661
G1 X-22.319 Y4.696 E0.04609
G1 X-22.219 Y4.106 E0.04609
G1 X-22.081 Y3.525 E0.04609
G1 X-21.903 Y2.953 E0.04609
G1 X-21.688 Y2.395 E0.04609
G1 X-21.437 Y1.853 E0.04609
G1 X-21.149 Y1.328 E0.04609
G1 X-20.827 Y0.824 E0.04609
G1 X-20.473 Y0.343 E0.04609
G1 X-20.086 Y-0.114 E0.04609
G1 X-19.671 Y-0.544 E0.04609
G1 X-19.227 Y-0.945 E0.04609
G1 X-18.758 Y-1.316 E0.04609
G1 X-18.264 Y-1.655 E0.04609
G1 X-17.750 Y-1.959 E0.04609
G1 X-17.216 Y-2.229 E0.04609
G1 X-16.665 Y-2.463 E0.04609
G1 X-16.100 Y-2.659 E0.04609
G1 X-15.523 Y-2.817 E0.04609
G1 X-14.937 Y-2.936 E0.04609
G1 X-14.345 Y-3.016 E0.04609
G1 X-13.748 Y-3.056 E0.04609
G1 X-13.150 Y-3.056 E0.04609
G1 X-12.856 Y-3.036 E0.02266
G1 X-12.553 Y-3.016 E0.02343 F720.000
G1 X-11.960 Y-2.936 E0.04609
G1 X-11.374 Y-2.817 E0.04609
G1 X-10.797 Y-2.659 E0.04609
G1 X-10.232 Y-2.463 E0.04609
G1 X-9.681 Y-2.229 E0.04609
G1 X-9.148 Y-1.959 E0.04609
G1 X-8.633 Y-1.655 E0.04609
G1 X-8.140 Y-1.316 E0.04609
G1 X-7.671 Y-0.945 E0.04609
G1 X-7.426 Y-0.724 E0.02546
G1 X-7.478 Y-0.295 F15000.000
G1 X-8.462 Y-0.115 F15000.000
G1 X-7.447 Y0.900 E0.11424 F960.000
G1 X-10.798 Y-1.523 F15000.000
G1 X-6.043 Y3.232 E0.53500 F960.000
G1 X-5.666 Y4.536 E0.10805
G1 X-12.093 Y-1.891 E0.72315
G1 X-13.149 Y-2.019 E0.08461
G1 X-5.535 Y5.595 E0.85667
G1 X-5.520 Y6.538 E0.07505
G1 X-14.077 Y-2.019 E0.96281
G1 X-14.910 Y-1.924 E0.06671
G1 X-5.520 Y7.466 E1.05654
G1 X-5.520 Y8.394 E0.07383
G1 X-15.665 Y-1.751 E1.14150
G1 X-16.367 Y-1.524 E0.05863
G1 X-5.520 Y9.322 E1.22038
G1 X-5.528 Y10.242 E0.07318
G1 X-17.011 Y-1.241 E1.29195
G1 X-17.611 Y-0.913 E0.05440
G1 X-5.597 Y11.101 E1.35173
G1 X-5.749 Y11.877 E0.06291
G1 X-18.171 Y-0.544 E1.39760
G1 X-18.686 Y-0.132 E0.05253
G1 X-5.958 Y12.596 E1.43210
G1 X-6.227 Y13.255 E0.05663
G1 X-19.151 Y0.331 E1.45416
G1 X-19.602 Y0.808 E0.05223
G1 X-6.540 Y13.870 E1.46959
G1 X-6.895 Y14.443 E0.05362
G1 X-20.003 Y1.335 E1.47474
G1 X-20.351 Y1.915 E0.05379
G1 X-7.296 Y14.970 E1.46886
G1 X-7.746 Y15.448 E0.05223
G1 X-20.671 Y2.523 E1.45416
G1 X-20.940 Y3.182 E0.05663
G1 X-8.211 Y15.911 E1.43210
G1 X-8.727 Y16.323 E0.05253
G1 X-21.149 Y3.901 E1.39760
G1 X-21.301 Y4.677 E0.06291
G1 X-9.287 Y16.691 E1.35173
G1 X-9.887 Y17.019 E0.05440
G1 X-21.370 Y5.536 E1.29195
G1 X-21.378 Y6.456 E0.07318
G1 X-10.531 Y17.303 E1.22038
G1 X-11.232 Y17.530 E0.05863
G1 X-21.378 Y7.384 E1.14149
G1 X-21.378 Y8.312 E0.07383
G1 X-11.987 Y17.702 E1.05654
G1 X-12.820 Y17.797 E0.06671
G1 X-21.378 Y9.240 E0.96280
G1 X-21.363 Y10.183 E0.07505
G1 X-13.744 Y17.802 E0.85717
G1 X-14.804 Y17.669 E0.08501
G1 X-21.232 Y11.242 E0.72315
G1 X-20.855 Y12.547 E0.10805
G1 X-16.119 Y17.282 E0.53278
G1 X-18.436 Y15.894 F15000.000
G1 X-19.451 Y14.879 E0.11420 F960.000
G1 E-4.20000 F1500.00000
G1 Z1.300 F15000.000
G1 X16.964 Y9.424 F15000.000
G1 Z0.300 F15000.000
G1 E4.20000 F1500.00000
G1 X16.945 Y10.567 E0.08807 F720.000
G1 X16.889 Y11.119 E0.04282
G1 X16.797 Y11.667 E0.04282
G1 X16.668 Y12.208 E0.04282
G1 X16.504 Y12.738 E0.04282
G1 X16.304 Y13.257 E0.04282
G1 X16.070 Y13.761 E0.04282
G1 X15.803 Y14.248 E0.04282
G1 X15.504 Y14.716 E0.04282
G1 X15.174 Y15.164 E0.04282
G1 X14.816 Y15.588 E0.04282
G1 X14.429 Y15.987 E0.04282
G1 X14.017 Y16.360 E0.04282
G1 X13.581 Y16.704 E0.04282
G1 X12.889 Y17.158 E0.06381
G1 X12.645 Y17.302 E0.02180
G1 X12.149 Y17.553 E0.04282
G1 X11.638 Y17.770 E0.04282
G1 X11.113 Y17.952 E0.04282
G1 X10.577 Y18.099 E0.04282
G1 X10.033 Y18.209 E0.04282
G1 X9.482 Y18.283 E0.04282
G1 X8.928 Y18.320 E0.04282
G1 X8.372 Y18.320 E0.04282
G1 X7.818 Y18.283 E0.04282
G1 X7.267 Y18.209 E0.04282
G1 X6.722 Y18.099 E0.04282
G1 X6.187 Y17.952 E0.04282
G1 X5.662 Y17.770 E0.04282
G1 X5.150 Y17.553 E0.04282
G1 X4.654 Y17.302 E0.04282
G1 X4.176 Y17.019 E0.04282
G1 X3.718 Y16.704 E0.04282
G1 X3.080 Y16.177 E0.06381
G1 X2.870 Y15.987 E0.02180
G1 X2.484 Y15.588 E0.04282
G1 X2.125 Y15.164 E0.04282
G1 X1.795 Y14.716 E0.04282
G1 X1.497 Y14.248 E0.04282
G1 X1.230 Y13.761 E0.04282
G1 X0.996 Y13.257 E0.04282
G1 X0.796 Y12.738 E0.04282
G1 X0.631 Y12.208 E0.04282
G1 X0.503 Y11.667 E0.04282
G1 X0.410 Y11.119 E0.04282
G1 X0.355 Y10.567 E0.04282
G1 X0.335 Y9.994 E0.04415
G1 X0.335 Y6.029 E0.30559
G1 X0.355 Y5.456 E0.04415
G1 X0.410 Y4.903 E0.04282
G1 X0.503 Y4.355 E0.04282
G1 X0.631 Y3.815 E0.04282
G1 X0.796 Y3.284 E0.04282
G1 X0.996 Y2.766 E0.04282
G1 X1.230 Y2.262 E0.04282
G1 X1.497 Y1.774 E0.04282
G1 X1.795 Y1.306 E0.04282
G1 X2.125 Y0.859 E0.04282
G1 X2.484 Y0.434 E0.04282
G1 X2.870 Y0.035 E0.04282
G1 X3.282 Y-0.338 E0.04282
G1 X3.718 Y-0.682 E0.04282
G1 X4.176 Y-0.996 E0.04282
G1 X4.654 Y-1.280 E0.04282
G1 X5.150 Y-1.530 E0.04282
G1 X5.662 Y-1.747 E0.04282
G1 X6.187 Y-1.929 E0.04282
G1 X6.722 Y-2.076 E0.04282
G1 X7.267 Y-2.187 E0.04282
G1 X7.818 Y-2.261 E0.04282
G1 X8.372 Y-2.298 E0.04282
G1 X9.200 Y-2.280 E0.06381
G1 X9.482 Y-2.261 E0.02180 F720.000
G1 X10.033 Y-2.187 E0.04282
G1 X10.577 Y-2.076 E0.04282
G1 X11.113 Y-1.929 E0.04282
G1 X11.638 Y-1.747 E0.04282
G1 X12.149 Y-1.530 E0.04282
G1 X12.645 Y-1.280 E0.04282
G1 X13.123 Y-0.996 E0.04282
G1 X13.581 Y-0.682 E0.04282
G1 X14.017 Y-0.338 E0.04282
G1 X14.429 Y0.035 E0.04282
G1 X14.816 Y0.434 E0.04282
G1 X15.174 Y0.859 E0.04282
G1 X15.504 Y1.306 E0.04282
G1 X15.803 Y1.774 E0.04282
G1 X16.070 Y2.262 E0.04282
G1 X16.304 Y2.766 E0.04282
G1 X16.504 Y3.284 E0.04282
G1 X16.668 Y3.815 E0.04282
G1 X16.797 Y4.355 E0.04282
G1 X16.889 Y4.903 E0.04282
G1 X16.945 Y5.456 E0.04282
G1 X16.964 Y6.029 E0.04415
G1 X16.964 Y9.364 E0.25705
G1 X17.600 Y9.364 F15000.000
G1 X17.580 Y10.609 E0.09596 F720.000
G1 X17.520 Y11.204 E0.04609
G1 X17.420 Y11.794 E0.04609
G1 X17.282 Y12.376 E0.04609
G1 X17.104 Y12.947 E0.04609
G1 X16.889 Y13.505 E0.04609
G1 X16.638 Y14.048 E0.04609
G1 X16.350 Y14.572 E0.04609
G1 X16.028 Y15.076 E0.04609
G1 X15.674 Y15.558 E0.04609
G1 X15.287 Y16.015 E0.04609
G1 X14.872 Y16.445 E0.04609
G1 X14.428 Y16.846 E0.04609
G1 X13.959 Y17.216 E0.04609
G1 X13.465 Y17.555 E0.04609
G1 X12.951 Y17.860 E0.04609
G1 X12.417 Y18.130 E0.04609
G1 X11.866 Y18.363 E0.04609
G1 X11.301 Y18.559 E0.04609
G1 X10.724 Y18.717 E0.04609
G1 X10.138 Y18.836 E0.04609
G1 X9.546 Y18.916 E0.04609
G1 X8.949 Y18.956 E0.04609
G1 X8.351 Y18.956 E0.04609
G1 X7.754 Y18.916 E0.04609
G1 X7.161 Y18.836 E0.04609
G1 X6.575 Y18.717 E0.04609
G1 X5.998 Y18.559 E0.04609
G1 X5.433 Y18.363 E0.04609
G1 X4.882 Y18.130 E0.04609
G1 X4.349 Y17.860 E0.04609
G1 X3.834 Y17.555 E0.04609
G1 X3.341 Y17.216 E0.04609
G1 X2.872 Y16.846 E0.04609
G1 X2.653 Y16.649 E0.02266
G1 X2.428 Y16.445 E0.02343
G1 X2.012 Y16.015 E0.04609
G1 X1.626 Y15.558 E0.04609
G1 X1.271 Y15.076 E0.04609
G1 X0.949 Y14.572 E0.04609
G1 X0.662 Y14.048 E0.04609
G1 X0.410 Y13.505 E0.04609
G1 X0.195 Y12.947 E0.04609
G1 X0.018 Y12.376 E0.04609
G1 X-0.121 Y11.794 E0.04609
G1 X-0.220 Y11.204 E0.04609
G1 X-0.280 Y10.609 E0.04609
G1 X-0.300 Y10.005 E0.04661
G1 X-0.300 Y6.018 E0.30723
G1 X-0.280 Y5.413 E0.04661
G1 X-0.220 Y4.818 E0.04609
G1 X-0.121 Y4.229 E0.04609
G1 X0.018 Y3.647 E0.04609
G1 X0.195 Y3.076 E0.04609
G1 X0.410 Y2.517 E0.04609
G1 X0.662 Y1.975 E0.04609
G1 X0.949 Y1.450 E0.04609
G1 X1.271 Y0.946 E0.04609
G1 X1.626 Y0.465 E0.04609
G1 X2.012 Y0.008 E0.04609
G1 X2.428 Y-0.422 E0.04609
G1 X2.872 Y-0.823 E0.04609
G1 X3.341 Y-1.194 E0.04609
G1 X3.834 Y-1.532 E0.04609
G1 X4.349 Y-1.837 E0.04609
G1 X4.882 Y-2.107 E0.04609
G1 X5.433 Y-2.340 E0.04609
G1 X5.998 Y-2.537 E0.04609
G1 X6.575 Y-2.695 E0.04609
G1 X7.161 Y-2.814 E0.04609
G1 X7.754 Y-2.894 E0.04609
G1 X8.351 Y-2.934 E0.04609
G1 X8.949 Y-2.934 E0.04609
G1 X9.242 Y-2.914 E0.02266
G1 X9.546 Y-2.894 E0.02343 F720.000
G1 X10.138 Y-2.814 E0.04609
G1 X10.724 Y-2.695 E0.04609
G1 X11.301 Y-2.537 E0.04609
G1 X11.866 Y-2.340 E0.04609
G1 X12.417 Y-2.107 E0.04609
G1 X12.951 Y-1.837 E0.04609
G1 X13.465 Y-1.532 E0.04609
G1 X13.959 Y-1.194 E0.04609
G1 X14.428 Y-0.823 E0.04609
G1 X14.872 Y-0.422 E0.04609
G1 X15.287 Y0.008 E0.04609
G1 X15.674 Y0.465 E0.04609
G1 X16.028 Y0.946 E0.04609
