; generated by Slic3r 1.3.0 on 2020-05-11 at 14:14:16

; external perimeters extrusion width = 0.40mm (4.28mm^3/s)
; perimeters extrusion width = 0.40mm (4.28mm^3/s)
; infill extrusion width = 0.40mm (5.71mm^3/s)
; solid infill extrusion width = 0.40mm (5.71mm^3/s)
; top infill extrusion width = 0.40mm (5.71mm^3/s)

M107
M83
T0
M116
; Filament gcode

G21 ; set units to millimeters
G90 ; use absolute coordinates
M83 ; use relative distances for extrusion
G1 E-3.50000 F1500.00000
G1 Z0.400 F15000.000
G1 X-34.005 Y17.647 F15000.000
G1 Z0.300 F15000.000
G1 E3.50000 F1500.00000
G1 F960
G1 X-35.922 Y-26.481 E3.40396
G1 X-35.886 Y-27.178 E0.05378
G1 X-35.597 Y-29.099 E0.14973
G1 X-35.432 Y-29.766 E0.05295
G1 X-34.783 Y-31.612 E0.15075
G1 X-34.495 Y-32.236 E0.05297
G1 X-33.510 Y-33.926 E0.15075
G1 X-33.110 Y-34.484 E0.05297
G1 X-31.824 Y-35.959 E0.15076
G1 X-31.326 Y-36.433 E0.05297
G1 X-29.784 Y-37.641 E0.15094
G1 X-29.504 Y-37.840 E0.02651
G1 X-23.833 Y-41.475 E0.51913
G1 X-22.803 Y-41.928 E0.08670
G1 X-6.405 Y-46.278 E1.30739
G1 X-5.473 Y-46.400 E0.07245
G1 X3.556 Y-46.400 E0.69584
G1 X4.488 Y-46.278 E0.07245
G1 X20.886 Y-41.928 E1.30739
G1 X21.916 Y-41.475 E0.08670
G1 X27.587 Y-37.840 E0.51913
G1 X27.867 Y-37.641 E0.02651
G1 X29.409 Y-36.433 E0.15094
G1 X29.907 Y-35.959 E0.05297
G1 X31.193 Y-34.484 E0.15076
G1 X31.593 Y-33.926 E0.05297
G1 X32.578 Y-32.236 E0.15075
G1 X32.866 Y-31.612 E0.05297
G1 X33.515 Y-29.766 E0.15075
G1 X33.680 Y-29.099 E0.05295
G1 X33.969 Y-27.178 E0.14973
G1 X34.005 Y-26.797 E0.02952
G1 X35.922 Y17.331 E3.40396
G1 X35.439 Y19.307 E0.15675
G1 X29.775 Y29.117 E0.87294
G1 X29.450 Y29.589 E0.04417
G1 X18.408 Y43.204 E1.35096
G1 X18.155 Y43.485 E0.02912
G1 X16.305 Y45.335 E0.20163
G1 X14.861 Y46.221 E0.13052
G1 X13.734 Y46.400 E0.08796
G1 X-11.817 Y46.400 E1.96914
G1 X-13.464 Y46.005 E0.13052
G1 X-14.388 Y45.335 E0.08796
G1 X-16.238 Y43.485 E0.20163
G1 X-16.491 Y43.204 E0.02912
G1 X-27.533 Y29.589 E1.35096
G1 X-27.858 Y29.117 E0.04417
G1 X-33.522 Y19.307 E0.87294
G1 X-33.989 Y17.705 E0.12863
G1 E-3.50000 F1500.00000
G1 Z0.700 F15000.000
G1 X-0.511 Y18.064 F15000.000
G1 Z0.300 F15000.000
G1 E3.50000 F1500.00000
G1 F600
G1 X-0.453 Y17.569 E0.03837
G1 X-0.284 Y17.101 E0.03837
G1 X-0.011 Y16.685 E0.03837
G1 X0.333 Y16.358 E0.03657
G1 X4.716 Y13.071 E0.42217
G1 X5.038 Y12.880 E0.02890
G1 X5.414 Y12.754 E0.03056
G1 X5.809 Y12.712 E0.03056
G1 X6.203 Y12.754 E0.03056
G1 X6.579 Y12.880 E0.03056
G1 X6.901 Y13.071 E0.02890
G1 X8.617 Y14.358 E0.16528
G1 X9.381 Y15.083 E0.08114
G1 X9.970 Y15.983 E0.08294
G1 X10.337 Y16.995 E0.08294
G1 X10.461 Y18.064 E0.08294
G1 X10.337 Y19.133 E0.08294
G1 X9.970 Y20.145 E0.08294
G1 X9.381 Y21.045 E0.08294
G1 X8.617 Y21.770 E0.08114
G1 X6.901 Y23.057 E0.16528
G1 X6.579 Y23.248 E0.02890
G1 X6.203 Y23.374 E0.03056
G1 X5.809 Y23.416 E0.03056
G1 X5.414 Y23.374 E0.03056
G1 X5.038 Y23.248 E0.03056
G1 X4.716 Y23.057 E0.02890
G1 X0.333 Y19.770 E0.42217
G1 X-0.011 Y19.443 E0.03657
G1 X-0.284 Y19.027 E0.03837
G1 X-0.453 Y18.559 E0.03837
G1 X-0.504 Y18.124 E0.03375
G1 X-0.511 Y18.064 F15000.000
G1 E-3.50000 F1500.00000
G1 Z0.700 F15000.000
G1 X-2.109 Y12.850 F15000.000
G1 Z0.300 F15000.000
G1 E3.50000 F1500.00000
G1 F600
G1 X3.517 Y12.850 E0.43355
G1 X3.604 Y13.110 E0.02118
G1 X-0.078 Y15.872 E0.35465
G1 X-0.502 Y16.275 E0.04512
G1 X-0.856 Y16.815 E0.04978
G1 X-1.090 Y17.462 E0.05304
G1 X-1.406 Y17.407 E0.02468
G1 X-1.406 Y14.501 E0.22391
G1 X-1.465 Y14.015 E0.03774
G1 X-1.661 Y13.498 E0.04260
G1 X-2.075 Y12.899 E0.05612
G1 X-2.524 Y13.406 F15000.000
G1 F600
G1 X-2.454 Y13.468 E0.00717
G1 X-2.228 Y13.796 E0.03071
G1 X-2.087 Y14.168 E0.03071
G1 X-2.041 Y14.540 E0.02883
G1 X-2.041 Y21.588 E0.54319
G1 X-2.087 Y21.960 E0.02883
G1 X-2.228 Y22.332 E0.03071
G1 X-2.454 Y22.660 E0.03071
G1 X-2.753 Y22.924 E0.03071
G1 X-3.105 Y23.110 E0.03071
G1 X-3.492 Y23.205 E0.03071
G1 X-3.891 Y23.205 E0.03071
G1 X-4.278 Y23.110 E0.03071
G1 X-4.630 Y22.924 E0.03071
G1 X-4.929 Y22.660 E0.03071
G1 X-5.155 Y22.332 E0.03071
G1 X-5.296 Y21.960 E0.03071
G1 X-5.341 Y21.588 E0.02883
G1 X-5.341 Y14.540 E0.54319
G1 X-5.296 Y14.168 E0.02883
G1 X-5.155 Y13.796 E0.03071
G1 X-4.929 Y13.468 E0.03071
G1 X-4.630 Y13.204 E0.03071
G1 X-4.278 Y13.019 E0.03071
G1 X-3.891 Y12.923 E0.03071
G1 X-3.492 Y12.923 E0.03071
G1 X-3.105 Y13.019 E0.03071
G1 X-2.753 Y13.204 E0.03071
G1 X-2.569 Y13.366 E0.01891
G1 X-2.437 Y13.373 F15000.000
G1 E-3.50000 F1500.00000
G1 Z0.700 F15000.000
G1 X13.326 Y41.778 F15000.000
G1 Z0.300 F15000.000
G1 E3.50000 F1500.00000
G1 F720
G1 X-11.409 Y41.778 E1.90621
G1 X-12.273 Y40.914 E0.09421
G1 X-12.156 Y40.797 E0.01280
G1 X-12.156 Y39.950 E0.06527
G1 X-7.756 Y39.950 E0.33909
G1 X-7.756 Y34.178 E0.44476
G1 X-12.156 Y34.178 E0.33909
G1 X-12.156 Y33.332 E0.06527
G1 X-12.679 Y32.808 E0.05704
G1 X-12.813 Y31.700 E0.08601
G1 X-13.297 Y30.415 E0.10587
G1 X-14.073 Y29.281 E0.10587
G1 X-15.096 Y28.365 E0.10587
G1 X-16.308 Y27.718 E0.10587
G1 X-17.639 Y27.378 E0.10587
G1 X-18.900 Y27.365 E0.09718
G1 X-20.818 Y27.391 E0.14776
G1 X-22.593 Y27.069 E0.13908
G1 X-24.029 Y26.507 E0.11879
G1 X-24.348 Y25.954 E0.04924
G1 X-22.149 Y26.754 E0.18033
G1 X-20.183 Y27.004 E0.15276
G1 X-18.210 Y26.816 E0.15276
G1 X-16.332 Y26.199 E0.15228
G1 X-15.265 Y25.577 E0.09517
G1 X-14.624 Y25.175 E0.05834
G1 X-13.726 Y24.341 E0.09443
G1 X-13.191 Y23.806 E0.05834
G1 X-12.497 Y22.796 E0.09443
G1 X-12.094 Y22.155 E0.05834
G1 X-11.639 Y21.017 E0.09443
G1 X-11.389 Y20.303 E0.05834
G1 X-11.248 Y19.433 E0.06791
G1 X-6.196 Y14.136 E0.56413
G1 X-5.947 Y14.253 E0.02121
G1 X-5.977 Y14.501 E0.01926
G1 X-5.977 Y21.627 E0.54911
G1 X-5.918 Y22.113 E0.03774
G1 X-5.722 Y22.630 E0.04260
G1 X-5.408 Y23.085 E0.04260
G1 X-4.994 Y23.451 E0.04260
G1 X-4.505 Y23.708 E0.04260
G1 X-3.968 Y23.841 E0.04260
G1 X-3.415 Y23.841 E0.04260
G1 X-2.878 Y23.708 E0.04260
G1 X-2.389 Y23.451 E0.04260
G1 X-1.975 Y23.085 E0.04260
G1 X-1.661 Y22.630 E0.04260
G1 X-1.465 Y22.113 E0.04260
G1 X-1.406 Y21.627 E0.03774
G1 X-1.406 Y18.721 E0.22391
G1 X-1.090 Y18.666 E0.02468
G1 X-0.856 Y19.313 E0.05304
G1 X-0.502 Y19.853 E0.04978
G1 X-0.078 Y20.256 E0.04512
G1 X4.362 Y23.586 E0.42764
G1 X4.772 Y23.830 E0.03680
G1 X5.278 Y23.999 E0.04111
G1 X5.809 Y24.056 E0.04111
G1 X6.339 Y23.999 E0.04111
G1 X6.845 Y23.830 E0.04111
G1 X7.255 Y23.586 E0.03680
G1 X9.028 Y22.256 E0.17075
G1 X9.872 Y21.455 E0.08968
G1 X10.542 Y20.431 E0.09434
G1 X10.960 Y19.280 E0.09434
G1 X11.101 Y18.064 E0.09434
G1 X11.046 Y17.588 E0.03695
G1 X11.294 Y17.471 E0.02116
G1 X13.164 Y19.431 E0.20874
G1 X13.298 Y20.271 E0.06552
G1 X13.540 Y20.975 E0.05737
G1 X13.982 Y22.096 E0.09287
G1 X14.372 Y22.730 E0.05737
G1 X15.045 Y23.729 E0.09287
G1 X15.564 Y24.263 E0.05737
G1 X16.437 Y25.094 E0.09287
G1 X17.061 Y25.500 E0.05737
G1 X18.100 Y26.129 E0.09362
G1 X19.933 Y26.773 E0.14974
G1 X21.869 Y27.005 E0.15022
G1 X23.809 Y26.812 E0.15023
G1 X25.655 Y26.205 E0.14982
G1 X25.863 Y26.085 E0.01846
G1 X26.070 Y26.292 E0.02257
G1 X25.946 Y26.507 E0.01916
G1 X24.510 Y27.069 E0.11879
G1 X22.735 Y27.391 E0.13908
G1 X20.817 Y27.365 E0.14776
G1 X19.557 Y27.378 E0.09718
G1 X18.225 Y27.718 E0.10587
G1 X17.014 Y28.365 E0.10587
G1 X16.623 Y28.714 E0.04038
G1 X15.990 Y29.281 E0.06549
G1 X15.214 Y30.415 E0.10587
G1 X14.730 Y31.700 E0.10587
G1 X14.596 Y32.808 E0.08601
G1 X14.073 Y33.332 E0.05704
G1 X14.073 Y34.178 E0.06527
G1 X9.673 Y34.178 E0.33909
G1 X9.673 Y39.950 E0.44476
G1 X14.073 Y39.950 E0.33909
G1 X14.073 Y40.797 E0.06527
G1 X14.190 Y40.914 E0.01280
G1 X13.368 Y41.736 E0.08958
G1 X13.818 Y42.185 F15000.000
G1 F720
G1 X13.589 Y42.414 E0.02491
G1 X-11.672 Y42.414 E1.94679
G1 X-13.172 Y40.914 E0.16348
G1 X-12.791 Y40.533 E0.04150
G1 X-12.791 Y39.314 E0.09396
G1 X-8.391 Y39.314 E0.33909
G1 X-8.391 Y34.814 E0.34679
G1 X-12.791 Y34.814 E0.33909
G1 X-12.791 Y33.595 E0.09396
G1 X-13.284 Y33.102 E0.05367
G1 X-13.435 Y31.852 E0.09702
G1 X-13.865 Y30.710 E0.09405
G1 X-14.554 Y29.703 E0.09405
G1 X-15.463 Y28.889 E0.09405
G1 X-16.540 Y28.315 E0.09405
G1 X-17.722 Y28.013 E0.09405
G1 X-18.899 Y28.001 E0.09070
G1 X-20.871 Y28.028 E0.15193
G1 X-22.767 Y27.683 E0.14857
G1 X-24.468 Y27.018 E0.14071
G1 X-26.162 Y24.083 E0.26114
G1 X-25.895 Y23.880 E0.02588
G1 X-25.277 Y24.507 E0.06786
G1 X-23.726 Y25.503 E0.14205
G1 X-21.998 Y26.132 E0.14170
G1 X-20.173 Y26.365 E0.14183
G1 X-18.341 Y26.190 E0.14183
G1 X-16.594 Y25.616 E0.14166
G1 X-15.594 Y25.033 E0.08918
G1 X-15.013 Y24.668 E0.05292
G1 X-14.167 Y23.883 E0.08892
G1 X-13.682 Y23.398 E0.05292
G1 X-13.028 Y22.446 E0.08892
G1 X-12.663 Y21.865 E0.05292
G1 X-12.234 Y20.794 E0.08892
G1 X-12.007 Y20.146 E0.05292
G1 X-11.790 Y18.714 E0.11160
G1 X-11.441 Y18.714 E0.02691
G1 X-5.290 Y12.278 E0.68609
G1 X-5.161 Y12.223 E0.01077
G1 X-5.071 Y12.214 E0.00698
G1 X6.988 Y12.214 E0.92937
G1 X7.145 Y12.244 E0.01233
G1 X7.276 Y12.337 E0.01233
G1 X13.358 Y18.714 E0.67914
G1 X13.707 Y18.714 E0.02686
G1 X13.917 Y20.116 E0.10926
G1 X14.136 Y20.755 E0.05204
G1 X14.552 Y21.810 E0.08745
G1 X14.906 Y22.386 E0.05204
G1 X15.540 Y23.327 E0.08745
G1 X16.011 Y23.810 E0.05204
G1 X16.833 Y24.593 E0.08745
G1 X17.399 Y24.962 E0.05204
G1 X18.373 Y25.551 E0.08772
G1 X20.078 Y26.150 E0.13931
G1 X21.875 Y26.365 E0.13948
G1 X23.676 Y26.186 E0.13948
G1 X25.394 Y25.622 E0.13934
G1 X26.953 Y24.696 E0.13971
G1 X27.819 Y23.881 E0.09167
G1 X28.077 Y24.086 E0.02538
G1 X26.385 Y27.018 E0.26091
G1 X24.684 Y27.683 E0.14071
G1 X22.788 Y28.028 E0.14857
G1 X20.816 Y28.001 E0.15193
G1 X19.640 Y28.013 E0.09070
G1 X18.457 Y28.315 E0.09405
G1 X17.380 Y28.889 E0.09405
G1 X16.471 Y29.703 E0.09405
G1 X15.782 Y30.710 E0.09405
G1 X15.352 Y31.852 E0.09405
G1 X15.201 Y33.102 E0.09702
G1 X14.709 Y33.595 E0.05367
G1 X14.709 Y34.814 E0.09396
G1 X10.309 Y34.814 E0.33909
G1 X10.309 Y39.314 E0.34679
G1 X14.709 Y39.314 E0.33909
G1 X14.709 Y40.533 E0.09396
G1 X15.089 Y40.914 E0.04150
G1 X13.860 Y42.143 E0.13394
G1 X13.499 Y42.132 F15000.000
G1 E-3.50000 F1500.00000
G1 Z0.700 F15000.000
G1 X30.830 Y17.504 F15000.000
G1 Z0.300 F15000.000
G1 E3.50000 F1500.00000
G1 F720
G1 X30.776 Y16.580 E0.07131
G1 X30.245 Y14.704 E0.15024
G1 X29.320 Y12.988 E0.15024
G1 X28.045 Y11.513 E0.15023
G1 X26.481 Y10.350 E0.15023
G1 X24.705 Y9.555 E0.14993
G1 X22.785 Y9.162 E0.15103
G1 X20.843 Y9.193 E0.14970
G1 X18.952 Y9.644 E0.14977
G1 X17.855 Y10.163 E0.09356
G1 X17.192 Y10.502 E0.05737
G1 X16.239 Y11.239 E0.09287
G1 X15.666 Y11.715 E0.05737
G1 X14.894 Y12.641 E0.09287
G1 X14.440 Y13.230 E0.05737
G1 X13.886 Y14.300 E0.09287
G1 X13.530 Y15.065 E0.06500
G1 X8.988 Y10.303 E0.50710
G1 X8.600 Y9.971 E0.03937
G1 X8.107 Y9.698 E0.04343
G1 X7.569 Y9.530 E0.04343
G1 X7.061 Y9.478 E0.03937
G1 X-5.144 Y9.478 E0.94057
G1 X-5.652 Y9.530 E0.03937
G1 X-6.190 Y9.698 E0.04343
G1 X-6.683 Y9.971 E0.04343
G1 X-7.071 Y10.303 E0.03937
G1 X-11.615 Y15.068 E0.50737
G1 X-11.948 Y14.341 E0.06160
G1 X-12.488 Y13.286 E0.09131
G1 X-12.929 Y12.702 E0.05640
G1 X-13.679 Y11.786 E0.09131
G1 X-14.236 Y11.310 E0.05640
G1 X-15.164 Y10.573 E0.09131
G1 X-15.810 Y10.229 E0.05640
G1 X-16.881 Y9.701 E0.09201
G1 X-18.729 Y9.220 E0.14724
G1 X-20.637 Y9.144 E0.14716
G1 X-22.535 Y9.478 E0.14852
G1 X-24.305 Y10.204 E0.14739
G1 X-25.882 Y11.293 E0.14770
G1 X-27.191 Y12.694 E0.14770
G1 X-28.170 Y14.339 E0.14758
G1 X-28.778 Y16.159 E0.14789
G1 X-28.923 Y17.504 E0.10422
G1 X-29.193 Y17.561 E0.02132
G1 X-29.347 Y17.295 E0.02372
G1 X-29.124 Y15.806 E0.11597
G1 X-28.537 Y14.138 E0.13633
G1 X-27.647 Y12.609 E0.13633
G1 X-26.485 Y11.275 E0.13633
G1 X-25.054 Y10.154 E0.14013
G1 X-19.665 Y6.700 E0.49328
G1 X-7.791 Y6.700 E0.91505
G1 X-6.600 Y4.967 E0.16202
G1 X-5.587 Y3.890 E0.11397
G1 X-4.422 Y2.979 E0.11397
G1 X-3.299 Y2.350 E0.09922
G1 X5.219 Y2.350 E0.65640
G1 X6.337 Y2.978 E0.09886
G1 X7.504 Y3.890 E0.11411
G1 X8.517 Y4.967 E0.11397
G1 X9.708 Y6.700 E0.16202
G1 X21.582 Y6.700 E0.91505
G1 X26.971 Y10.154 E0.49328
G1 X28.402 Y11.275 E0.14013
G1 X29.564 Y12.609 E0.13633
G1 X30.454 Y14.138 E0.13633
G1 X31.041 Y15.806 E0.13633
G1 X31.264 Y17.295 E0.11597
G1 X31.106 Y17.569 E0.02443
G1 X30.888 Y17.517 E0.01726
G1 X30.196 Y17.557 F15000.000
G1 F720
G1 X30.146 Y16.686 E0.06727
G1 X29.652 Y14.944 E0.13949
G1 X28.793 Y13.351 E0.13949
G1 X27.610 Y11.982 E0.13949
G1 X26.157 Y10.902 E0.13949
G1 X24.506 Y10.163 E0.13938
G1 X22.730 Y9.798 E0.13977
G1 X20.923 Y9.827 E0.13930
G1 X19.164 Y10.247 E0.13932
G1 X18.135 Y10.733 E0.08770
G1 X17.534 Y11.041 E0.05204
G1 X16.636 Y11.735 E0.08745
G1 X16.117 Y12.167 E0.05204
G1 X15.390 Y13.038 E0.08745
G1 X14.978 Y13.573 E0.05204
G1 X14.456 Y14.581 E0.08745
G1 X14.171 Y15.193 E0.05204
G1 X13.865 Y16.338 E0.09133
G1 X8.550 Y10.765 E0.59348
G1 X8.236 Y10.496 E0.03192
G1 X7.856 Y10.286 E0.03349
G1 X7.441 Y10.156 E0.03349
G1 X7.029 Y10.114 E0.03192
G1 X-5.112 Y10.114 E0.93561
G1 X-5.524 Y10.156 E0.03192
G1 X-5.938 Y10.286 E0.03349
G1 X-6.319 Y10.496 E0.03349
G1 X-6.633 Y10.765 E0.03192
G1 X-11.948 Y16.338 E0.59342
G1 X-12.244 Y15.222 E0.08895
G1 X-12.520 Y14.618 E0.05116
G1 X-13.028 Y13.625 E0.08598
G1 X-13.428 Y13.095 E0.05116
G1 X-14.135 Y12.232 E0.08598
G1 X-14.640 Y11.801 E0.05116
G1 X-15.514 Y11.107 E0.08598
G1 X-16.100 Y10.795 E0.05116
G1 X-17.103 Y10.300 E0.08623
G1 X-18.823 Y9.852 E0.13697
G1 X-20.599 Y9.781 E0.13694
G1 X-22.355 Y10.091 E0.13743
G1 X-24.000 Y10.766 E0.13703
G1 X-25.464 Y11.778 E0.13714
G1 X-26.679 Y13.078 E0.13714
G1 X-27.589 Y14.606 E0.13710
G1 X-28.153 Y16.295 E0.13721
G1 X-28.344 Y18.065 E0.13717
G1 X-28.140 Y19.893 E0.14175
G1 X-28.076 Y20.078 E0.01506
G1 X-28.392 Y20.221 E0.02669
G1 X-30.009 Y17.420 E0.24926
G1 X-29.744 Y15.653 E0.13774
G1 X-29.117 Y13.870 E0.14563
G1 X-28.166 Y12.237 E0.14563
G1 X-26.924 Y10.812 E0.14563
G1 X-25.422 Y9.635 E0.14710
G1 X-19.851 Y6.064 E0.50995
G1 X-8.125 Y6.064 E0.90364
G1 X-7.096 Y4.567 E0.14000
G1 X-6.016 Y3.419 E0.12145
G1 X-4.775 Y2.449 E0.12146
G1 X-3.465 Y1.714 E0.11575
G1 X5.383 Y1.714 E0.68183
G1 X6.691 Y2.448 E0.11563
G1 X7.934 Y3.419 E0.12151
G1 X9.013 Y4.567 E0.12145
G1 X10.043 Y6.064 E0.14000
G1 X21.768 Y6.064 E0.90364
G1 X27.339 Y9.635 E0.50995
G1 X28.841 Y10.812 E0.14710
G1 X30.083 Y12.237 E0.14563
G1 X31.034 Y13.870 E0.14563
G1 X31.661 Y15.653 E0.14563
G1 X31.926 Y17.420 E0.13774
G1 X30.277 Y20.276 E0.25413
G1 X29.978 Y20.169 E0.02449
G1 X30.250 Y18.493 E0.13087
G1 X30.199 Y17.617 E0.06760
G1 X30.540 Y17.354 F15000.000
G1 E-3.50000 F1500.00000
G1 Z0.700 F15000.000
G1 X29.984 Y20.543 F15000.000
G1 Z0.300 F15000.000
G1 E3.50000 F1500.00000
G1 F720
G1 X29.648 Y21.236 E0.07584
G1 F720
G1 X29.312 Y21.929 E0.06845
G1 F720
G1 X28.912 Y22.574 E0.06018
G1 F720
G1 X28.188 Y23.727 E0.12077
G1 E-3.50000 F1500.00000
G1 Z0.700 F15000.000
G1 X-26.240 Y23.703 F15000.000
G1 Z0.300 F15000.000
G1 E3.50000 F1500.00000
G1 F720
G1 X-26.627 Y23.187 E0.06046
G1 X-27.079 Y22.431 E0.08270
G1 F720
G1 X-27.532 Y21.675 E0.07465
G1 X-27.660 Y21.406 E0.02520
G1 F720
G1 X-27.842 Y21.010 E0.04008
G1 F720
G1 X-28.089 Y20.468 E0.05976
G1 E-3.50000 F1500.00000
G1 Z0.700 F15000.000
G1 X-25.185 Y25.139 F15000.000
G1 Z0.300 F15000.000
G1 E3.50000 F1500.00000
G1 F960
G1 X-24.964 Y25.249 E0.00610
G1 F960
G1 X-24.522 Y25.470 E0.00766
G1 F960
G1 X-24.185 Y25.635 E0.00249
G1 E-3.50000 F1500.00000
G1 Z0.700 F15000.000
G1 X-17.714 Y27.024 F15000.000
G1 Z0.300 F15000.000
G1 E3.50000 F1500.00000
G1 F960
G1 X-16.990 Y26.950 E0.00444
G1 X-17.119 Y26.921 F15000.000
G1 F960
G1 X-17.195 Y26.992 E0.00284
G1 X-17.084 Y27.074 E0.00376
G1 F960
G1 X-16.682 Y27.230 E0.00861
G1 F960
G1 X-16.480 Y27.308 E0.00178
G1 X-16.897 Y26.803 F15000.000
G1 F960
G1 X-17.081 Y26.885 E0.00336
G1 X-17.119 Y26.921 E0.00087
G1 X-16.897 Y26.803 F15000.000
G1 F960
G1 X-16.529 Y26.637 E0.00288
G1 E-3.50000 F1500.00000
G1 Z0.700 F15000.000
G1 X-11.588 Y33.160 F15000.000
G1 Z0.300 F15000.000
G1 E3.50000 F1500.00000
G1 F960
G1 X-2.695 Y24.267 E0.97737
G1 X-3.270 Y24.409 E0.04607
G1 X-3.743 Y24.409 E0.03674
G1 X-12.029 Y32.694 E0.91065
G1 X-12.142 Y32.581 E0.01242
G1 X-12.215 Y31.974 E0.04754
G1 X-4.517 Y24.276 E0.84610
G1 X-4.664 Y24.239 E0.01180
G1 X-5.138 Y23.991 E0.04160
G1 X-12.396 Y31.249 E0.79773
G1 X-12.644 Y30.590 E0.05468
