; generated by Slic3r 1.2.9 on 2020-04-16 at 16:10:15

; external perimeters extrusion width = 0.40mm
; perimeters extrusion width = 0.40mm
; infill extrusion width = 0.40mm
; solid infill extrusion width = 0.40mm
; top infill extrusion width = 0.40mm

M107
M83
T0
M116
G21 ; set units to millimeters
G90 ; use absolute coordinates
M83 ; use relative distances for extrusion
G1 E-4.20000 F1500.00000
G1 Z1.000 F15000.000
G1 X0.000 Y-12.086 F15000.000
G1 Z0.300 F15000.000
G1 E4.20000 F1500.00000
G1 X9.950 Y-12.086 E0.76680 F960.000
G1 X11.597 Y-11.691 E0.13052
G1 X12.887 Y-10.593 E0.13052 F960.000
G1 X13.586 Y-8.450 E0.17373
G1 X13.586 Y8.450 E1.30241
G1 X13.191 Y10.097 E0.13052
G1 X12.093 Y11.387 E0.13052
G1 X9.950 Y12.086 E0.17373
G1 X-9.950 Y12.086 E1.53360
G1 X-11.597 Y11.691 E0.13052
G1 X-12.887 Y10.593 E0.13052
G1 X-13.586 Y8.450 E0.17373
G1 X-13.586 Y-8.450 E1.30241
G1 X-13.191 Y-10.097 E0.13052
G1 X-12.093 Y-11.387 E0.13052
G1 X-9.950 Y-12.086 E0.17373
G1 X-0.060 Y-12.086 E0.76218
G1 E-4.20000 F1500.00000
G1 Z1.300 F15000.000
G1 X-0.060 Y-5.100 F15000.000
G1 Z0.300 F15000.000
G1 E4.20000 F1500.00000
G1 X7.900 Y-5.100 E0.61344 F720.000
G1 X7.900 Y5.100 E0.78607
G1 X-7.900 Y5.100 E1.21763
G1 X-7.900 Y-5.100 E0.78607
G1 X-0.120 Y-5.100 E0.59957 F720.000
G1 X0.140 Y-5.446 F15000.000
G1 E-4.20000 F1500.00000
G1 Z1.300 F15000.000
G1 X-8.536 Y2.544 F15000.000
G1 Z0.300 F15000.000
G1 E4.20000 F1500.00000
G1 X-8.536 Y5.736 E0.24594 F720.000
G1 X8.536 Y5.736 E1.31560 F720.000
G1 X8.536 Y2.544 E0.24594
G1 X8.964 Y2.792 E0.03815
G1 X8.964 Y7.464 E0.36009
G1 X-8.964 Y7.464 E1.38169
G1 X-8.964 Y2.792 E0.36009
G1 X-8.588 Y2.574 E0.03353
G1 E-4.20000 F1500.00000
G1 Z1.300 F15000.000
G1 X3.326 Y-7.464 F15000.000
G1 Z0.300 F15000.000
G1 E4.20000 F1500.00000
G1 X8.964 Y-7.464 E0.43453 F720.000
G1 X8.964 Y-2.792 E0.36009
G1 X8.536 Y-2.544 E0.03815 F720.000
G1 X8.536 Y-5.736 E0.24594
G1 X-8.536 Y-5.736 E1.31560
G1 X-8.536 Y-2.544 E0.24594
G1 X-8.964 Y-2.792 E0.03815
G1 X-8.964 Y-7.464 E0.36009
G1 X3.266 Y-7.464 E0.94254
G1 X3.266 Y-8.100 F15000.000
G1 X9.600 Y-8.100 E0.48814 F720.000
G1 X9.600 Y-2.425 E0.43736
G1 X8.700 Y-1.905 E0.08009 F720.000
G1 X8.700 Y1.905 E0.29366
G1 X9.600 Y2.425 E0.08009
G1 X9.600 Y8.100 E0.43736
G1 X-9.600 Y8.100 E1.47966
G1 X-9.600 Y2.425 E0.43736
G1 X-8.700 Y1.905 E0.08009
G1 X-8.700 Y-1.905 E0.29366
G1 X-9.600 Y-2.425 E0.08009
G1 X-9.600 Y-8.100 E0.43736
G1 X3.206 Y-8.100 E0.98690
G1 X3.466 Y-7.754 F15000.000
G1 X8.579 Y-6.769 F15000.000
G1 X8.269 Y-7.079 E0.03457 F960.000
G1 X7.348 Y-7.079 E0.07270
G1 X8.306 Y-6.121 E0.10695
G1 X7.385 Y-6.121 E0.07270
G1 X6.428 Y-7.079 E0.10695
G1 X5.507 Y-7.079 E0.07270
G1 X6.465 Y-6.121 E0.10695
G1 X5.544 Y-6.121 E0.07270
G1 X4.586 Y-7.079 E0.10695
G1 X3.665 Y-7.079 E0.07270
G1 X4.623 Y-6.121 E0.10695
G1 X3.702 Y-6.121 E0.07270
G1 X2.744 Y-7.079 E0.10695
G1 X1.823 Y-7.079 E0.07270
G1 X2.781 Y-6.121 E0.10695
G1 X1.860 Y-6.121 E0.07270
G1 X0.902 Y-7.079 E0.10695
G1 X-0.019 Y-7.079 E0.07270
G1 X0.939 Y-6.121 E0.10695
G1 X0.019 Y-6.121 E0.07270
G1 X-0.939 Y-7.079 E0.10695
G1 X-1.860 Y-7.079 E0.07270
G1 X-0.902 Y-6.121 E0.10695
G1 X-1.823 Y-6.121 E0.07270
G1 X-2.781 Y-7.079 E0.10695
G1 X-3.702 Y-7.079 E0.07270
G1 X-2.744 Y-6.121 E0.10695
G1 X-3.665 Y-6.121 E0.07270
G1 X-4.623 Y-7.079 E0.10695
G1 X-5.544 Y-7.079 E0.07270
G1 X-4.586 Y-6.121 E0.10695
G1 X-5.507 Y-6.121 E0.07270
G1 X-6.465 Y-7.079 E0.10695
G1 X-7.385 Y-7.079 E0.07270
G1 X-6.428 Y-6.121 E0.10695
G1 X-7.348 Y-6.121 E0.07270
G1 X-8.306 Y-7.079 E0.10695
G1 X-8.579 Y-6.431 E0.05552
G1 X-8.269 Y-6.121 E0.03457
G1 X-8.300 Y-2.041 F15000.000
G1 X-8.300 Y2.041 E0.31462 F960.000
G1 X-8.269 Y7.079 F15000.000
G1 X-8.579 Y6.769 E0.03457 F960.000
G1 X-8.306 Y6.121 E0.05552
G1 X-7.348 Y7.079 E0.10695
G1 X-6.428 Y7.079 E0.07270
G1 X-7.385 Y6.121 E0.10695
G1 X-6.465 Y6.121 E0.07270
G1 X-5.507 Y7.079 E0.10695
G1 X-4.586 Y7.079 E0.07270
G1 X-5.544 Y6.121 E0.10695
G1 X-4.623 Y6.121 E0.07270
G1 X-3.665 Y7.079 E0.10695
G1 X-2.744 Y7.079 E0.07270
G1 X-3.702 Y6.121 E0.10695
G1 X-2.781 Y6.121 E0.07270
G1 X-1.823 Y7.079 E0.10695
G1 X-0.902 Y7.079 E0.07270
G1 X-1.860 Y6.121 E0.10695
G1 X-0.939 Y6.121 E0.07270
G1 X0.019 Y7.079 E0.10695
G1 X0.939 Y7.079 E0.07270
G1 X-0.019 Y6.121 E0.10695
G1 X0.902 Y6.121 E0.07270
G1 X1.860 Y7.079 E0.10695
G1 X2.781 Y7.079 E0.07270
G1 X1.823 Y6.121 E0.10695
G1 X2.744 Y6.121 E0.07270
G1 X3.702 Y7.079 E0.10695
G1 X4.623 Y7.079 E0.07270
G1 X3.665 Y6.121 E0.10695
G1 X4.586 Y6.121 E0.07270
G1 X5.544 Y7.079 E0.10695
G1 X6.465 Y7.079 E0.07270
G1 X5.507 Y6.121 E0.10695
G1 X6.428 Y6.121 E0.07270
G1 X7.385 Y7.079 E0.10695
G1 X8.306 Y7.079 E0.07270
G1 X7.348 Y6.121 E0.10695
G1 X8.269 Y6.121 E0.07270
G1 X8.579 Y6.431 E0.03457
G1 X8.300 Y2.041 F15000.000
G1 X8.300 Y-2.041 E0.31462 F960.000
G1 E-4.20000 F1500.00000
G1 Z1.300 F15000.000
G1 X8.107 Y-2.041 F15000.000
G1 Z0.500 F15000.000
G1 E4.20000 F1500.00000
G1 X8.107 Y5.307 E0.21209 F2400.000
G1 X-8.107 Y5.307 E0.46798
G1 X-8.107 Y-5.307 E0.30635
G1 X8.107 Y-5.307 E0.46798 F2400.000
G1 X8.107 Y-2.101 E0.09253
G1 X7.750 Y-2.101 F15000.000
G1 X7.750 Y4.950 E0.20352 F2400.000
G1 X-7.750 Y4.950 E0.44737
G1 X-7.750 Y-4.950 E0.28574
G1 X7.750 Y-4.950 E0.44737 F2400.000
G1 X7.750 Y-2.161 E0.08049
G1 X8.096 Y-1.901 F15000.000
G1 E-4.20000 F1500.00000
G1 Z1.500 F15000.000
G1 X-5.488 Y-7.893 F15000.000
G1 Z0.500 F15000.000
G1 E4.20000 F1500.00000
G1 X9.393 Y-7.893 E0.42951 F2400.000
G1 X9.393 Y-2.544 E0.15437
G1 X8.493 Y-2.025 E0.02999 F2400.000
G1 X8.493 Y2.025 E0.11688
G1 X9.393 Y2.544 E0.02999
G1 X9.393 Y7.893 E0.15437
G1 X-9.393 Y7.893 E0.54221
G1 X-9.393 Y2.544 E0.15437
G1 X-8.493 Y2.025 E0.02999
G1 X-8.493 Y-2.025 E0.11688
G1 X-9.393 Y-2.544 E0.02999
G1 X-9.393 Y-7.893 E0.15437
G1 X-5.548 Y-7.893 E0.11097
G1 X-5.548 Y-8.250 F15000.000
G1 X9.750 Y-8.250 E0.44155 F2400.000
G1 X9.750 Y-2.338 E0.17063
G1 X8.850 Y-1.819 E0.02999 F2400.000
G1 X8.850 Y1.819 E0.10498
G1 X9.750 Y2.338 E0.02999
G1 X9.750 Y8.250 E0.17063
G1 X-9.750 Y8.250 E0.56282
G1 X-9.750 Y2.338 E0.17063
G1 X-8.850 Y1.819 E0.02999
G1 X-8.850 Y-1.819 E0.10498
G1 X-9.750 Y-2.338 E0.02999
G1 X-9.750 Y-8.250 E0.17063
G1 X-5.608 Y-8.250 E0.11954
G1 X-5.348 Y-7.904 F15000.000
G1 X-9.185 Y-7.494 F15000.000
G1 X-8.994 Y-7.685 E0.00793 F2400.000
G1 X-8.482 Y-7.685 E0.01499
G1 X-9.185 Y-6.982 E0.02913
G1 X-9.185 Y-6.469 E0.01499
G1 X-7.969 Y-7.685 E0.05034
G1 X-7.457 Y-7.685 E0.01499
G1 X-9.185 Y-5.957 E0.07154
G1 X-9.185 Y-5.445 E0.01499
G1 X-6.945 Y-7.685 E0.09275
G1 X-6.433 Y-7.685 E0.01499
G1 X-9.185 Y-4.933 E0.11395
G1 X-9.185 Y-4.421 E0.01499
G1 X-8.315 Y-5.291 E0.03603
G1 X-8.091 Y-5.515 F15000.000
G1 X-5.921 Y-7.685 E0.08985 F2400.000
G1 X-5.408 Y-7.685 E0.01499
G1 X-7.579 Y-5.515 E0.08985
G1 X-7.067 Y-5.515 E0.01499
G1 X-4.896 Y-7.685 E0.08985
G1 X-4.384 Y-7.685 E0.01499
G1 X-6.554 Y-5.515 E0.08985
G1 X-6.042 Y-5.515 E0.01499
G1 X-3.872 Y-7.685 E0.08985
G1 X-3.360 Y-7.685 E0.01499
G1 X-5.530 Y-5.515 E0.08985
G1 X-5.018 Y-5.515 E0.01499
G1 X-2.847 Y-7.685 E0.08985
G1 X-2.335 Y-7.685 E0.01499
G1 X-4.506 Y-5.515 E0.08985
G1 X-3.993 Y-5.515 E0.01499
G1 X-1.823 Y-7.685 E0.08985
G1 X-1.311 Y-7.685 E0.01499
G1 X-3.481 Y-5.515 E0.08985
G1 X-2.969 Y-5.515 E0.01499
G1 X-0.799 Y-7.685 E0.08985
G1 X-0.286 Y-7.685 E0.01499
G1 X-2.457 Y-5.515 E0.08985
G1 X-1.945 Y-5.515 E0.01499
G1 X0.226 Y-7.685 E0.08985
G1 X0.738 Y-7.685 E0.01499
G1 X-1.432 Y-5.515 E0.08985
G1 X-0.920 Y-5.515 E0.01499
G1 X1.250 Y-7.685 E0.08985
G1 X1.762 Y-7.685 E0.01499
G1 X-0.408 Y-5.515 E0.08985
G1 X0.104 Y-5.515 E0.01499
G1 X2.275 Y-7.685 E0.08985
G1 X2.787 Y-7.685 E0.01499
G1 X0.616 Y-5.515 E0.08985
G1 X1.129 Y-5.515 E0.01499
G1 X3.299 Y-7.685 E0.08985
G1 X3.811 Y-7.685 E0.01499
G1 X1.641 Y-5.515 E0.08985
G1 X2.153 Y-5.515 E0.01499
G1 X4.323 Y-7.685 E0.08985
G1 X4.835 Y-7.685 E0.01499
G1 X2.665 Y-5.515 E0.08985
G1 X3.177 Y-5.515 E0.01499
G1 X5.348 Y-7.685 E0.08985
G1 X5.860 Y-7.685 E0.01499
G1 X3.690 Y-5.515 E0.08985
G1 X4.202 Y-5.515 E0.01499
G1 X6.372 Y-7.685 E0.08985
G1 X6.884 Y-7.685 E0.01499
G1 X4.714 Y-5.515 E0.08985
G1 X5.226 Y-5.515 E0.01499
G1 X7.396 Y-7.685 E0.08985
G1 X7.909 Y-7.685 E0.01499
G1 X5.738 Y-5.515 E0.08985
G1 X6.250 Y-5.515 E0.01499
G1 X8.421 Y-7.685 E0.08985
G1 X8.933 Y-7.685 E0.01499
G1 X6.763 Y-5.515 E0.08985
G1 X7.275 Y-5.515 E0.01499
G1 X9.185 Y-7.425 E0.07909
G1 X9.185 Y-6.913 E0.01499
G1 X7.787 Y-5.515 E0.05788
G1 X8.299 Y-5.515 E0.01499
G1 X9.185 Y-6.401 E0.03668
G1 X9.185 Y-5.889 E0.01499
G1 X8.315 Y-5.018 E0.03603
G1 X8.315 Y-4.506 E0.01499
G1 X9.185 Y-5.376 E0.03603
G1 X9.185 Y-4.864 E0.01499
G1 X8.315 Y-3.994 E0.03603
G1 X8.315 Y-3.482 E0.01499
G1 X9.185 Y-4.352 E0.03603
G1 X9.185 Y-3.840 E0.01499
G1 X8.315 Y-2.969 E0.03603
G1 X8.315 Y-2.457 E0.01499
G1 X9.185 Y-3.328 E0.03603
G1 X9.185 Y-2.815 E0.01499
G1 X8.959 Y-2.589 E0.00936
G1 E-4.20000 F1500.00000
G1 Z1.500 F15000.000
G1 X-8.315 Y-4.779 F15000.000
G1 Z0.500 F15000.000
G1 E4.20000 F1500.00000
G1 X-9.185 Y-3.908 E0.03603 F2400.000
G1 X-9.185 Y-3.396 E0.01499
G1 X-8.315 Y-4.267 E0.03603
G1 X-8.315 Y-3.754 E0.01499
G1 X-9.185 Y-2.884 E0.03603
G1 X-9.020 Y-2.537 E0.01125
G1 X-8.315 Y-3.242 E0.02919
G1 X-8.315 Y-2.730 E0.01499
G1 X-8.695 Y-2.350 E0.01575
G1 E-4.20000 F1500.00000
G1 Z1.500 F15000.000
G1 X-9.185 Y2.815 F15000.000
G1 Z0.500 F15000.000
G1 E4.20000 F1500.00000
G1 X-8.959 Y2.589 E0.00936 F2400.000
G1 X-8.315 Y2.457 E0.01925
G1 X-9.185 Y3.328 E0.03603
G1 X-9.185 Y3.840 E0.01499
G1 X-8.315 Y2.969 E0.03603
G1 X-8.315 Y3.482 E0.01499
G1 X-9.185 Y4.352 E0.03603
G1 X-9.185 Y4.864 E0.01499
G1 X-8.315 Y3.994 E0.03603
G1 X-8.315 Y4.506 E0.01499
G1 X-9.185 Y5.376 E0.03603
G1 X-9.185 Y5.889 E0.01499
G1 X-8.315 Y5.018 E0.03603
G1 X-8.299 Y5.515 E0.01455
G1 X-9.185 Y6.401 E0.03668
G1 X-9.185 Y6.913 E0.01499
G1 X-7.787 Y5.515 E0.05788
G1 X-7.275 Y5.515 E0.01499
G1 X-9.185 Y7.425 E0.07909
G1 X-8.933 Y7.685 E0.01060
G1 X-6.763 Y5.515 E0.08985
G1 X-6.251 Y5.515 E0.01499
G1 X-8.421 Y7.685 E0.08985
G1 X-7.909 Y7.685 E0.01499
G1 X-5.738 Y5.515 E0.08985
G1 X-5.226 Y5.515 E0.01499
G1 X-7.396 Y7.685 E0.08985
G1 X-6.884 Y7.685 E0.01499
G1 X-4.714 Y5.515 E0.08985
G1 X-4.202 Y5.515 E0.01499
G1 X-6.372 Y7.685 E0.08985
G1 X-5.860 Y7.685 E0.01499
G1 X-3.690 Y5.515 E0.08985
G1 X-3.177 Y5.515 E0.01499
G1 X-5.348 Y7.685 E0.08985
G1 X-4.836 Y7.685 E0.01499
G1 X-2.665 Y5.515 E0.08985
G1 X-2.153 Y5.515 E0.01499
G1 X-4.323 Y7.685 E0.08985
G1 X-3.811 Y7.685 E0.01499
G1 X-1.641 Y5.515 E0.08985
G1 X-1.129 Y5.515 E0.01499
G1 X-3.299 Y7.685 E0.08985
G1 X-2.787 Y7.685 E0.01499
G1 X-0.616 Y5.515 E0.08985
G1 X-0.104 Y5.515 E0.01499
G1 X-2.275 Y7.685 E0.08985
G1 X-1.762 Y7.685 E0.01499
G1 X0.408 Y5.515 E0.08985
G1 X0.920 Y5.515 E0.01499
G1 X-1.250 Y7.685 E0.08985
G1 X-0.738 Y7.685 E0.01499
G1 X1.432 Y5.515 E0.08985
G1 X1.945 Y5.515 E0.01499
G1 X-0.226 Y7.685 E0.08985
G1 X0.286 Y7.685 E0.01499
G1 X2.457 Y5.515 E0.08985
G1 X2.969 Y5.515 E0.01499
G1 X0.799 Y7.685 E0.08985
G1 X1.311 Y7.685 E0.01499
G1 X3.481 Y5.515 E0.08985
G1 X3.993 Y5.515 E0.01499
G1 X1.823 Y7.685 E0.08985
G1 X2.335 Y7.685 E0.01499
G1 X4.506 Y5.515 E0.08985
G1 X5.018 Y5.515 E0.01499
G1 X2.847 Y7.685 E0.08985
G1 X3.360 Y7.685 E0.01499
G1 X5.530 Y5.515 E0.08985
G1 X6.042 Y5.515 E0.01499
G1 X3.872 Y7.685 E0.08985
G1 X4.384 Y7.685 E0.01499
G1 X6.554 Y5.515 E0.08985
G1 X7.066 Y5.515 E0.01499
G1 X4.896 Y7.685 E0.08985
G1 X5.408 Y7.685 E0.01499
G1 X7.579 Y5.515 E0.08985
G1 X8.091 Y5.515 F15000.000
G1 X5.921 Y7.685 E0.08985 F2400.000
G1 X6.433 Y7.685 E0.01499
G1 X9.185 Y4.933 E0.11395
G1 X9.185 Y5.445 E0.01499
G1 X6.945 Y7.685 E0.09275
G1 X7.457 Y7.685 E0.01499
G1 X9.185 Y5.957 E0.07154
G1 X9.185 Y6.469 E0.01499
G1 X7.969 Y7.685 E0.05034
G1 X8.481 Y7.685 E0.01499
G1 X9.185 Y6.981 E0.02913
G1 X9.185 Y7.494 E0.01499
G1 X8.994 Y7.685 E0.00793
G1 X8.315 Y5.291 F15000.000
G1 X9.185 Y4.421 E0.03603 F2400.000
G1 X9.185 Y3.908 E0.01499
G1 X8.315 Y4.779 E0.03603
G1 X8.315 Y4.266 E0.01499
G1 X9.185 Y3.396 E0.03603
G1 X9.185 Y2.884 E0.01499
G1 X8.315 Y3.754 E0.03603
G1 X8.315 Y3.242 E0.01499
G1 X9.020 Y2.537 E0.02919
G1 X8.695 Y2.349 E0.01098
G1 X8.315 Y2.730 E0.01575
G1 E-4.20000 F1500.00000
G1 Z1.500 F15000.000
G1 X8.107 Y2.730 F15000.000
G1 Z0.700 F15000.000
G1 E4.20000 F1500.00000
G1 X8.107 Y5.307 E0.07438 F2400.000
G1 X-8.107 Y5.307 E0.46798
G1 X-8.107 Y-5.307 E0.30635 F2400.000
G1 X8.107 Y-5.307 E0.46798
G1 X8.107 Y2.670 E0.23024
G1 X7.750 Y2.670 F15000.000
G1 X7.750 Y4.950 E0.06581 F2400.000
G1 X-7.750 Y4.950 E0.44737
G1 X-7.750 Y-4.950 E0.28574 F2400.000
G1 X7.750 Y-4.950 E0.44737
G1 X7.750 Y2.610 E0.21820
G1 X8.096 Y2.870 F15000.000
G1 E-4.20000 F1500.00000
G1 Z1.700 F15000.000
G1 X1.643 Y-7.893 F15000.000
G1 Z0.700 F15000.000
G1 E4.20000 F1500.00000
G1 X9.393 Y-7.893 E0.22369 F2400.000
G1 X9.393 Y-2.544 E0.15437
G1 X8.493 Y-2.025 E0.02999 F2400.000
G1 X8.493 Y2.025 E0.11688
G1 X9.393 Y2.544 E0.02999
G1 X9.393 Y7.893 E0.15437
G1 X-9.393 Y7.893 E0.54221
G1 X-9.393 Y2.544 E0.15437
G1 X-8.493 Y2.025 E0.02999
G1 X-8.493 Y-2.025 E0.11688
G1 X-9.393 Y-2.544 E0.02999
G1 X-9.393 Y-7.893 E0.15437
G1 X1.583 Y-7.893 E0.31679
G1 X1.583 Y-8.250 F15000.000
G1 X9.750 Y-8.250 E0.23573 F2400.000
G1 X9.750 Y-2.338 E0.17063
G1 X8.850 Y-1.819 E0.02999 F2400.000
G1 X8.850 Y1.819 E0.10498
G1 X9.750 Y2.338 E0.02999
G1 X9.750 Y8.250 E0.17063
G1 X-9.750 Y8.250 E0.56282
G1 X-9.750 Y2.338 E0.17063
G1 X-8.850 Y1.819 E0.02999
G1 X-8.850 Y-1.819 E0.10498
G1 X-9.750 Y-2.338 E0.02999
G1 X-9.750 Y-8.250 E0.17063
G1 X1.523 Y-8.250 E0.32536
G1 X1.783 Y-7.904 F15000.000
G1 X8.315 Y-4.716 F15000.000
G1 X9.185 Y-4.042 E0.03177 F2400.000
G1 X9.185 Y-5.163 F15000.000
G1 X6.663 Y-7.685 E0.10293 F2400.000
G1 X7.160 Y-5.515 E0.06426
G1 X4.232 Y-7.685 E0.10519
G1 X3.784 Y-5.515 E0.06396
G1 X1.614 Y-7.685 E0.08859
G1 X1.163 Y-5.515 E0.06398
G1 X-1.765 Y-7.685 E0.10519
G1 X-3.436 Y-7.685 E0.04823
G1 X-1.266 Y-5.515 E0.08859
G1 X-4.835 Y-5.515 E0.10301
G1 X-7.763 Y-7.685 E0.10519
G1 X-8.486 Y-7.685 E0.02088
G1 X-6.316 Y-5.515 E0.08859
G1 E-4.20000 F1500.00000
G1 Z1.700 F15000.000
G1 X-8.315 Y-3.684 F15000.000
G1 Z0.700 F15000.000
G1 E4.20000 F1500.00000
G1 X-9.185 Y-4.359 E0.03177 F2400.000
G1 X-9.185 Y-3.334 E0.02956
G1 X-8.315 Y-2.464 E0.03552
G1 X-8.604 Y2.297 F15000.000
G1 X-8.315 Y2.586 E0.01180 F2400.000
G1 X-8.265 Y7.685 F15000.000
G1 X-9.185 Y6.765 E0.03754 F2400.000
G1 X-9.185 Y5.766 E0.02884
G1 X-6.596 Y7.685 E0.09301
G1 X-3.216 Y7.685 E0.09758
G1 X-5.386 Y5.515 E0.08859
G1 X-3.525 Y5.515 E0.05371
G1 X-0.590 Y7.685 E0.10537
G1 X-0.336 Y5.515 E0.06307
G1 X1.834 Y7.685 E0.08859
G1 X5.417 Y7.685 E0.10340
G1 X2.482 Y5.515 E0.10537
G1 X4.714 Y5.515 E0.06443
G1 X6.884 Y7.685 E0.08859
G1 X9.185 Y6.062 E0.08128
G1 X8.315 Y5.389 E0.03175
G1 X8.315 Y4.066 E0.03819
G1 X9.185 Y4.936 E0.03552
M106 S255
G1 E-4.20000 F1500.00000
G1 Z1.700 F15000.000
G1 X8.107 Y4.936 F15000.000
G1 Z0.900 F15000.000
G1 E4.20000 F1500.00000
G1 X8.107 Y5.307 E0.01070 F2400.000
G1 X-8.107 Y5.307 E0.46798
G1 X-8.107 Y-5.307 E0.30635 F2400.000
G1 X8.107 Y-5.307 E0.46798
G1 X8.107 Y4.876 E0.29392
G1 X7.750 Y4.876 F15000.000
G1 X7.750 Y4.950 E0.00213 F2400.000
G1 X-7.750 Y4.950 E0.44737
G1 X-7.750 Y-4.950 E0.28574 F2400.000
G1 X7.750 Y-4.950 E0.44737
G1 X7.750 Y4.816 E0.28188
G1 X7.814 Y4.913 F15000.000
G1 X9.088 Y2.369 F15000.000
G1 X9.393 Y2.544 E0.01015 F2400.000
G1 X9.393 Y7.893 E0.15437
G1 X-9.393 Y7.893 E0.54221
G1 X-9.393 Y2.544 E0.15437
G1 X-8.493 Y2.025 E0.02999
G1 X-8.493 Y-2.025 E0.11688
G1 X-9.393 Y-2.544 E0.02999
G1 X-9.393 Y-7.893 E0.15437
G1 X9.393 Y-7.893 E0.54221
G1 X9.393 Y-2.544 E0.15437
G1 X8.493 Y-2.025 E0.02999 F2400.000
G1 X8.493 Y2.025 E0.11688
G1 X9.036 Y2.339 E0.01812
G1 X9.215 Y2.029 F15000.000
G1 X9.750 Y2.338 E0.01783 F2400.000
G1 X9.750 Y8.250 E0.17063
G1 X-9.750 Y8.250 E0.56282
G1 X-9.750 Y2.338 E0.17063
G1 X-8.850 Y1.819 E0.02999
G1 X-8.850 Y-1.819 E0.10498
G1 X-9.750 Y-2.338 E0.02999
G1 X-9.750 Y-8.250 E0.17063
G1 X9.750 Y-8.250 E0.56282
G1 X9.750 Y-2.338 E0.17063
G1 X8.850 Y-1.819 E0.02999 F2400.000
G1 X8.850 Y1.819 E0.10498
G1 X9.163 Y1.999 E0.01043
