; generated by Slic3r 1.2.9 on 2020-04-16 at 16:29:25

; external perimeters extrusion width = 0.40mm
; perimeters extrusion width = 0.40mm
; infill extrusion width = 0.40mm
; solid infill extrusion width = 0.40mm
; top infill extrusion width = 0.40mm

M107
M83
T0
M116
G21 ; set units to millimeters
G90 ; use absolute coordinates
M83 ; use relative distances for extrusion
G1 E-4.20000 F1500.00000
G1 Z1.000 F15000.000
G1 X0.000 Y24.336 F15000.000
G1 Z0.300 F15000.000
G1 E4.20000 F1500.00000
G1 X-12.776 Y24.336 E0.98457 F960.000
G1 X-14.423 Y23.941 E0.13052
G1 X-15.347 Y23.271 E0.08796
G1 X-17.197 Y21.421 E0.20163
G1 X-17.449 Y21.140 E0.02912
G1 X-28.492 Y7.525 E1.35096
G1 X-28.817 Y7.053 E0.04417
G1 X-34.480 Y-2.757 E0.87294
G1 X-34.927 Y-5.114 E0.18487
G1 X-34.639 Y-7.035 E0.14973
G1 X-34.473 Y-7.702 E0.05295
G1 X-33.825 Y-9.548 E0.15075
G1 X-33.536 Y-10.172 E0.05297
G1 X-32.552 Y-11.862 E0.15075
G1 X-32.151 Y-12.420 E0.05297
G1 X-30.866 Y-13.895 E0.15076
G1 X-30.367 Y-14.368 E0.05297
G1 X-28.826 Y-15.577 E0.15094
G1 X-28.545 Y-15.776 E0.02651
G1 X-22.874 Y-19.411 E0.51913
G1 X-21.844 Y-19.864 E0.08670
G1 X-5.447 Y-24.214 E1.30739
G1 X-4.515 Y-24.336 E0.07245
G1 X4.515 Y-24.336 E0.69584
G1 X5.447 Y-24.214 E0.07245
G1 X21.844 Y-19.864 E1.30739 F960.000
G1 X22.874 Y-19.411 E0.08670
G1 X28.545 Y-15.776 E0.51913
G1 X28.826 Y-15.577 E0.02651
G1 X30.367 Y-14.368 E0.15094
G1 X30.866 Y-13.895 E0.05297
G1 X32.151 Y-12.420 E0.15076
G1 X32.552 Y-11.862 E0.05297
G1 X33.536 Y-10.172 E0.15075
G1 X33.824 Y-9.548 E0.05297
G1 X34.473 Y-7.702 E0.15075
G1 X34.639 Y-7.035 E0.05295
G1 X34.927 Y-5.114 E0.14973
G1 X34.480 Y-2.757 E0.18487
G1 X28.817 Y7.053 E0.87294
G1 X28.492 Y7.525 E0.04417
G1 X17.449 Y21.140 E1.35096
G1 X17.197 Y21.421 E0.02912
G1 X15.347 Y23.271 E0.20163
G1 X13.903 Y24.156 E0.13052
G1 X12.776 Y24.336 E0.08796
G1 X0.060 Y24.336 E0.97994
G1 E-4.20000 F1500.00000
G1 Z1.300 F15000.000
G1 X4.456 Y1.310 F15000.000
G1 Z0.300 F15000.000
G1 E4.20000 F1500.00000
G1 X4.080 Y1.184 E0.03056 F600.000
G1 X3.757 Y0.993 E0.02890
G1 X-0.625 Y-2.294 E0.42217
G1 X-0.969 Y-2.621 E0.03657
G1 X-1.242 Y-3.037 E0.03837
G1 X-1.412 Y-3.505 E0.03837
G1 X-1.469 Y-4.000 E0.03837
G1 X-1.412 Y-4.495 E0.03837
G1 X-1.242 Y-4.963 E0.03837
G1 X-0.969 Y-5.379 E0.03837
G1 X-0.625 Y-5.706 E0.03657
G1 X3.757 Y-8.993 E0.42217
G1 X4.080 Y-9.184 E0.02890
G1 X4.456 Y-9.310 E0.03056
G1 X4.711 Y-9.337 E0.01982
G1 X4.850 Y-9.352 E0.01074 F600.000
G1 X5.244 Y-9.310 E0.03056
G1 X5.620 Y-9.184 E0.03056
G1 X5.943 Y-8.993 E0.02890
G1 X7.659 Y-7.706 E0.16528
G1 X8.422 Y-6.981 E0.08114
G1 X9.012 Y-6.081 E0.08294
G1 X9.378 Y-5.069 E0.08294
G1 X9.503 Y-4.000 E0.08294
G1 X9.378 Y-2.931 E0.08294
G1 X9.012 Y-1.919 E0.08294
G1 X8.422 Y-1.019 E0.08294
G1 X7.659 Y-0.294 E0.08114
G1 X5.943 Y0.993 E0.16528
G1 X5.620 Y1.184 E0.02890
G1 X5.244 Y1.310 E0.03056
G1 X4.850 Y1.352 E0.03056
G1 X4.515 Y1.316 E0.02594
G1 X4.179 Y1.593 F15000.000
G1 E-4.20000 F1500.00000
G1 Z1.300 F15000.000
G1 X-2.202 Y-9.214 F15000.000
G1 Z0.300 F15000.000
G1 E4.20000 F1500.00000
G1 X2.559 Y-9.214 E0.36690 F600.000
G1 X2.645 Y-8.954 E0.02118
G1 X-1.036 Y-6.192 E0.35465 F600.000
G1 X-1.461 Y-5.789 E0.04512
G1 X-1.814 Y-5.249 E0.04978
G1 X-2.049 Y-4.602 E0.05304
G1 X-2.364 Y-4.657 E0.02468
G1 X-2.364 Y-7.563 E0.22390
G1 X-2.423 Y-8.049 E0.03774
G1 X-2.619 Y-8.566 E0.04260
G1 X-3.067 Y-9.214 E0.06074
G1 X-2.262 Y-9.214 E0.06202
G1 X-3.331 Y-8.477 F15000.000
G1 X-3.186 Y-8.268 E0.01956 F600.000
G1 X-3.045 Y-7.896 E0.03071
G1 X-3.000 Y-7.524 E0.02883
G1 X-3.000 Y-0.476 E0.54319
G1 X-3.045 Y-0.104 E0.02883
G1 X-3.186 Y0.268 E0.03071
G1 X-3.413 Y0.596 E0.03071
G1 X-3.711 Y0.860 E0.03071
G1 X-4.064 Y1.046 E0.03071
G1 X-4.451 Y1.141 E0.03071
G1 X-4.849 Y1.141 E0.03071
G1 X-5.236 Y1.046 E0.03071
G1 X-5.589 Y0.860 E0.03071
G1 X-5.887 Y0.596 E0.03071
G1 X-6.114 Y0.268 E0.03071
G1 X-6.255 Y-0.104 E0.03071
G1 X-6.300 Y-0.476 E0.02883
G1 X-6.300 Y-7.524 E0.54319
G1 X-6.255 Y-7.896 E0.02883
G1 X-6.114 Y-8.268 E0.03071
G1 X-5.887 Y-8.596 E0.03071
G1 X-5.589 Y-8.860 E0.03071
G1 X-5.236 Y-9.046 E0.03071
G1 X-4.849 Y-9.141 E0.03071
G1 X-4.451 Y-9.141 E0.03071 F600.000
G1 X-4.064 Y-9.046 E0.03071
G1 X-3.711 Y-8.860 E0.03071
G1 X-3.413 Y-8.596 E0.03071
G1 X-3.365 Y-8.526 E0.00652
G1 X-3.078 Y-8.497 F15000.000
G1 E-4.20000 F1500.00000
G1 Z1.300 F15000.000
G1 X-7.154 Y-7.928 F15000.000
G1 Z0.300 F15000.000
G1 E4.20000 F1500.00000
G1 X-6.905 Y-7.811 E0.02121 F720.000
G1 X-6.936 Y-7.563 E0.01926
G1 X-6.936 Y-0.437 E0.54911
G1 X-6.877 Y0.049 E0.03774
G1 X-6.681 Y0.566 E0.04260
G1 X-6.367 Y1.021 E0.04261
G1 X-5.953 Y1.387 E0.04260
G1 X-5.463 Y1.644 E0.04260
G1 X-4.926 Y1.777 E0.04260
G1 X-4.374 Y1.777 E0.04260
G1 X-3.837 Y1.644 E0.04260
G1 X-3.347 Y1.387 E0.04260
G1 X-2.933 Y1.021 E0.04260
G1 X-2.619 Y0.566 E0.04260
G1 X-2.423 Y0.049 E0.04260
G1 X-2.364 Y-0.437 E0.03774
G1 X-2.364 Y-3.343 E0.22391
G1 X-2.049 Y-3.398 E0.02468
G1 X-1.814 Y-2.751 E0.05304
G1 X-1.461 Y-2.211 E0.04978
G1 X-1.036 Y-1.808 E0.04512
G1 X3.403 Y1.522 E0.42764
G1 X3.814 Y1.766 E0.03680
G1 X4.320 Y1.935 E0.04111
G1 X4.850 Y1.992 E0.04111
G1 X5.380 Y1.935 E0.04111
G1 X5.886 Y1.766 E0.04111
G1 X6.297 Y1.522 E0.03680
G1 X8.069 Y0.192 E0.17075
G1 X8.913 Y-0.609 E0.08968
G1 X9.584 Y-1.633 E0.09434
G1 X10.001 Y-2.784 E0.09434
G1 X10.143 Y-4.000 E0.09434
G1 X10.087 Y-4.476 E0.03695
G1 X10.336 Y-4.593 E0.02116
G1 X12.205 Y-2.633 E0.20874
G1 X12.339 Y-1.793 E0.06552
G1 X12.581 Y-1.089 E0.05737
G1 X13.023 Y0.032 E0.09287
G1 X13.413 Y0.666 E0.05737
G1 X14.086 Y1.665 E0.09287
G1 X14.606 Y2.199 E0.05737
G1 X15.478 Y3.030 E0.09287
G1 X16.102 Y3.436 E0.05737
G1 X17.142 Y4.065 E0.09362
G1 X18.975 Y4.709 E0.14974
G1 X20.910 Y4.941 E0.15022
G1 X22.850 Y4.748 E0.15023
G1 X24.697 Y4.141 E0.14982
G1 X24.904 Y4.021 E0.01846
G1 X25.111 Y4.228 E0.02257
G1 X24.987 Y4.443 E0.01916
G1 X23.552 Y5.005 E0.11879
G1 X21.776 Y5.327 E0.13908
G1 X19.859 Y5.301 E0.14776
G1 X18.598 Y5.314 E0.09718
G1 X17.267 Y5.654 E0.10587
G1 X16.055 Y6.301 E0.10587
G1 X15.665 Y6.650 E0.04038
G1 X15.032 Y7.217 E0.06549
G1 X14.256 Y8.351 E0.10587
G1 X13.771 Y9.636 E0.10587
G1 X13.638 Y10.744 E0.08601
G1 X13.114 Y11.267 E0.05704
G1 X13.114 Y12.114 E0.06527
G1 X8.714 Y12.114 E0.33909
G1 X8.714 Y17.886 E0.44476
G1 X13.114 Y17.886 E0.33909
G1 X13.114 Y18.733 E0.06527
G1 X13.232 Y18.850 E0.01280
G1 X12.367 Y19.714 E0.09421
G1 X-12.367 Y19.714 E1.90621
G1 X-13.232 Y18.850 E0.09421
G1 X-13.114 Y18.733 E0.01280
G1 X-13.114 Y17.886 E0.06527
G1 X-8.714 Y17.886 E0.33909
G1 X-8.714 Y12.114 E0.44476
G1 X-13.114 Y12.114 E0.33909
G1 X-13.114 Y11.267 E0.06527
G1 X-13.638 Y10.744 E0.05704
G1 X-13.771 Y9.636 E0.08601
G1 X-14.256 Y8.351 E0.10587
G1 X-15.032 Y7.217 E0.10587
G1 X-16.055 Y6.301 E0.10587
G1 X-17.267 Y5.654 E0.10587
G1 X-18.598 Y5.314 E0.10587
G1 X-19.859 Y5.301 E0.09718
G1 X-21.776 Y5.327 E0.14776
G1 X-23.552 Y5.005 E0.13908
G1 X-24.987 Y4.443 E0.11879 F720.000
G1 X-25.307 Y3.890 E0.04924
G1 X-23.108 Y4.690 E0.18033
G1 X-21.141 Y4.940 E0.15276
G1 X-19.168 Y4.752 E0.15276
G1 X-17.291 Y4.135 E0.15228
G1 X-16.224 Y3.513 E0.09517
G1 X-15.583 Y3.111 E0.05834
G1 X-14.685 Y2.277 E0.09443
G1 X-14.149 Y1.742 E0.05834
G1 X-13.456 Y0.732 E0.09443
G1 X-13.053 Y0.091 E0.05834
G1 X-12.597 Y-1.047 E0.09443
G1 X-12.347 Y-1.761 E0.05834
G1 X-12.207 Y-2.631 E0.06791
G1 X-7.196 Y-7.885 E0.55950
G1 X-7.656 Y-8.324 F15000.000
G1 X-6.317 Y-9.727 E0.14945 F720.000
G1 X-6.248 Y-9.786 E0.00698
G1 X-6.120 Y-9.841 E0.01077
G1 X6.120 Y-9.841 E0.94327
G1 X6.248 Y-9.786 E0.01077 F720.000
G1 X6.317 Y-9.727 E0.00698
G1 X12.400 Y-3.350 E0.67914
G1 X12.748 Y-3.350 E0.02686
G1 X12.958 Y-1.948 E0.10926
G1 X13.178 Y-1.309 E0.05204
G1 X13.594 Y-0.254 E0.08745
G1 X13.948 Y0.321 E0.05204
G1 X14.582 Y1.263 E0.08745
G1 X15.053 Y1.746 E0.05204
G1 X15.875 Y2.529 E0.08745
G1 X16.440 Y2.898 E0.05204
G1 X17.414 Y3.487 E0.08772
G1 X19.120 Y4.086 E0.13931
G1 X20.917 Y4.301 E0.13948
G1 X22.718 Y4.122 E0.13948
G1 X24.435 Y3.558 E0.13934
G1 X25.994 Y2.632 E0.13971
G1 X26.861 Y1.817 E0.09167
G1 X27.119 Y2.022 E0.02538
G1 X25.426 Y4.954 E0.26091
G1 X23.726 Y5.619 E0.14071
G1 X21.829 Y5.964 E0.14857
G1 X19.858 Y5.937 E0.15193
G1 X18.681 Y5.949 E0.09070
G1 X17.499 Y6.251 E0.09405
G1 X16.422 Y6.825 E0.09405
G1 X15.513 Y7.639 E0.09405
G1 X14.823 Y8.646 E0.09405
G1 X14.393 Y9.788 E0.09405
G1 X14.242 Y11.038 E0.09702
G1 X13.750 Y11.531 E0.05367
G1 X13.750 Y12.750 E0.09396
G1 X9.350 Y12.750 E0.33909
G1 X9.350 Y17.250 E0.34679
G1 X13.750 Y17.250 E0.33909
G1 X13.750 Y18.469 E0.09396
G1 X14.131 Y18.850 E0.04150
G1 X12.631 Y20.350 E0.16348
G1 X-12.631 Y20.350 E1.94679
G1 X-14.131 Y18.850 E0.16348
G1 X-13.750 Y18.469 E0.04150
G1 X-13.750 Y17.250 E0.09396
G1 X-9.350 Y17.250 E0.33909
G1 X-9.350 Y12.750 E0.34679
G1 X-13.750 Y12.750 E0.33909
G1 X-13.750 Y11.531 E0.09396
G1 X-14.242 Y11.038 E0.05367
G1 X-14.393 Y9.788 E0.09702
G1 X-14.823 Y8.646 E0.09405
G1 X-15.513 Y7.639 E0.09405
G1 X-16.422 Y6.825 E0.09405
G1 X-17.499 Y6.251 E0.09405
G1 X-18.681 Y5.949 E0.09405
G1 X-19.858 Y5.937 E0.09070
G1 X-21.829 Y5.964 E0.15193
G1 X-23.726 Y5.619 E0.14857
G1 X-25.426 Y4.954 E0.14071
G1 X-27.120 Y2.019 E0.26114
G1 X-26.853 Y1.816 E0.02588
G1 X-26.236 Y2.443 E0.06786
G1 X-24.685 Y3.439 E0.14205
G1 X-22.957 Y4.068 E0.14170
G1 X-21.131 Y4.301 E0.14183
G1 X-19.299 Y4.126 E0.14183
G1 X-17.553 Y3.552 E0.14166
G1 X-16.553 Y2.969 E0.08918
G1 X-15.971 Y2.604 E0.05292
G1 X-15.126 Y1.819 E0.08892
G1 X-14.640 Y1.334 E0.05292
G1 X-13.987 Y0.382 E0.08892
G1 X-13.622 Y-0.199 E0.05292
G1 X-13.193 Y-1.270 E0.08892
G1 X-12.966 Y-1.918 E0.05292
G1 X-12.749 Y-3.350 E0.11160
G1 X-12.400 Y-3.350 E0.02691
G1 X-7.697 Y-8.280 E0.52506
G1 X-7.267 Y-8.229 F15000.000
G1 E-4.20000 F1500.00000
G1 Z1.300 F15000.000
G1 X-12.574 Y-6.996 F15000.000
G1 Z0.300 F15000.000
G1 E4.20000 F1500.00000
G1 X-12.907 Y-7.723 E0.06160 F720.000
G1 X-13.446 Y-8.778 E0.09131
G1 X-13.887 Y-9.362 E0.05640
G1 X-14.638 Y-10.279 E0.09131
G1 X-15.194 Y-10.754 E0.05640
G1 X-16.122 Y-11.491 E0.09131
G1 X-16.768 Y-11.835 E0.05640
G1 X-17.839 Y-12.363 E0.09201
G1 X-19.688 Y-12.844 E0.14724
G1 X-21.596 Y-12.920 E0.14716
G1 X-23.494 Y-12.586 E0.14852
G1 X-25.263 Y-11.860 E0.14739
G1 X-26.840 Y-10.771 E0.14770
G1 X-28.149 Y-9.370 E0.14770
G1 X-29.129 Y-7.725 E0.14758
G1 X-29.736 Y-5.905 E0.14789
G1 X-29.881 Y-4.560 E0.10422
G1 X-30.152 Y-4.503 E0.02132
G1 X-30.306 Y-4.769 E0.02371
G1 X-30.083 Y-6.258 E0.11597
G1 X-29.496 Y-7.926 E0.13633
G1 X-28.606 Y-9.455 E0.13633
G1 X-27.443 Y-10.789 E0.13633
G1 X-26.012 Y-11.910 E0.14013
G1 X-20.623 Y-15.364 E0.49328
G1 X-8.750 Y-15.364 E0.91505
G1 X-7.559 Y-17.097 E0.16202
G1 X-6.545 Y-18.174 E0.11397
G1 X-5.380 Y-19.085 E0.11397
G1 X-4.257 Y-19.714 E0.09922
G1 X4.260 Y-19.714 E0.65640
G1 X4.565 Y-19.546 E0.02679
G1 X5.379 Y-19.086 E0.07207 F720.000
G1 X6.545 Y-18.174 E0.11411
G1 X7.559 Y-17.097 E0.11397
G1 X8.750 Y-15.364 E0.16202
G1 X20.623 Y-15.364 E0.91505
G1 X26.012 Y-11.910 E0.49328
G1 X27.443 Y-10.789 E0.14013
G1 X28.606 Y-9.455 E0.13633
G1 X29.496 Y-7.926 E0.13633
G1 X30.083 Y-6.258 E0.13633
G1 X30.306 Y-4.769 E0.11597
G1 X30.147 Y-4.495 E0.02443
G1 X29.871 Y-4.560 E0.02189
G1 X29.818 Y-5.484 E0.07131
G1 X29.286 Y-7.360 E0.15024
G1 X28.361 Y-9.076 E0.15024
G1 X27.086 Y-10.551 E0.15023
G1 X25.522 Y-11.714 E0.15023
G1 X23.746 Y-12.509 E0.14993
G1 X21.826 Y-12.902 E0.15103
G1 X19.884 Y-12.871 E0.14970
G1 X17.994 Y-12.420 E0.14977
G1 X16.896 Y-11.901 E0.09356
G1 X16.233 Y-11.562 E0.05737
G1 X15.280 Y-10.825 E0.09287
G1 X14.708 Y-10.349 E0.05737
G1 X13.936 Y-9.423 E0.09287
G1 X13.481 Y-8.834 E0.05737
G1 X12.927 Y-7.764 E0.09287
G1 X12.571 Y-6.999 E0.06500
G1 X8.030 Y-11.761 E0.50710
G1 X7.641 Y-12.093 E0.03937
G1 X7.148 Y-12.366 E0.04343
G1 X6.611 Y-12.534 E0.04343
G1 X6.102 Y-12.586 E0.03937
G1 X-6.102 Y-12.586 E0.94057
G1 X-6.611 Y-12.534 E0.03937
G1 X-7.148 Y-12.366 E0.04343
G1 X-7.641 Y-12.093 E0.04343
G1 X-8.030 Y-11.761 E0.03937
G1 X-12.532 Y-7.040 E0.50275
G1 X-12.072 Y-6.601 F15000.000
G1 X-12.907 Y-5.727 E0.09315 F720.000
G1 X-13.202 Y-6.842 E0.08895
G1 X-13.479 Y-7.446 E0.05116
G1 X-13.987 Y-8.439 E0.08598
G1 X-14.387 Y-8.969 E0.05116
G1 X-15.094 Y-9.832 E0.08598
G1 X-15.599 Y-10.263 E0.05116
G1 X-16.472 Y-10.957 E0.08598
G1 X-17.058 Y-11.269 E0.05116
G1 X-18.062 Y-11.764 E0.08623
G1 X-19.782 Y-12.212 E0.13697
G1 X-21.557 Y-12.283 E0.13694
G1 X-23.314 Y-11.973 E0.13743
G1 X-24.958 Y-11.298 E0.13703
G1 X-26.423 Y-10.286 E0.13714
G1 X-27.638 Y-8.986 E0.13714
G1 X-28.548 Y-7.458 E0.13710
G1 X-29.112 Y-5.769 E0.13721
G1 X-29.302 Y-3.999 E0.13717
G1 X-29.098 Y-2.171 E0.14175
G1 X-29.035 Y-1.986 E0.01506
G1 X-29.350 Y-1.843 E0.02669
G1 X-30.967 Y-4.644 E0.24926
G1 X-30.702 Y-6.412 E0.13774
G1 X-30.076 Y-8.194 E0.14563
G1 X-29.124 Y-9.827 E0.14563
G1 X-27.883 Y-11.252 E0.14563
G1 X-26.380 Y-12.429 E0.14710
G1 X-20.810 Y-16.000 E0.50995
G1 X-9.084 Y-16.000 E0.90364
G1 X-8.055 Y-17.497 E0.14000
G1 X-6.975 Y-18.645 E0.12145
G1 X-5.733 Y-19.615 E0.12146
G1 X-4.423 Y-20.350 E0.11575
G1 X4.424 Y-20.350 E0.68183
G1 X4.875 Y-20.101 E0.03967
G1 X5.733 Y-19.616 E0.07596 F720.000
G1 X6.975 Y-18.645 E0.12151
G1 X8.055 Y-17.497 E0.12145
G1 X9.084 Y-16.000 E0.14000
G1 X20.810 Y-16.000 E0.90364
G1 X26.380 Y-12.429 E0.50995
G1 X27.883 Y-11.252 E0.14710
G1 X29.124 Y-9.827 E0.14563
G1 X30.076 Y-8.194 E0.14563
G1 X30.702 Y-6.412 E0.14563
G1 X30.967 Y-4.644 E0.13774
G1 X29.319 Y-1.788 E0.25413
G1 X29.019 Y-1.895 E0.02449
G1 X29.291 Y-3.571 E0.13087
G1 X29.187 Y-5.378 E0.13949
G1 X28.694 Y-7.120 E0.13949
G1 X27.835 Y-8.713 E0.13949
G1 X26.651 Y-10.082 E0.13949
G1 X25.199 Y-11.162 E0.13949
G1 X23.548 Y-11.901 E0.13938
G1 X21.771 Y-12.266 E0.13977
G1 X19.964 Y-12.237 E0.13930
G1 X18.206 Y-11.817 E0.13932
G1 X17.177 Y-11.331 E0.08770
G1 X16.576 Y-11.023 E0.05204
G1 X15.678 Y-10.329 E0.08745
G1 X15.159 Y-9.897 E0.05204
G1 X14.432 Y-9.026 E0.08745
G1 X14.020 Y-8.491 E0.05204
G1 X13.498 Y-7.483 E0.08745
G1 X13.213 Y-6.871 E0.05204
G1 X12.907 Y-5.726 E0.09133
G1 X7.592 Y-11.299 E0.59348
G1 X7.277 Y-11.568 E0.03192
G1 X6.897 Y-11.778 E0.03349
G1 X6.482 Y-11.908 E0.03349
G1 X6.070 Y-11.950 E0.03192
G1 X-6.070 Y-11.950 E0.93561
G1 X-6.482 Y-11.908 E0.03192
G1 X-6.897 Y-11.778 E0.03349
G1 X-7.277 Y-11.568 E0.03349
G1 X-7.592 Y-11.299 E0.03192
G1 X-12.031 Y-6.645 E0.49565
G1 X-12.461 Y-6.696 F15000.000
G1 E-4.20000 F1500.00000
G1 Z1.300 F15000.000
G1 X29.026 Y-1.521 F15000.000
G1 Z0.300 F15000.000
G1 E4.20000 F1500.00000
G1 X28.316 Y-0.067 E0.12469 F720.000
G1 X27.230 Y1.663 E0.15741
G1 E-4.20000 F1500.00000
G1 Z1.300 F15000.000
G1 X-27.199 Y1.639 F15000.000
G1 Z0.300 F15000.000
G1 E4.20000 F1500.00000
G1 X-27.585 Y1.123 E0.04966 F720.000
G1 X-28.491 Y-0.389 E0.13584
G1 X-29.047 Y-1.596 E0.10244
G1 X-29.503 Y-2.776 F15000.000
G1 X-29.975 Y-4.215 E0.11677 F960.000
G1 E-4.20000 F1500.00000
G1 Z1.300 F15000.000
G1 X-24.250 Y-12.640 F15000.000
G1 Z0.300 F15000.000
G1 E4.20000 F1500.00000
G1 X-23.600 Y-12.977 E0.05640 F960.000
G1 X-22.405 Y-13.449 E0.09901
G1 X-22.075 Y-13.236 E0.03024
G1 X-22.008 Y-13.215 E0.00539
G1 X-21.803 Y-13.228 E0.01582
G1 E-4.20000 F1500.00000
G1 Z1.300 F15000.000
G1 X-6.883 Y-8.152 F15000.000
G1 Z0.300 F15000.000
G1 E4.20000 F1500.00000
G1 X-6.616 Y-8.568 E0.08010 F960.000
G1 X-6.278 Y-8.979 E0.08615
G1 X-5.958 Y-9.286 E0.07179
G1 X-5.641 Y-9.372 E0.05330
G1 X-5.641 Y-9.372 F15000.000
G1 X-5.372 Y-9.437 E0.02128 F960.000
G1 X-4.888 Y-9.495 E0.03761
G1 X-4.403 Y-9.495 E0.03734
G1 X-3.904 Y-9.433 E0.03876
G1 X-3.745 Y-9.394 E0.01260
G1 X-3.491 Y-9.167 E0.02627
G1 X-3.275 Y-8.923 E0.02511
G1 X-1.675 Y-6.040 F15000.000
G1 X-1.979 Y-6.344 E0.03488 F960.000
G1 X-1.979 Y-7.291 E0.07687
G1 X-1.184 Y-6.496 E0.09128
G1 X-0.643 Y-6.902 E0.05491
G1 X-2.049 Y-8.308 E0.16147
G1 X-1.623 Y-8.829 E0.05462
G1 X-0.102 Y-7.308 E0.17466
G1 X0.439 Y-7.713 E0.05491
G1 X-0.676 Y-8.829 E0.12807
G1 X0.271 Y-8.829 E0.07687
G1 X0.980 Y-8.119 E0.08148
G1 X1.218 Y-8.829 E0.06075
G1 X1.507 Y-8.539 E0.03326
G1 X-1.760 Y-4.412 F15000.000
G1 X-1.803 Y-4.229 E0.01448 F960.000
G1 X-1.856 Y-4.160 E0.00671
G1 X-2.068 Y-4.000 E0.02043
