; generated by Slic3r 1.2.9 on 2018-03-26 at 12:18:16

; external perimeters extrusion width = 0.40mm
; perimeters extrusion width = 0.40mm
; infill extrusion width = 0.40mm
; solid infill extrusion width = 0.40mm
; top infill extrusion width = 0.40mm

M107
M83
T0
M116
G21 ; set units to millimeters
G90 ; use absolute coordinates
M83 ; use relative distances for extrusion
G1 E-3.50000 F1500.00000
G1 Z0.400 F15000.000
G1 X0.179 Y21.400 F15000.000
G1 Z0.300 F15000.000
G1 E3.50000 F1500.00000
G1 X-5.084 Y21.443 E0.40562 F960.000
G1 X-25.104 Y21.443 E1.54285
G1 X-26.752 Y21.049 E0.13052
G1 X-28.041 Y19.951 E0.13052
G1 X-28.740 Y17.808 E0.17373
G1 X-28.740 Y1.408 E1.26387
G1 X-27.903 Y-0.913 E0.19009
G1 X-11.973 Y-20.128 E1.92358
G1 X-10.618 Y-21.144 E0.13052
G1 X-9.174 Y-21.443 E0.11364
G1 X10.846 Y-21.443 E1.54285
G1 X12.493 Y-21.049 E0.13052
G1 X13.752 Y-19.993 E0.12664 F960.000
G1 X28.010 Y-1.029 E1.82846
G1 X28.740 Y1.156 E0.17752
G1 X28.740 Y17.556 E1.26387
G1 X28.346 Y19.203 E0.13052
G1 X27.248 Y20.493 E0.13052
G1 X25.135 Y21.191 E0.17150
G1 X0.239 Y21.399 E1.91870
G1 E-3.50000 F1500.00000
G1 Z0.700 F15000.000
G1 X0.239 Y-4.258 F15000.000
G1 Z0.300 F15000.000
G1 E3.50000 F1500.00000
G1 X-2.580 Y-4.258 E0.21721 F720.000
G1 X-3.830 Y-5.508 E0.13623
G1 X-7.314 Y-5.508 E0.26852
G1 X-7.314 Y-13.708 E0.63194
G1 X-3.830 Y-13.708 E0.26852
G1 X-2.580 Y-14.958 E0.13623
G1 X4.252 Y-14.958 E0.52646 F720.000
G1 X5.502 Y-13.708 E0.13623
G1 X8.986 Y-13.708 E0.26852
G1 X8.986 Y-5.508 E0.63194
G1 X5.502 Y-5.508 E0.26852
G1 X4.252 Y-4.258 E0.13623
G1 X0.299 Y-4.258 E0.30463
G1 X0.039 Y-3.911 F15000.000
G1 X-5.848 Y-2.393 F15000.000
G1 X-8.189 Y-2.393 E0.18037 F720.000
G1 X-8.189 Y-4.872 E0.19103
G1 X-4.093 Y-4.872 E0.31562
G1 X-2.843 Y-3.622 E0.13623
G1 X4.515 Y-3.622 E0.56704 F720.000
G1 X5.765 Y-4.872 E0.13623
G1 X9.860 Y-4.872 E0.31562
G1 X9.860 Y-2.393 E0.19103
G1 X-5.788 Y-2.393 E1.20595
G1 E-3.50000 F1500.00000
G1 Z0.700 F15000.000
G1 X1.148 Y-15.593 F15000.000
G1 Z0.300 F15000.000
G1 E3.50000 F1500.00000
G1 X-2.843 Y-15.593 E0.30761 F720.000
G1 X-4.093 Y-14.343 E0.13623
G1 X-8.189 Y-14.343 E0.31561
G1 X-8.189 Y-16.822 E0.19103
G1 X9.860 Y-16.822 E1.39094
G1 X9.860 Y-14.343 E0.19103
G1 X5.765 Y-14.343 E0.31562 F720.000
G1 X4.515 Y-15.593 E0.13623
G1 X1.208 Y-15.593 E0.25481
G1 X1.208 Y-17.458 F15000.000
G1 X10.496 Y-17.458 E0.71574 F720.000
G1 X10.496 Y-12.067 E0.41542
G1 X9.536 Y-11.513 E0.08543 F720.000
G1 X9.536 Y-7.703 E0.29366
G1 X10.496 Y-7.148 E0.08543
G1 X10.496 Y-1.758 E0.41542
G1 X-8.824 Y-1.758 E1.48891
G1 X-8.824 Y-7.148 E0.41542
G1 X-7.864 Y-7.703 E0.08543
G1 X-7.864 Y-11.513 E0.29366
G1 X-8.824 Y-12.067 E0.08543
G1 X-8.824 Y-17.458 E0.41542
G1 X1.148 Y-17.458 E0.76854
G1 X1.408 Y-17.111 F15000.000
G1 X4.350 Y-16.208 F15000.000
G1 X-2.678 Y-16.208 E1.13810 F960.000
G1 X-3.064 Y-16.127 F15000.000
G1 X-3.373 Y-16.437 E0.03647 F960.000
G1 X-3.419 Y-15.512 E0.07715
G1 X-4.345 Y-16.437 E0.10897
G1 X-5.316 Y-16.437 E0.08089
G1 X-3.905 Y-15.026 E0.16616
G1 X-4.579 Y-14.729 E0.06136
G1 X-6.287 Y-16.437 E0.20114
G1 X-7.259 Y-16.437 E0.08089
G1 X-5.551 Y-14.729 E0.20114
G1 X-6.522 Y-14.729 E0.08089
G1 X-7.803 Y-16.010 E0.15087
G1 X-7.803 Y-15.039 E0.08089
G1 X-7.493 Y-14.729 E0.03647
G1 X-8.069 Y-14.026 F15000.000
G1 X-8.069 Y-11.998 E0.32828 F960.000
G1 X-8.069 Y-7.217 F15000.000
G1 X-8.069 Y-5.190 E0.32828 F960.000
G1 X-7.493 Y-2.779 F15000.000
G1 X-7.803 Y-3.089 E0.03552 F960.000
G1 X-7.803 Y-4.034 E0.07671
G1 X-6.547 Y-2.779 E0.14400
G1 X-5.602 Y-2.779 E0.07671
G1 X-7.309 Y-4.487 E0.19588
G1 X-6.364 Y-4.487 E0.07671
G1 X-4.656 Y-2.779 E0.19588
G1 X-3.710 Y-2.779 E0.07671
G1 X-5.418 Y-4.487 E0.19588
G1 X-4.472 Y-4.487 E0.07671
G1 X-3.064 Y-3.079 E0.16150
G1 X-2.678 Y-3.008 F15000.000
G1 X4.350 Y-3.008 E1.13810 F960.000
G1 X4.735 Y-3.089 F15000.000
G1 X5.045 Y-2.779 E0.03647 F960.000
G1 X6.016 Y-2.779 E0.08089
G1 X5.091 Y-3.704 E0.10897
G1 X5.577 Y-4.190 E0.05720
G1 X6.988 Y-2.779 E0.16616
G1 X7.959 Y-2.779 E0.08089
G1 X6.251 Y-4.487 E0.20114
G1 X7.222 Y-4.487 E0.08089
G1 X8.930 Y-2.779 E0.20114
G1 X9.475 Y-3.206 E0.05762
G1 X8.194 Y-4.487 E0.15087
G1 X9.165 Y-4.487 E0.08089
G1 X9.475 Y-4.177 E0.03647
G1 X9.741 Y-5.190 F15000.000
G1 X9.741 Y-7.217 E0.32828 F960.000
G1 X9.741 Y-11.998 F15000.000
G1 X9.741 Y-14.026 E0.32828 F960.000
G1 X9.475 Y-16.127 F15000.000
G1 X9.165 Y-16.437 E0.03552 F960.000
G1 X8.219 Y-16.437 E0.07671
G1 X9.475 Y-15.181 E0.14400
G1 X8.981 Y-14.729 E0.05430
G1 X7.273 Y-16.437 E0.19588
G1 X6.327 Y-16.437 E0.07671
G1 X8.035 Y-14.729 E0.19588
G1 X7.089 Y-14.729 E0.07671
G1 X5.381 Y-16.437 E0.19588
G1 X4.735 Y-16.137 E0.05777
G1 X6.143 Y-14.729 E0.16150
G1 E-3.50000 F1500.00000
G1 Z0.700 F15000.000
G1 X11.679 Y4.006 F15000.000
G1 Z0.300 F15000.000
G1 E3.50000 F1500.00000
G1 X18.510 Y4.006 E0.52646 F720.000
G1 X19.760 Y5.256 E0.13623
G1 X23.244 Y5.256 E0.26852
G1 X23.244 Y13.456 E0.63194
G1 X19.760 Y13.456 E0.26852
G1 X18.510 Y14.706 E0.13623
G1 X11.679 Y14.706 E0.52646
G1 X10.429 Y13.456 E0.13623
G1 X6.944 Y13.456 E0.26852
G1 X6.944 Y5.256 E0.63194
G1 X10.429 Y5.256 E0.26852
G1 X11.636 Y4.048 E0.13161
G1 X11.782 Y3.619 F15000.000
G1 E-3.50000 F1500.00000
G1 Z0.700 F15000.000
G1 X10.165 Y14.091 F15000.000
G1 Z0.300 F15000.000
G1 E3.50000 F1500.00000
G1 X11.415 Y15.341 E0.13623 F720.000
G1 X18.773 Y15.341 E0.56704 F720.000
G1 X20.023 Y14.091 E0.13623
G1 X24.119 Y14.091 E0.31562
G1 X24.119 Y16.570 E0.19103
G1 X6.070 Y16.570 E1.39094
G1 X6.070 Y14.091 E0.19103
G1 X10.105 Y14.091 E0.31099
G1 E-3.50000 F1500.00000
G1 Z0.700 F15000.000
G1 X13.843 Y2.141 F15000.000
G1 Z0.300 F15000.000
G1 E3.50000 F1500.00000
G1 X24.119 Y2.141 E0.79190 F720.000
G1 X24.119 Y4.620 E0.19103
G1 X20.023 Y4.620 E0.31562 F720.000
G1 X18.773 Y3.370 E0.13623
G1 X11.415 Y3.370 E0.56704
G1 X10.165 Y4.620 E0.13623
G1 X6.070 Y4.620 E0.31561
G1 X6.070 Y2.141 E0.19103
G1 X13.783 Y2.141 E0.59441
G1 X13.783 Y1.506 F15000.000
G1 X24.754 Y1.506 E0.84551 F720.000
G1 X24.754 Y6.896 E0.41542
G1 X23.794 Y7.451 E0.08543 F720.000
G1 X23.794 Y11.261 E0.29366
G1 X24.754 Y11.815 E0.08543
G1 X24.754 Y17.206 E0.41542
G1 X5.434 Y17.206 E1.48891
G1 X5.434 Y11.815 E0.41542
G1 X6.394 Y11.261 E0.08543
G1 X6.394 Y7.451 E0.29366
G1 X5.434 Y6.896 E0.08543
G1 X5.434 Y1.506 E0.41542
G1 X13.723 Y1.506 E0.63878
G1 X13.983 Y1.852 F15000.000
G1 X11.580 Y2.756 F15000.000
G1 X18.608 Y2.756 E1.13810 F960.000
G1 X20.402 Y4.235 F15000.000
G1 X18.994 Y2.827 E0.16150 F960.000
G1 X19.640 Y2.527 E0.05777
G1 X21.348 Y4.235 E0.19588
G1 X22.294 Y4.235 E0.07671
G1 X20.586 Y2.527 E0.19588
G1 X21.532 Y2.527 E0.07671
G1 X23.240 Y4.235 E0.19588
G1 X23.733 Y3.782 E0.05430
G1 X22.478 Y2.527 E0.14400
G1 X23.424 Y2.527 E0.07671
G1 X23.733 Y2.837 E0.03552
G1 X23.999 Y4.938 F15000.000
G1 X23.999 Y6.965 E0.32828 F960.000
G1 X23.999 Y11.746 F15000.000
G1 X23.999 Y13.774 E0.32828 F960.000
G1 X23.733 Y14.787 F15000.000
G1 X23.424 Y14.477 E0.03647 F960.000
G1 X22.452 Y14.477 E0.08089
G1 X23.733 Y15.758 E0.15087
G1 X23.189 Y16.185 E0.05762
G1 X21.481 Y14.477 E0.20114
G1 X20.510 Y14.477 E0.08089
G1 X22.218 Y16.185 E0.20114
G1 X21.246 Y16.185 E0.08089
G1 X19.835 Y14.774 E0.16616
G1 X19.350 Y15.260 E0.05720
G1 X20.275 Y16.185 E0.10897
G1 X19.304 Y16.185 E0.08089
G1 X18.994 Y15.875 E0.03647
G1 X18.608 Y15.956 F15000.000
G1 X11.580 Y15.956 E1.13810 F960.000
G1 X11.195 Y15.885 F15000.000
G1 X9.787 Y14.477 E0.16150 F960.000
G1 X8.841 Y14.477 E0.07671
G1 X10.549 Y16.185 E0.19588
G1 X9.603 Y16.185 E0.07671
G1 X7.895 Y14.477 E0.19588
G1 X6.949 Y14.477 E0.07671
G1 X8.657 Y16.185 E0.19588
G1 X7.711 Y16.185 E0.07671
G1 X6.455 Y14.929 E0.14400
G1 X6.455 Y15.875 E0.07671
G1 X6.765 Y16.185 E0.03552
G1 X6.189 Y13.774 F15000.000
G1 X6.189 Y11.746 E0.32828 F960.000
G1 X6.189 Y6.965 F15000.000
G1 X6.189 Y4.938 E0.32828 F960.000
G1 X6.765 Y4.235 F15000.000
G1 X6.455 Y3.925 E0.03647 F960.000
G1 X6.455 Y2.954 E0.08089
G1 X7.736 Y4.235 E0.15087
G1 X8.708 Y4.235 E0.08089
G1 X7.000 Y2.527 E0.20114
G1 X7.971 Y2.527 E0.08089
G1 X9.679 Y4.235 E0.20114
G1 X10.354 Y3.938 E0.06136
G1 X8.943 Y2.527 E0.16616
G1 X9.914 Y2.527 E0.08089
G1 X10.839 Y3.452 E0.10897
G1 X10.885 Y2.527 E0.07715
G1 X11.195 Y2.837 E0.03647
G1 E-3.50000 F1500.00000
G1 Z0.700 F15000.000
G1 X-6.944 Y5.508 F15000.000
G1 Z0.300 F15000.000
G1 E3.50000 F1500.00000
G1 X-6.944 Y13.708 E0.63194 F720.000
G1 X-10.429 Y13.708 E0.26852
G1 X-11.679 Y14.958 E0.13623
G1 X-18.510 Y14.958 E0.52646
G1 X-19.760 Y13.708 E0.13623
G1 X-23.244 Y13.708 E0.26852
G1 X-23.244 Y5.508 E0.63194
G1 X-19.760 Y5.508 E0.26852
G1 X-18.510 Y4.258 E0.13623
G1 X-11.679 Y4.258 E0.52646 F720.000
G1 X-10.429 Y5.508 E0.13623
G1 X-7.004 Y5.508 E0.26390
G1 X-6.544 Y5.508 F15000.000
G1 X-7.272 Y16.822 F15000.000
G1 X-24.119 Y16.822 E1.29830 F720.000
G1 X-24.119 Y14.343 E0.19103
G1 X-20.023 Y14.343 E0.31562
G1 X-18.773 Y15.593 E0.13623
G1 X-11.415 Y15.593 E0.56704 F720.000
G1 X-10.165 Y14.343 E0.13623
G1 X-6.070 Y14.343 E0.31562
G1 X-6.070 Y16.822 E0.19103
G1 X-7.212 Y16.822 E0.08802
G1 E-3.50000 F1500.00000
G1 Z0.700 F15000.000
G1 X-7.929 Y4.872 F15000.000
G1 Z0.300 F15000.000
G1 E3.50000 F1500.00000
G1 X-10.165 Y4.872 E0.17238 F720.000
G1 X-11.415 Y3.622 E0.13623
G1 X-18.773 Y3.622 E0.56704
G1 X-20.023 Y4.872 E0.13623
G1 X-24.119 Y4.872 E0.31561
G1 X-24.119 Y2.393 E0.19103
G1 X-6.070 Y2.393 E1.39094
G1 X-6.070 Y4.872 E0.19103
G1 X-7.869 Y4.872 E0.13861 F720.000
G1 X-5.434 Y4.872 F15000.000
G1 X-5.434 Y7.148 E0.17541 F720.000
G1 X-6.394 Y7.703 E0.08543 F720.000
G1 X-6.394 Y11.513 E0.29366
G1 X-5.434 Y12.067 E0.08543
G1 X-5.434 Y17.458 E0.41542
G1 X-24.754 Y17.458 E1.48891
G1 X-24.754 Y12.067 E0.41542
G1 X-23.794 Y11.513 E0.08543
G1 X-23.794 Y7.703 E0.29366
G1 X-24.754 Y7.148 E0.08543
G1 X-24.754 Y1.758 E0.41542
G1 X-5.434 Y1.758 E1.48891
G1 X-5.434 Y4.812 E0.23539
G1 X-5.781 Y5.072 F15000.000
G1 X-6.189 Y5.190 F15000.000
G1 X-6.189 Y7.217 E0.32828 F960.000
G1 X-6.455 Y3.089 F15000.000
G1 X-6.765 Y2.779 E0.03552 F960.000
G1 X-7.711 Y2.779 E0.07671
G1 X-6.455 Y4.034 E0.14400
G1 X-6.949 Y4.487 E0.05430
G1 X-8.657 Y2.779 E0.19588
G1 X-9.603 Y2.779 E0.07671
G1 X-7.895 Y4.487 E0.19588
G1 X-8.841 Y4.487 E0.07671
G1 X-10.549 Y2.779 E0.19588
G1 X-11.195 Y3.079 E0.05777
G1 X-9.787 Y4.487 E0.16150
G1 X-11.580 Y3.008 F15000.000
G1 X-18.608 Y3.008 E1.13810 F960.000
G1 X-18.994 Y3.089 F15000.000
G1 X-19.304 Y2.779 E0.03647 F960.000
G1 X-19.350 Y3.704 E0.07715
G1 X-20.275 Y2.779 E0.10897
G1 X-21.246 Y2.779 E0.08089
G1 X-19.835 Y4.190 E0.16616
G1 X-20.510 Y4.487 E0.06136
G1 X-22.218 Y2.779 E0.20114
G1 X-23.189 Y2.779 E0.08089
G1 X-21.481 Y4.487 E0.20114
G1 X-22.452 Y4.487 E0.08089
G1 X-23.733 Y3.206 E0.15087
G1 X-23.733 Y4.177 E0.08089
G1 X-23.424 Y4.487 E0.03647
G1 X-23.999 Y5.190 F15000.000
G1 X-23.999 Y7.217 E0.32828 F960.000
G1 X-23.999 Y11.998 F15000.000
G1 X-23.999 Y14.026 E0.32828 F960.000
G1 X-23.424 Y16.437 F15000.000
G1 X-23.733 Y16.127 E0.03552 F960.000
G1 X-23.733 Y15.181 E0.07671
G1 X-22.478 Y16.437 E0.14400
G1 X-21.532 Y16.437 E0.07671
G1 X-23.240 Y14.729 E0.19588
G1 X-22.294 Y14.729 E0.07671
G1 X-20.586 Y16.437 E0.19588
G1 X-19.640 Y16.437 E0.07671
G1 X-21.348 Y14.729 E0.19588
G1 X-20.402 Y14.729 E0.07671
G1 X-18.994 Y16.137 E0.16150
G1 X-18.608 Y16.208 F15000.000
G1 X-11.580 Y16.208 E1.13810 F960.000
G1 X-11.195 Y16.127 F15000.000
G1 X-10.885 Y16.437 E0.03647 F960.000
G1 X-9.914 Y16.437 E0.08089
G1 X-10.839 Y15.512 E0.10897
G1 X-10.354 Y15.026 E0.05720
G1 X-8.943 Y16.437 E0.16616
G1 X-7.971 Y16.437 E0.08089
G1 X-9.679 Y14.729 E0.20114
G1 X-8.708 Y14.729 E0.08089
G1 X-7.000 Y16.437 E0.20114
G1 X-6.455 Y16.010 E0.05762
G1 X-7.736 Y14.729 E0.15087
G1 X-6.765 Y14.729 E0.08089
G1 X-6.455 Y15.039 E0.03647
G1 X-6.189 Y14.026 F15000.000
G1 X-6.189 Y11.998 E0.32828 F960.000
G1 E-3.50000 F1500.00000
G1 Z0.700 F15000.000
G1 X-2.916 Y-4.301 F15000.000
G1 Z0.500 F15000.000
G1 E3.50000 F1500.00000
G1 X-3.916 Y-5.301 E0.04082 F3068.410
G1 X-7.271 Y-5.301 E0.09685
G1 X-7.271 Y-13.915 E0.24863
G1 X-3.916 Y-13.915 E0.09685
G1 X-2.916 Y-14.915 E0.04082
G1 X4.587 Y-14.915 E0.21655 F3068.410
G1 X5.587 Y-13.915 E0.04082
G1 X8.943 Y-13.915 E0.09685
G1 X8.943 Y-5.301 E0.24863
G1 X5.587 Y-5.301 E0.09685
G1 X4.587 Y-4.301 E0.04082
G1 X-2.856 Y-4.301 E0.21482
G1 X-2.768 Y-4.658 F15000.000
G1 X-3.768 Y-5.658 E0.04082 F3068.410
G1 X-6.914 Y-5.658 E0.09081
G1 X-6.914 Y-13.558 E0.22802
G1 X-3.768 Y-13.558 E0.09081
G1 X-2.768 Y-14.558 E0.04082
G1 X4.439 Y-14.558 E0.20802 F3068.410
G1 X5.439 Y-13.558 E0.04082
G1 X8.586 Y-13.558 E0.09081
G1 X8.586 Y-5.658 E0.22802
G1 X5.439 Y-5.658 E0.09081
G1 X4.439 Y-4.658 E0.04082
G1 X-2.708 Y-4.658 E0.20628
G1 X-3.114 Y-4.458 F15000.000
G1 X-5.716 Y-1.715 F15000.000
G1 X-8.717 Y-1.715 E0.08661 F3068.410
G1 X-8.717 Y-6.971 E0.15171
G1 X-7.657 Y-7.583 E0.03533
G1 X-7.657 Y-11.633 E0.11688
G1 X-8.717 Y-12.245 E0.03533
G1 X-8.717 Y-17.501 E0.15171
G1 X10.389 Y-17.501 E0.55145
G1 X10.389 Y-12.245 E0.15171
G1 X9.329 Y-11.633 E0.03533 F3068.410
G1 X9.329 Y-7.583 E0.11688
G1 X10.389 Y-6.971 E0.03533
G1 X10.389 Y-1.715 E0.15171
G1 X-5.656 Y-1.715 E0.46311
G1 X-5.656 Y-1.358 F15000.000
G1 X-9.074 Y-1.358 E0.09864 F3068.410
G1 X-9.074 Y-7.177 E0.16796
G1 X-8.014 Y-7.789 E0.03533
G1 X-8.014 Y-11.426 E0.10498
G1 X-9.074 Y-12.038 E0.03533
G1 X-9.074 Y-17.858 E0.16796
G1 X10.746 Y-17.858 E0.57206
G1 X10.746 Y-12.038 E0.16796
G1 X9.686 Y-11.426 E0.03533 F3068.410
G1 X9.686 Y-7.789 E0.10498
G1 X10.746 Y-7.177 E0.03533
G1 X10.746 Y-1.358 E0.16796
G1 X-5.596 Y-1.358 E0.47168
G1 X-5.856 Y-1.704 F15000.000
G1 E-3.50000 F1500.00000
G1 Z0.900 F15000.000
G1 X-7.080 Y-5.093 F15000.000
G1 Z0.500 F15000.000
G1 E3.50000 F1500.00000
G1 X-8.509 Y-3.664 E0.05844 F4091.213
G1 X-8.509 Y-3.158 E0.01463
G1 X-6.574 Y-5.093 E0.07914
G1 X-6.068 Y-5.093 E0.01463
G1 X-8.509 Y-2.652 E0.09984
G1 X-8.509 Y-2.146 E0.01463
G1 X-5.562 Y-5.093 E0.12053
G1 X-5.056 Y-5.093 E0.01463
G1 X-8.227 Y-1.923 E0.12967
G1 X-7.721 Y-1.923 E0.01463
G1 X-4.550 Y-5.093 E0.12967
G1 X-4.044 Y-5.093 E0.01463
G1 X-7.215 Y-1.923 E0.12967
G1 X-6.709 Y-1.923 E0.01463
G1 X-3.748 Y-4.884 E0.12110
G1 X-3.495 Y-4.631 E0.01035
G1 X-6.203 Y-1.923 E0.11075
G1 X-5.697 Y-1.923 E0.01463
G1 X-3.242 Y-4.378 E0.10040
G1 X-2.989 Y-4.125 E0.01035
G1 X-5.191 Y-1.923 E0.09006
G1 X-4.685 Y-1.923 E0.01463
G1 X-2.514 Y-4.093 E0.08877
G1 X-2.008 Y-4.093 E0.01463
G1 X-4.179 Y-1.923 E0.08877
G1 X-3.673 Y-1.923 E0.01463
G1 X-1.502 Y-4.093 E0.08877
G1 X-0.996 Y-4.093 E0.01463
G1 X-3.167 Y-1.923 E0.08877
G1 X-2.661 Y-1.923 E0.01463
G1 X-0.490 Y-4.093 E0.08877
G1 X0.016 Y-4.093 E0.01463
G1 X-2.155 Y-1.923 E0.08877
G1 X-1.649 Y-1.923 E0.01463
G1 X0.522 Y-4.093 E0.08877
G1 X1.028 Y-4.093 E0.01463
G1 X-1.143 Y-1.923 E0.08877
G1 X-0.637 Y-1.923 E0.01463
G1 X1.534 Y-4.093 E0.08877
G1 X2.040 Y-4.093 E0.01463
G1 X-0.131 Y-1.923 E0.08877
G1 X0.375 Y-1.923 E0.01463
G1 X2.546 Y-4.093 E0.08877
G1 X3.052 Y-4.093 E0.01463
G1 X0.881 Y-1.923 E0.08877
G1 X1.387 Y-1.923 E0.01463
G1 X3.558 Y-4.093 E0.08877
G1 X4.064 Y-4.093 E0.01463
G1 X1.893 Y-1.923 E0.08877
G1 X2.399 Y-1.923 E0.01463
G1 X4.570 Y-4.093 E0.08877
G1 X6.076 Y-5.093 F15000.000
G1 X2.905 Y-1.923 E0.12967 F4091.213
G1 X3.411 Y-1.923 E0.01463
G1 X6.582 Y-5.093 E0.12967
G1 X7.088 Y-5.093 E0.01463
G1 X3.917 Y-1.923 E0.12967
G1 X4.423 Y-1.923 E0.01463
G1 X7.594 Y-5.093 E0.12967
G1 X8.100 Y-5.093 E0.01463
G1 X4.929 Y-1.923 E0.12967
G1 X5.435 Y-1.923 E0.01463
G1 X8.606 Y-5.093 E0.12967
G1 X9.355 Y-7.360 F15000.000
G1 X9.151 Y-7.156 E0.00835 F4091.213
G1 X9.151 Y-6.650 E0.01463
G1 X9.676 Y-7.175 E0.02147
G1 X9.996 Y-6.990 E0.01071
G1 X9.151 Y-6.144 E0.03459
G1 X9.151 Y-5.638 E0.01463
G1 X10.181 Y-6.668 E0.04214
G1 X10.181 Y-6.162 E0.01463
G1 X5.942 Y-1.923 E0.17340
G1 X6.448 Y-1.923 E0.01463
G1 X10.181 Y-5.656 E0.15270
G1 X10.181 Y-5.150 E0.01463
G1 X6.954 Y-1.923 E0.13201
G1 X7.460 Y-1.923 E0.01463
G1 X10.181 Y-4.644 E0.11131
G1 X10.181 Y-4.138 E0.01463
G1 X7.966 Y-1.923 E0.09062
G1 X8.472 Y-1.923 E0.01463
G1 X10.181 Y-3.632 E0.06992
G1 X10.181 Y-3.126 E0.01463
G1 X8.978 Y-1.923 E0.04922
G1 X9.484 Y-1.923 E0.01463
