; generated by Slic3r 1.2.9 on 2018-03-27 at 18:10:40

; external perimeters extrusion width = 0.40mm
; perimeters extrusion width = 0.40mm
; infill extrusion width = 0.40mm
; solid infill extrusion width = 0.40mm
; top infill extrusion width = 0.40mm

M107
M83
T0
M116
G21 ; set units to millimeters
G90 ; use absolute coordinates
M83 ; use relative distances for extrusion
G1 E-3.50000 F1500.00000
G1 Z0.400 F15000.000
G1 X-0.001 Y21.192 F15000.000
G1 Z0.300 F15000.000
G1 E3.50000 F1500.00000
G1 X-24.524 Y21.191 E1.88989 F960.000
G1 X-26.171 Y20.797 E0.13052
G1 X-27.237 Y19.976 E0.10371
G1 X-27.299 Y19.906 E0.00719
G1 X-28.101 Y18.414 E0.13052
G1 X-28.221 Y17.520 E0.06950
G1 X-28.444 Y-6.088 E1.81943
G1 X-28.447 Y-13.860 E0.59901
G1 X-28.421 Y-14.439 E0.04464
G1 X-28.371 Y-14.880 E0.03422
G1 X-28.282 Y-15.389 E0.03978
G1 X-28.178 Y-15.820 E0.03421
G1 X-28.065 Y-16.190 E0.02985
G1 X-27.909 Y-16.606 E0.03421
G1 X-27.699 Y-17.078 E0.03978
G1 X-27.461 Y-17.526 E0.03909
G1 X-27.188 Y-17.963 E0.03978
G1 X-26.889 Y-18.374 E0.03909
G1 X-26.558 Y-18.769 E0.03978
G1 X-26.205 Y-19.134 E0.03909
G1 X-25.822 Y-19.479 E0.03978
G1 X-25.422 Y-19.792 E0.03909
G1 X-24.994 Y-20.080 E0.03978
G1 X-24.555 Y-20.334 E0.03909
G1 X-24.091 Y-20.560 E0.03978
G1 X-23.621 Y-20.750 E0.03909
G1 X-23.130 Y-20.910 E0.03978
G1 X-22.637 Y-21.033 E0.03909
G1 X-22.129 Y-21.122 E0.03978
G1 X-21.688 Y-21.172 E0.03422
G1 X-21.110 Y-21.198 E0.04454
G1 X20.967 Y-21.196 E3.24270
G1 X21.883 Y-21.124 E0.07082 F960.000
G1 X22.411 Y-21.033 E0.04130
G1 X22.912 Y-20.909 E0.03978
G1 X23.394 Y-20.752 E0.03909
G1 X23.873 Y-20.558 E0.03978
G1 X24.446 Y-20.276 E0.04921
G1 X25.044 Y-19.904 E0.05428
G1 X25.432 Y-19.614 E0.03740
G1 X25.883 Y-19.227 E0.04575
G1 X26.281 Y-18.828 E0.04345
G1 X26.649 Y-18.396 E0.04373
G1 X26.965 Y-17.963 E0.04130
G1 X27.239 Y-17.526 E0.03978
G1 X27.451 Y-17.136 E0.03421
G1 X27.736 Y-16.492 E0.05428
G1 X27.920 Y-15.946 E0.04433
G1 X28.088 Y-15.263 E0.05428
G1 X28.180 Y-14.630 E0.04923
G1 X28.224 Y-13.909 E0.05567
G1 X28.379 Y-2.123 E0.90837
G1 X28.447 Y9.726 E0.91317
G1 X28.447 Y17.462 E0.59618
G1 X28.254 Y18.630 E0.09125
G1 X26.896 Y20.486 E0.17723
G1 X26.843 Y20.523 E0.00499
G1 X24.739 Y21.194 E0.17018
G1 X0.059 Y21.192 E1.90199
G1 E-3.50000 F1500.00000
G1 Z0.700 F15000.000
G1 X-19.849 Y-11.848 F15000.000
G1 Z0.300 F15000.000
G1 E3.50000 F1500.00000
G1 X-20.223 Y-11.658 E0.03233 F600.000
G1 X-20.670 Y-11.527 E0.03593
G1 X-21.114 Y-11.485 E0.03435
G1 X-21.661 Y-11.546 E0.04239
G1 X-22.008 Y-11.662 E0.02821
G1 X-22.439 Y-11.891 E0.03765
G1 X-22.800 Y-12.191 E0.03617
G1 X-23.083 Y-12.535 E0.03426
G1 X-23.313 Y-12.969 E0.03791
G1 X-23.436 Y-13.371 E0.03240
G1 X-23.488 Y-13.862 E0.03806
G1 X-23.436 Y-14.353 E0.03806
G1 X-23.313 Y-14.755 E0.03240
G1 X-23.083 Y-15.189 E0.03782
G1 X-22.819 Y-15.515 E0.03240
G1 X-22.443 Y-15.831 E0.03782
G1 X-22.075 Y-16.034 E0.03240
G1 X-21.606 Y-16.187 E0.03799
G1 X-21.140 Y-16.238 E0.03617 F600.000
G1 X-20.696 Y-16.202 E0.03426
G1 X-20.224 Y-16.067 E0.03791
G1 X-19.849 Y-15.876 E0.03240
G1 X-19.461 Y-15.572 E0.03799
G1 X-19.157 Y-15.214 E0.03617
G1 X-18.939 Y-14.827 E0.03426
G1 X-18.786 Y-14.356 E0.03815
G1 X-18.734 Y-13.862 E0.03829
G1 X-18.786 Y-13.369 E0.03823
G1 X-18.929 Y-12.922 E0.03617
G1 X-19.142 Y-12.531 E0.03426
G1 X-19.460 Y-12.152 E0.03815
G1 X-19.802 Y-11.885 E0.03343
G1 X-19.844 Y-11.448 F15000.000
G1 X-23.824 Y-10.127 F15000.000
G1 X-23.825 Y-12.437 E0.17806 F600.000
G1 X-23.253 Y-11.741 E0.06944
G1 X-22.795 Y-11.360 E0.04587 F600.000
G1 X-22.259 Y-11.075 E0.04678
G1 X-21.798 Y-10.922 E0.03749
G1 X-21.119 Y-10.846 E0.05260
G1 X-20.550 Y-10.900 E0.04406
G1 X-20.049 Y-11.046 E0.04025
G1 X-19.915 Y-10.739 E0.02586
G1 X-21.108 Y-9.991 E0.10852
G1 X-21.979 Y-9.402 E0.08107
G1 X-22.834 Y-8.789 E0.08107
G1 X-23.823 Y-8.038 E0.09569
G1 X-23.824 Y-10.067 E0.15634
G1 E-3.50000 F1500.00000
G1 Z0.700 F15000.000
G1 X19.379 Y-16.575 F15000.000
G1 Z0.300 F15000.000
G1 E3.50000 F1500.00000
G1 X19.433 Y-16.575 E0.00418 F720.000
G1 X18.718 Y-15.954 E0.07297 F720.000
G1 X18.369 Y-15.516 E0.04316
G1 X18.092 Y-14.989 E0.04587
G1 X17.921 Y-14.394 E0.04773
G1 X17.874 Y-13.859 E0.04141
G1 X17.927 Y-13.301 E0.04316
G1 X18.094 Y-12.730 E0.04587
G1 X18.386 Y-12.180 E0.04798
G1 X18.747 Y-11.741 E0.04382
G1 X18.936 Y-11.584 E0.01896
G1 X18.738 Y-11.297 E0.02685
G1 X17.243 Y-12.104 E0.13097
G1 X16.175 Y-12.615 E0.09129
G1 X16.175 Y-14.148 E0.11810
G1 X-16.397 Y-14.148 E2.51012
G1 X-16.397 Y-12.615 E0.11809
G1 X-17.465 Y-12.104 E0.09130
G1 X-18.920 Y-11.319 E0.12740
G1 X-19.123 Y-11.564 E0.02452
G1 X-18.614 Y-12.171 E0.06107
G1 X-18.342 Y-12.670 E0.04382
G1 X-18.161 Y-13.238 E0.04587
G1 X-18.095 Y-13.862 E0.04840
G1 X-18.161 Y-14.489 E0.04859
G1 X-18.354 Y-15.084 E0.04817
G1 X-18.633 Y-15.579 E0.04382
G1 X-19.018 Y-16.033 E0.04587
G1 X-19.384 Y-16.319 E0.03580
G1 X-19.295 Y-16.576 E0.02096
G1 X19.319 Y-16.575 E2.97580
G1 X19.704 Y-15.908 F15000.000
G1 X19.922 Y-16.034 E0.01942 F600.000
G1 X20.394 Y-16.187 E0.03823
G1 X20.860 Y-16.238 E0.03617 F600.000
G1 X21.290 Y-16.203 E0.03321
G1 X21.521 Y-16.156 E0.01819
G1 X21.788 Y-16.061 E0.02185
G1 X22.194 Y-15.848 E0.03531
G1 X22.541 Y-15.570 E0.03426
G1 X22.858 Y-15.194 E0.03791
G1 X23.061 Y-14.826 E0.03240
G1 X23.214 Y-14.356 E0.03806
G1 X23.266 Y-13.862 E0.03829
G1 X23.214 Y-13.368 E0.03830
G1 X23.060 Y-12.895 E0.03829
G1 X22.813 Y-12.468 E0.03806
G1 X22.538 Y-12.150 E0.03240
G1 X22.151 Y-11.848 E0.03782
G1 X21.777 Y-11.658 E0.03233
G1 X21.330 Y-11.527 E0.03593
G1 X20.896 Y-11.486 E0.03355
G1 X20.639 Y-11.500 E0.01983
G1 X20.326 Y-11.552 E0.02445
G1 X19.993 Y-11.661 E0.02707
G1 X19.561 Y-11.891 E0.03770
G1 X19.200 Y-12.191 E0.03617
G1 X18.917 Y-12.535 E0.03426
G1 X18.686 Y-12.971 E0.03808
G1 X18.554 Y-13.421 E0.03617
G1 X18.513 Y-13.861 E0.03403
G1 X18.549 Y-14.278 E0.03225
G1 X18.685 Y-14.752 E0.03799
G1 X18.903 Y-15.167 E0.03617
G1 X19.179 Y-15.512 E0.03403
G1 X19.494 Y-15.787 E0.03225
G1 X19.652 Y-15.878 E0.01402
G1 X19.704 Y-16.159 F15000.000
G1 E-3.50000 F1500.00000
G1 Z0.700 F15000.000
G1 X21.165 Y-10.873 F15000.000
G1 Z0.300 F15000.000
G1 E3.50000 F1500.00000
G1 X21.450 Y-10.900 E0.02207 F600.000
G1 X22.013 Y-11.064 E0.04520
G1 X22.494 Y-11.310 E0.04164
G1 X22.977 Y-11.687 E0.04725
G1 X23.603 Y-12.407 E0.07355
G1 X23.603 Y-8.036 E0.33685
G1 X22.612 Y-8.789 E0.09590 F600.000
G1 X21.757 Y-9.402 E0.08107
G1 X20.886 Y-9.991 E0.08107
G1 X19.711 Y-10.728 E0.10689
G1 X19.853 Y-11.038 E0.02630
G1 X20.174 Y-10.933 E0.02608
G1 X20.570 Y-10.867 E0.03096
G1 X20.909 Y-10.849 E0.02616
G1 X21.105 Y-10.867 E0.01513
G1 X20.303 Y-9.608 F15000.000
G1 X18.791 Y-10.538 E0.13679 F720.000
G1 X17.875 Y-11.053 E0.08100
G1 X16.958 Y-11.536 E0.07987
G1 X15.539 Y-12.215 E0.12122
G1 X15.539 Y-13.512 E0.09997
G1 X-15.761 Y-13.512 E2.41215
G1 X-15.761 Y-12.215 E0.09996
G1 X-17.180 Y-11.536 E0.12122
G1 X-18.097 Y-11.053 E0.07986
G1 X-18.999 Y-10.546 E0.07972
G1 X-19.886 Y-10.015 E0.07972
G1 X-20.759 Y-9.459 E0.07972
G1 X-21.616 Y-8.880 E0.07972
G1 X-22.457 Y-8.277 E0.07972
G1 X-23.281 Y-7.652 E0.07972
G1 X-24.458 Y-6.689 E0.11723
G1 X-24.461 Y-13.853 E0.55207
G1 X-24.442 Y-14.209 E0.02752
G1 X-24.360 Y-14.675 E0.03648
G1 X-24.259 Y-15.005 E0.02655
G1 X-24.068 Y-15.434 E0.03624
G1 X-23.821 Y-15.831 E0.03601
G1 X-23.520 Y-16.189 E0.03601
G1 X-23.173 Y-16.501 E0.03601
G1 X-22.786 Y-16.763 E0.03601
G1 X-22.366 Y-16.967 E0.03601
G1 X-21.921 Y-17.112 E0.03601
G1 X-21.458 Y-17.193 E0.03624
G1 X-21.101 Y-17.212 E0.02752
G1 X20.950 Y-17.211 E3.24069
G1 X21.472 Y-17.160 E0.04044 F720.000
G1 X21.924 Y-17.047 E0.03590
G1 X22.363 Y-16.870 E0.03648
G1 X22.853 Y-16.575 E0.04414
G1 X23.265 Y-16.221 E0.04184
G1 X23.599 Y-15.829 E0.03964
G1 X23.848 Y-15.432 E0.03614
G1 X24.074 Y-14.900 E0.04453
G1 X24.205 Y-14.334 E0.04476
G1 X24.239 Y-13.849 E0.03746
G1 X24.239 Y-6.686 E0.55202
G1 X23.059 Y-7.652 E0.11751
G1 X22.235 Y-8.277 E0.07972
G1 X21.394 Y-8.880 E0.07972
G1 X20.354 Y-9.576 E0.09645
G1 X20.319 Y-10.008 F15000.000
G1 X21.191 Y-10.480 F15000.000
G1 X21.535 Y-10.136 E0.05134 F960.000
G1 X23.218 Y-9.684 F15000.000
G1 X22.148 Y-10.753 E0.15954 F960.000
G1 X22.914 Y-11.218 E0.09446
G1 X23.218 Y-10.914 E0.04533
G1 X23.188 Y-12.444 F15000.000
G1 X23.405 Y-12.748 E0.02881 F960.000
G1 X23.726 Y-13.330 E0.05123
G1 X23.751 Y-13.879 E0.04236
G1 X23.692 Y-14.450 E0.04423
G1 X23.512 Y-15.005 E0.04490
G1 X23.247 Y-15.481 E0.04199
G1 X22.891 Y-15.905 E0.04270
G1 X22.472 Y-16.245 E0.04156
G1 X21.971 Y-16.508 E0.04360
G1 X21.662 Y-16.617 E0.02531
G1 X21.389 Y-16.679 E0.02155
G1 X20.926 Y-16.723 E0.03584
G1 X20.356 Y-16.698 E0.04400
G1 X19.775 Y-16.378 E0.05108
G1 X19.470 Y-16.162 E0.02881
G1 X18.240 Y-15.886 F15000.000
G1 X17.936 Y-16.190 E0.03378 F960.000
G1 X17.885 Y-15.324 E0.06817
G1 X17.020 Y-16.190 E0.09624
G1 X16.103 Y-16.190 E0.07206
G1 X17.630 Y-14.662 E0.16978
G1 X17.500 Y-13.876 E0.06267
G1 X15.186 Y-16.190 E0.25722
G1 X14.269 Y-16.190 E0.07206
G1 X15.926 Y-14.533 E0.18416
G1 X16.560 Y-13.899 F15000.000
G1 X17.613 Y-12.846 E0.11707 F960.000
G1 X15.009 Y-14.533 F15000.000
G1 X13.352 Y-16.190 E0.18416 F960.000
G1 X12.436 Y-16.190 E0.07206
G1 X14.093 Y-14.533 E0.18416
G1 X13.176 Y-14.533 E0.07206
G1 X11.519 Y-16.190 E0.18417
G1 X10.602 Y-16.190 E0.07206
G1 X12.259 Y-14.533 E0.18417
G1 X11.342 Y-14.533 E0.07206
G1 X9.685 Y-16.190 E0.18417
G1 X8.768 Y-16.190 E0.07206
G1 X10.425 Y-14.533 E0.18418
G1 X9.509 Y-14.533 E0.07206
G1 X7.852 Y-16.190 E0.18418
G1 X6.935 Y-16.190 E0.07206
G1 X8.592 Y-14.533 E0.18418
G1 X7.675 Y-14.533 E0.07206
G1 X6.018 Y-16.190 E0.18419
G1 X5.101 Y-16.190 E0.07206
G1 X6.758 Y-14.533 E0.18419
G1 X5.842 Y-14.533 E0.07206
G1 X4.185 Y-16.190 E0.18419
G1 X3.268 Y-16.190 E0.07206
G1 X4.925 Y-14.533 E0.18420
G1 X4.008 Y-14.533 E0.07206
G1 X2.351 Y-16.190 E0.18420
G1 X1.434 Y-16.190 E0.07206
G1 X3.091 Y-14.533 E0.18420
G1 X2.175 Y-14.533 E0.07206
G1 X0.517 Y-16.190 E0.18421
G1 X-0.399 Y-16.190 E0.07206
G1 X1.258 Y-14.533 E0.18421
G1 X0.341 Y-14.533 E0.07206
G1 X-1.316 Y-16.190 E0.18421
G1 X-2.233 Y-16.190 E0.07206
G1 X-0.576 Y-14.533 E0.18422
G1 X-1.493 Y-14.533 E0.07206
G1 X-3.150 Y-16.190 E0.18422
G1 X-4.067 Y-16.190 E0.07206
G1 X-2.409 Y-14.533 E0.18422
G1 X-3.326 Y-14.533 E0.07206
G1 X-4.983 Y-16.191 E0.18423
G1 X-5.900 Y-16.191 E0.07206
G1 X-4.243 Y-14.533 E0.18423
G1 X-5.160 Y-14.533 E0.07206
G1 X-6.817 Y-16.191 E0.18423
G1 X-7.734 Y-16.191 E0.07206
G1 X-6.076 Y-14.533 E0.18424
G1 X-6.993 Y-14.533 E0.07206
G1 X-8.651 Y-16.191 E0.18424
G1 X-9.567 Y-16.191 E0.07206
G1 X-7.910 Y-14.533 E0.18424
G1 X-8.827 Y-14.533 E0.07206
G1 X-10.484 Y-16.191 E0.18424
G1 X-11.401 Y-16.191 E0.07206
G1 X-9.743 Y-14.533 E0.18425
G1 X-10.660 Y-14.533 E0.07206
G1 X-12.318 Y-16.191 E0.18425
G1 X-13.235 Y-16.191 E0.07206
G1 X-11.577 Y-14.533 E0.18425
G1 X-12.494 Y-14.533 E0.07206
G1 X-14.151 Y-16.191 E0.18426
G1 X-15.068 Y-16.191 E0.07206
G1 X-13.411 Y-14.533 E0.18426
G1 X-14.327 Y-14.533 E0.07206
G1 X-15.985 Y-16.191 E0.18426
G1 X-16.902 Y-16.191 E0.07206
G1 X-15.244 Y-14.533 E0.18427
G1 X-16.161 Y-14.533 E0.07206
G1 X-17.819 Y-16.191 E0.18427
G1 X-18.058 Y-15.513 E0.05647
G1 X-16.782 Y-14.238 E0.14181
G1 X-16.782 Y-13.321 E0.07206
G1 X-17.736 Y-14.275 E0.10602
G1 X-17.770 Y-13.392 E0.06941
G1 X-17.055 Y-12.677 E0.07946
G1 X-17.671 Y-12.376 E0.05387
G1 X-17.971 Y-12.677 E0.03338
G1 X-19.646 Y-16.534 F15000.000
G1 X-20.032 Y-16.624 E0.03053 F960.000
G1 X-20.624 Y-16.705 E0.04605
G1 X-21.163 Y-16.723 E0.04153
G1 X-21.691 Y-16.663 E0.04102
G1 X-22.182 Y-16.513 E0.03954
G1 X-22.540 Y-16.337 E0.03073
G1 X-22.870 Y-16.113 E0.03072
G1 X-23.170 Y-15.851 E0.03075
G1 X-23.478 Y-15.469 E0.03779
G1 X-23.754 Y-14.955 E0.04496
G1 X-23.884 Y-14.561 E0.03195
G1 X-23.952 Y-14.153 E0.03186
G1 X-23.975 Y-13.844 E0.02386
G1 X-23.951 Y-13.395 E0.03472
G1 X-23.663 Y-12.830 E0.04885
G1 X-23.454 Y-12.516 E0.02903
G1 X-21.407 Y-10.215 F15000.000
G1 X-21.699 Y-10.507 E0.03503 F960.000
G1 X-21.982 Y-9.802 E0.06440
G1 X-23.338 Y-11.158 E0.16249
G1 X-23.439 Y-10.270 E0.07571
G1 X-22.562 Y-9.393 E0.10509
G1 X-23.134 Y-8.977 E0.05996
G1 X-23.438 Y-9.281 E0.03642
G1 E-3.50000 F1500.00000
G1 Z0.700 F15000.000
G1 X-21.814 Y-4.283 F15000.000
G1 Z0.300 F15000.000
G1 E3.50000 F1500.00000
G1 X-21.451 Y-4.401 E0.02943 F600.000
G1 X-20.984 Y-4.452 E0.03617 F600.000
G1 X-20.541 Y-4.416 E0.03426
G1 X-20.068 Y-4.281 E0.03791
G1 X-19.694 Y-4.090 E0.03240
G1 X-19.305 Y-3.786 E0.03799
G1 X-19.002 Y-3.428 E0.03617
G1 X-18.784 Y-3.041 E0.03426
G1 X-18.631 Y-2.570 E0.03815
G1 X-18.579 Y-2.076 E0.03829
G1 X-18.631 Y-1.583 E0.03823
G1 X-18.774 Y-1.136 E0.03617
G1 X-18.987 Y-0.745 E0.03426
G1 X-19.305 Y-0.366 E0.03815
G1 X-19.694 Y-0.062 E0.03806
G1 X-20.068 Y0.128 E0.03233
G1 X-20.515 Y0.259 E0.03593
G1 X-20.959 Y0.301 E0.03435
G1 X-21.506 Y0.240 E0.04239
G1 X-21.853 Y0.124 E0.02821
G1 X-22.284 Y-0.105 E0.03765
G1 X-22.645 Y-0.405 E0.03617
G1 X-22.927 Y-0.749 E0.03426
G1 X-23.158 Y-1.183 E0.03791
G1 X-23.281 Y-1.585 E0.03240
G1 X-23.333 Y-2.076 E0.03806
G1 X-23.281 Y-2.567 E0.03806
G1 X-23.158 Y-2.969 E0.03240
G1 X-22.928 Y-3.403 E0.03782
G1 X-22.663 Y-3.729 E0.03240
G1 X-22.287 Y-4.045 E0.03782
G1 X-21.871 Y-4.264 E0.03627
G1 X-21.754 Y-4.660 F15000.000
G1 E-3.50000 F1500.00000
G1 Z0.700 F15000.000
G1 X-19.777 Y1.008 F15000.000
G1 Z0.300 F15000.000
G1 E3.50000 F1500.00000
G1 X-19.759 Y1.047 E0.00331 F600.000
G1 X-20.953 Y1.795 E0.10852
G1 X-21.824 Y2.384 E0.08107
G1 X-22.679 Y2.997 E0.08107
G1 X-23.668 Y3.748 E0.09569
G1 X-23.670 Y-0.651 E0.33902
G1 X-23.098 Y0.045 E0.06944
G1 X-22.640 Y0.426 E0.04587 F600.000
G1 X-22.104 Y0.711 E0.04678
G1 X-21.643 Y0.864 E0.03749
G1 X-20.964 Y0.940 E0.05260
G1 X-20.395 Y0.886 E0.04406
G1 X-19.894 Y0.740 E0.04025
G1 X-19.801 Y0.953 E0.01793
G1 E-3.50000 F1500.00000
G1 Z0.700 F15000.000
G1 X0.714 Y-4.790 F15000.000
G1 Z0.300 F15000.000
G1 E3.50000 F1500.00000
G1 X19.588 Y-4.789 E1.45453 F720.000
G1 X18.873 Y-4.168 E0.07297 F720.000
G1 X18.524 Y-3.730 E0.04316
G1 X18.247 Y-3.203 E0.04587
G1 X18.076 Y-2.608 E0.04773
G1 X18.029 Y-2.073 E0.04141
G1 X18.082 Y-1.515 E0.04316
G1 X18.249 Y-0.944 E0.04587
G1 X18.541 Y-0.394 E0.04798
G1 X18.902 Y0.045 E0.04382
G1 X19.091 Y0.202 E0.01896
G1 X18.894 Y0.489 E0.02685
G1 X17.398 Y-0.318 E0.13097
G1 X16.330 Y-0.829 E0.09129
G1 X16.330 Y-2.362 E0.11810
G1 X-16.242 Y-2.362 E2.51012
G1 X-16.242 Y-0.829 E0.11809
G1 X-17.310 Y-0.318 E0.09130
G1 X-18.765 Y0.467 E0.12740
G1 X-18.968 Y0.222 E0.02452
G1 X-18.459 Y-0.385 E0.06107
G1 X-18.187 Y-0.885 E0.04382
G1 X-18.006 Y-1.452 E0.04587
G1 X-17.940 Y-2.076 E0.04840
G1 X-18.006 Y-2.703 E0.04859
G1 X-18.199 Y-3.298 E0.04817
G1 X-18.478 Y-3.793 E0.04382
G1 X-18.863 Y-4.247 E0.04587
G1 X-19.229 Y-4.533 E0.03580
G1 X-19.140 Y-4.790 E0.02096
G1 X0.654 Y-4.790 E1.52545
G1 X18.704 Y-2.492 F15000.000
G1 X18.840 Y-2.966 E0.03799 F600.000
G1 X19.058 Y-3.381 E0.03617
G1 X19.334 Y-3.726 E0.03403
G1 X19.650 Y-4.001 E0.03225
G1 X20.077 Y-4.248 E0.03806
G1 X20.549 Y-4.401 E0.03823
G1 X21.016 Y-4.452 E0.03617 F600.000
G1 X21.445 Y-4.417 E0.03321
G1 X21.676 Y-4.370 E0.01819
G1 X21.943 Y-4.275 E0.02185
G1 X22.349 Y-4.062 E0.03531
G1 X22.696 Y-3.784 E0.03426
G1 X23.013 Y-3.408 E0.03791
G1 X23.216 Y-3.040 E0.03240
G1 X23.369 Y-2.570 E0.03806
G1 X23.421 Y-2.076 E0.03829
G1 X23.369 Y-1.582 E0.03830
G1 X23.216 Y-1.109 E0.03829
G1 X22.969 Y-0.682 E0.03806
G1 X22.693 Y-0.364 E0.03240
G1 X22.306 Y-0.062 E0.03782
G1 X21.932 Y0.128 E0.03233
G1 X21.485 Y0.259 E0.03593
G1 X21.051 Y0.300 E0.03355
G1 X20.794 Y0.286 E0.01983
G1 X20.481 Y0.234 E0.02445
G1 X20.148 Y0.125 E0.02707
G1 X19.716 Y-0.105 E0.03770
G1 X19.355 Y-0.405 E0.03617
G1 X19.073 Y-0.749 E0.03426
G1 X18.841 Y-1.185 E0.03808
G1 X18.709 Y-1.635 E0.03617
G1 X18.668 Y-2.075 E0.03403
G1 X18.699 Y-2.432 E0.02762
G1 X18.408 Y-2.761 F15000.000
G1 E-3.50000 F1500.00000
G1 Z0.700 F15000.000
G1 X23.758 Y0.773 F15000.000
G1 Z0.300 F15000.000
G1 E3.50000 F1500.00000
G1 X23.758 Y3.750 E0.22939 F600.000
G1 X22.767 Y2.997 E0.09590 F600.000
G1 X21.912 Y2.384 E0.08107
G1 X21.041 Y1.795 E0.08107
G1 X19.866 Y1.058 E0.10689
