; generated by Slic3r 1.2.9 on 2018-04-16 at 16:05:02

; external perimeters extrusion width = 0.40mm
; perimeters extrusion width = 0.40mm
; infill extrusion width = 0.40mm
; solid infill extrusion width = 0.40mm
; top infill extrusion width = 0.40mm

M107
M83
T0
M116
G21 ; set units to millimeters
G90 ; use absolute coordinates
M83 ; use relative distances for extrusion
G1 E-3.50000 F1500.00000
G1 Z0.400 F15000.000
G1 X0.555 Y16.319 F15000.000
G1 Z0.300 F15000.000
G1 E3.50000 F1500.00000
G1 X-0.124 Y16.334 E0.05230 F960.000
G1 X-1.310 Y16.288 E0.09153
G1 X-35.770 Y13.322 E2.66547
G1 X-36.326 Y13.236 E0.04335
G1 X-37.339 Y12.887 E0.08254
G1 X-37.522 Y12.792 E0.01595
G1 X-38.371 Y12.182 E0.08055
G1 X-38.511 Y12.046 E0.01502
G1 X-39.165 Y11.194 E0.08283
G1 X-39.271 Y11.002 E0.01688
G1 X-39.627 Y10.086 E0.07574
G1 X-39.664 Y9.932 E0.01221
G1 X-39.764 Y9.119 E0.06307
G1 X-39.765 Y8.961 E0.01221
G1 X-39.686 Y8.171 E0.06119
G1 X-39.656 Y8.028 E0.01128
G1 X-39.514 Y7.536 E0.03942
G1 X-33.527 Y-8.855 E1.34481
G1 X-33.146 Y-9.610 E0.06521
G1 X-32.600 Y-10.420 E0.07526
G1 X-32.158 Y-10.998 E0.05603
G1 X-31.308 Y-11.958 E0.09884
G1 X-30.521 Y-12.713 E0.08403
G1 X-29.724 Y-13.374 E0.07982
G1 X-28.572 Y-14.168 E0.10781
G1 X-27.675 Y-14.685 E0.07982
G1 X-27.399 Y-14.824 E0.02380
G1 X-26.406 Y-15.274 E0.08403
G1 X-26.061 Y-15.409 E0.02855
G1 X-25.027 Y-15.755 E0.08403
G1 X-24.670 Y-15.854 E0.02855
G1 X-23.606 Y-16.093 E0.08403
G1 X-23.242 Y-16.156 E0.02849
G1 X-22.166 Y-16.285 E0.08351
G1 X-20.999 Y-16.336 E0.08997
G1 X21.225 Y-16.332 E3.25400
G1 X22.097 Y-16.292 E0.06728 F960.000
G1 X23.065 Y-16.185 E0.07507
G1 X23.781 Y-16.062 E0.05603
G1 X24.730 Y-15.840 E0.07507
G1 X25.661 Y-15.555 E0.07506
G1 X26.571 Y-15.207 E0.07507
G1 X27.831 Y-14.599 E0.10781
G1 X28.155 Y-14.419 E0.02855
G1 X29.332 Y-13.664 E0.10781
G1 X30.105 Y-13.071 E0.07506
G1 X30.879 Y-12.383 E0.07982
G1 X31.640 Y-11.602 E0.08403
G1 X32.307 Y-10.810 E0.07982
G1 X32.880 Y-10.021 E0.07507
G1 X33.182 Y-9.554 E0.04289
G1 X33.527 Y-8.854 E0.06010
G1 X39.518 Y7.548 E1.34575
G1 X39.665 Y8.068 E0.04164
G1 X39.692 Y8.199 E0.01034
G1 X39.757 Y9.181 E0.07579
G1 X39.740 Y9.423 E0.01873
G1 X39.434 Y10.648 E0.09729
G1 X39.335 Y10.870 E0.01873
G1 X38.799 Y11.728 E0.07799
G1 X38.705 Y11.840 E0.01128
G1 X38.113 Y12.406 E0.06309
G1 X37.362 Y12.875 E0.06827
G1 X37.163 Y12.968 E0.01688
G1 X36.132 Y13.273 E0.08291
G1 X35.938 Y13.300 E0.01505
G1 X1.311 Y16.288 E2.67851
G1 X0.615 Y16.317 E0.05366
G1 E-3.50000 F1500.00000
G1 Z0.700 F15000.000
G1 X-17.330 Y1.094 F15000.000
G1 Z0.300 F15000.000
G1 E3.50000 F1500.00000
G1 X-17.673 Y1.461 E0.03871 F720.000
G1 X-18.053 Y1.789 E0.03871
G1 X-18.465 Y2.077 E0.03871
G1 X-18.905 Y2.319 E0.03871
G1 X-19.368 Y2.515 E0.03871
G1 X-19.849 Y2.660 E0.03871
G1 X-20.342 Y2.755 E0.03871
G1 X-20.842 Y2.798 E0.03871
G1 X-21.345 Y2.788 E0.03871
G1 X-21.843 Y2.726 E0.03871
G1 X-22.332 Y2.612 E0.03871
G1 X-22.816 Y2.444 E0.03941
G1 X-25.534 Y7.150 E0.41881
G1 X-25.749 Y7.373 E0.02388
G1 X-26.021 Y7.511 E0.02350
G1 X-26.346 Y7.557 E0.02533
G1 X-26.659 Y7.491 E0.02461
G1 X-26.845 Y7.392 E0.01624
G1 X-27.005 Y7.258 E0.01611
G1 X-27.191 Y6.975 E0.02612
G1 X-27.250 Y6.768 E0.01659
G1 X-27.265 Y6.554 E0.01653
G1 X-27.190 Y6.229 E0.02570
G1 X-24.402 Y1.393 E0.43022
G1 X-24.692 Y1.068 E0.03354
G1 X-25.078 Y0.533 E0.05084
G1 X-25.296 Y0.141 E0.03456
G1 X-25.459 Y-0.221 E0.03063
G1 X-25.662 Y-0.854 E0.05123
G1 X-25.776 Y-1.511 E0.05137
G1 X-25.800 Y-2.013 E0.03871
G1 X-25.787 Y-2.357 E0.02652
G1 X-25.694 Y-3.007 E0.05067
G1 X-25.608 Y-3.344 E0.02673
G1 X-25.444 Y-3.815 E0.03850
G1 X-25.152 Y-4.410 E0.05107
G1 X-24.909 Y-4.786 E0.03448
G1 X-24.665 Y-5.101 E0.03071
G1 X-24.201 Y-5.578 E0.05124
G1 X-23.672 Y-5.988 E0.05161
G1 X-23.092 Y-6.321 E0.05160
G1 X-22.470 Y-6.570 E0.05160
G1 X-21.826 Y-6.729 E0.05113
G1 X-21.486 Y-6.776 E0.02646
G1 X-21.043 Y-6.800 E0.03413 F720.000
G1 X-20.483 Y-6.773 E0.04326
G1 X-19.828 Y-6.656 E0.05123
G1 X-19.343 Y-6.505 E0.03919
G1 X-18.735 Y-6.233 E0.05130
G1 X-18.217 Y-5.911 E0.04702
G1 X-17.778 Y-5.559 E0.04335
G1 X-17.385 Y-5.157 E0.04335
G1 X-17.014 Y-4.675 E0.04688
G1 X-16.728 Y-4.189 E0.04342
G1 X-16.485 Y-3.632 E0.04688
G1 X-16.326 Y-3.091 E0.04342
G1 X-16.224 Y-2.489 E0.04709
G1 X-16.203 Y-1.824 E0.05129
G1 X-16.248 Y-1.317 E0.03918
G1 X-16.387 Y-0.671 E0.05097
G1 X-16.553 Y-0.191 E0.03911
G1 X-16.767 Y0.264 E0.03872
G1 X-17.026 Y0.694 E0.03871
G1 X-17.293 Y1.046 E0.03409
G1 X-17.200 Y1.473 F15000.000
G1 X-24.745 Y8.714 F15000.000
G1 X-34.939 Y8.714 E0.78557 F720.000
G1 X-26.172 Y-6.471 E1.35123
G1 X-28.691 Y-7.925 E0.22413
G1 X-28.509 Y-8.162 E0.02307
G1 X-28.079 Y-8.652 E0.05022
G1 X-27.352 Y-9.349 E0.07757
G1 X-26.852 Y-9.753 E0.04958
G1 X-26.018 Y-10.317 E0.07757
G1 X-25.456 Y-10.631 E0.04958
G1 X-24.547 Y-11.042 E0.07693
G1 X-23.608 Y-11.356 E0.07628
G1 X-22.642 Y-11.573 E0.07629
G1 X-21.658 Y-11.691 E0.07642
G1 X-20.983 Y-11.714 E0.05206
G1 X-19.393 Y-11.714 E0.12250
G1 X-20.145 Y-11.083 E0.07564 F720.000
G1 X-20.484 Y-10.665 E0.04149
G1 X-20.769 Y-10.128 E0.04685
G1 X-20.927 Y-9.613 E0.04149
G1 X-20.991 Y-9.000 E0.04752
G1 X-20.926 Y-8.384 E0.04777
G1 X-20.771 Y-7.886 E0.04016
G1 X-20.567 Y-7.413 E0.03970
G1 X-21.045 Y-7.436 E0.03695
G1 X-21.546 Y-7.409 E0.03865
G1 X-21.945 Y-7.354 E0.03105
G1 X-22.665 Y-7.177 E0.05712
G1 X-23.369 Y-6.895 E0.05845
G1 X-24.027 Y-6.518 E0.05845
G1 X-24.626 Y-6.052 E0.05845
G1 X-25.146 Y-5.518 E0.05742
G1 X-25.428 Y-5.154 E0.03553
G1 X-25.706 Y-4.724 E0.03942
G1 X-26.032 Y-4.061 E0.05694
G1 X-26.218 Y-3.527 E0.04362
G1 X-26.318 Y-3.131 E0.03144
G1 X-26.421 Y-2.414 E0.05581
G1 X-26.437 Y-2.009 E0.03122
G1 X-26.409 Y-1.441 E0.04385
G1 X-26.281 Y-0.702 E0.05779
G1 X-26.053 Y0.007 E0.05741
G1 X-25.864 Y0.426 E0.03544
G1 X-25.615 Y0.875 E0.03951
G1 X-25.183 Y1.474 E0.05698
G1 X-27.788 Y5.993 E0.40201
G1 X-27.906 Y6.503 E0.04033
G1 X-27.880 Y6.879 E0.02900
G1 X-27.776 Y7.242 E0.02917
G1 X-27.485 Y7.686 E0.04085
G1 X-27.201 Y7.922 E0.02847
G1 X-26.878 Y8.094 E0.02819
G1 X-26.369 Y8.202 E0.04013
G1 X-25.827 Y8.126 E0.04216
G1 X-25.366 Y7.891 E0.03989
G1 X-25.023 Y7.536 E0.03809
G1 X-22.529 Y3.219 E0.38420
G1 X-21.955 Y3.352 E0.04541
G1 X-21.390 Y3.423 E0.04385
G1 X-20.822 Y3.434 E0.04385
G1 X-20.255 Y3.386 E0.04385
G1 X-19.696 Y3.278 E0.04385
G1 X-19.151 Y3.113 E0.04385
G1 X-18.627 Y2.892 E0.04385
G1 X-18.129 Y2.617 E0.04385
G1 X-17.662 Y2.292 E0.04384
G1 X-17.232 Y1.920 E0.04385
G1 X-16.843 Y1.504 E0.04385
G1 X-16.500 Y1.051 E0.04385
G1 X-16.205 Y0.564 E0.04384
G1 X-15.964 Y0.049 E0.04386
G1 X-15.774 Y-0.499 E0.04468
G1 X-15.619 Y-1.222 E0.05695
G1 X-15.566 Y-1.805 E0.04517
G1 X-15.590 Y-2.552 E0.05759
G1 X-15.705 Y-3.235 E0.05333
G1 X-15.887 Y-3.850 E0.04941
G1 X-16.161 Y-4.478 E0.05286
G1 X-16.486 Y-5.031 E0.04941
G1 X-16.904 Y-5.575 E0.05287
G1 X-17.395 Y-6.076 E0.05412
G1 X-16.877 Y-6.228 E0.04160
G1 X-16.332 Y-6.518 E0.04757
G1 X-15.896 Y-6.876 E0.04346
G1 X-15.519 Y-7.330 E0.04550
G1 X-15.237 Y-7.861 E0.04638
G1 X-15.083 Y-8.321 E0.03736
G1 X-15.010 Y-8.989 E0.05176
G1 X-15.057 Y-9.528 E0.04171
G1 X-15.227 Y-10.120 E0.04752
G1 X-15.520 Y-10.673 E0.04819
G1 X-15.917 Y-11.145 E0.04752
G1 X-16.619 Y-11.714 E0.06969
G1 X-10.318 Y-11.713 E0.48558
G1 X-10.318 Y-4.422 E0.56193
G1 X-10.901 Y-4.728 E0.05068
G1 X-11.484 Y-4.895 E0.04677
G1 X-12.037 Y-4.940 E0.04274
G1 X-12.614 Y-4.876 E0.04474
G1 X-13.191 Y-4.688 E0.04677
G1 X-13.674 Y-4.416 E0.04274
G1 X-14.111 Y-4.047 E0.04407
G1 X-14.442 Y-3.637 E0.04063
G1 X-14.723 Y-3.109 E0.04604
G1 X-14.876 Y-2.608 E0.04037
G1 X-14.945 Y-2.019 E0.04577
G1 X-14.877 Y-1.395 E0.04832
G1 X-14.723 Y-0.891 E0.04068
G1 X-14.442 Y-0.363 E0.04604
G1 X-14.107 Y0.051 E0.04108
G1 X-13.610 Y0.463 E0.04975
G1 X-13.101 Y0.726 E0.04410
G1 X-12.575 Y0.883 E0.04232
G1 X-12.003 Y0.940 E0.04432
G1 X-11.453 Y0.889 E0.04255
G1 X-10.904 Y0.728 E0.04407
G1 X-10.318 Y0.430 E0.05068
G1 X-10.318 Y8.286 E0.60543
G1 X-2.469 Y8.286 E0.60494
G1 X-2.772 Y8.880 E0.05142
G1 X-2.927 Y9.387 E0.04083
G1 X-2.991 Y10.000 E0.04752
G1 X-2.927 Y10.613 E0.04752
G1 X-2.669 Y11.456 E0.06791
G1 X-3.684 Y11.210 E0.08048
G1 X-4.533 Y10.942 E0.06863
G1 X-5.003 Y10.769 E0.03857
G1 X-5.877 Y10.391 E0.07341
G1 X-7.093 Y9.807 E0.10392
G1 X-7.674 Y9.573 E0.04833
G1 X-8.362 Y9.333 E0.05610
G1 X-8.809 Y9.200 E0.03595
G1 X-9.670 Y8.991 E0.06830
G1 X-10.130 Y8.904 E0.03609
G1 X-11.009 Y8.784 E0.06830
G1 X-11.475 Y8.744 E0.03609
G1 X-12.352 Y8.714 E0.06762
G1 X-24.685 Y8.714 E0.95046
G1 E-3.50000 F1500.00000
G1 Z0.700 F15000.000
G1 X-18.884 Y-6.821 F15000.000
G1 Z0.300 F15000.000
G1 E3.50000 F1500.00000
G1 X-19.312 Y-7.049 E0.03742 F600.000
G1 X-19.631 Y-7.307 E0.03159
G1 X-19.850 Y-7.549 E0.02517
G1 X-20.062 Y-7.847 E0.02817
G1 X-20.174 Y-8.108 E0.02186
G1 X-20.301 Y-8.513 E0.03273
G1 X-20.352 Y-9.000 E0.03774
G1 X-20.301 Y-9.486 E0.03765
G1 X-20.179 Y-9.884 E0.03206
G1 X-19.951 Y-10.312 E0.03742
G1 X-19.689 Y-10.636 E0.03206
G1 X-19.318 Y-10.948 E0.03742
G1 X-18.954 Y-11.150 E0.03206
G1 X-18.490 Y-11.300 E0.03758
G1 X-18.028 Y-11.351 E0.03579 F600.000
G1 X-17.590 Y-11.316 E0.03390
G1 X-17.119 Y-11.181 E0.03774
G1 X-16.688 Y-10.951 E0.03765
G1 X-16.364 Y-10.689 E0.03206
G1 X-16.050 Y-10.315 E0.03765
G1 X-15.819 Y-9.881 E0.03789
G1 X-15.685 Y-9.411 E0.03765
G1 X-15.648 Y-8.996 E0.03214
G1 X-15.708 Y-8.458 E0.04172
G1 X-15.823 Y-8.112 E0.02806
G1 X-16.050 Y-7.686 E0.03725
G1 X-16.346 Y-7.328 E0.03579
G1 X-16.687 Y-7.049 E0.03390
G1 X-17.118 Y-6.820 E0.03767
G1 X-17.564 Y-6.689 E0.03579
G1 X-18.002 Y-6.648 E0.03390
G1 X-18.486 Y-6.699 E0.03751
G1 X-18.826 Y-6.803 E0.02744
G1 X-19.209 Y-6.588 F15000.000
G1 E-3.50000 F1500.00000
G1 Z0.700 F15000.000
G1 X33.051 Y5.445 F15000.000
G1 Z0.300 F15000.000
G1 E3.50000 F1500.00000
G1 X34.939 Y8.714 E0.29091 F720.000
G1 X12.352 Y8.714 E1.74063
G1 X11.475 Y8.744 E0.06762
G1 X11.008 Y8.784 E0.03609
G1 X10.130 Y8.904 E0.06830
G1 X9.674 Y8.990 E0.03579
G1 X9.075 Y9.131 E0.04744
G1 X8.369 Y9.330 E0.05651
G1 X7.748 Y9.546 E0.05065
G1 X7.094 Y9.806 E0.05427
G1 X5.877 Y10.391 E0.10404
G1 X5.001 Y10.770 E0.07353
G1 X4.580 Y10.927 E0.03463
G1 X3.683 Y11.210 E0.07248
G1 X2.591 Y11.475 E0.08664
G1 X2.776 Y11.112 E0.03138
G1 X2.943 Y10.528 E0.04685
G1 X2.990 Y9.991 E0.04149
G1 X2.926 Y9.378 E0.04752
G1 X2.732 Y8.783 E0.04819
G1 X2.445 Y8.286 E0.04430
G1 X10.318 Y8.286 E0.60677
G1 X10.318 Y0.416 E0.60648
G1 X10.812 Y0.689 E0.04349
G1 X11.383 Y0.875 E0.04626
G1 X11.981 Y0.945 E0.04644
G1 X12.605 Y0.877 E0.04832
G1 X13.101 Y0.725 E0.04001
G1 X13.565 Y0.489 E0.04015
G1 X14.036 Y0.121 E0.04604
G1 X14.384 Y-0.279 E0.04082
G1 X14.687 Y-0.804 E0.04671
G1 X14.877 Y-1.389 E0.04738
G1 X14.941 Y-2.000 E0.04738
G1 X14.877 Y-2.611 E0.04738
G1 X14.687 Y-3.196 E0.04738
G1 X14.384 Y-3.721 E0.04671
G1 X14.040 Y-4.117 E0.04040
G1 X13.602 Y-4.467 E0.04320
G1 X13.096 Y-4.728 E0.04387
G1 X12.516 Y-4.895 E0.04654
G1 X11.963 Y-4.940 E0.04274
G1 X11.386 Y-4.876 E0.04474
G1 X10.812 Y-4.689 E0.04652
G1 X10.318 Y-4.416 E0.04349
G1 X10.318 Y-11.712 E0.56224
G1 X16.579 Y-11.711 E0.48250
G1 X15.843 Y-11.071 E0.07519 F720.000
G1 X15.469 Y-10.592 E0.04685
G1 X15.228 Y-10.120 E0.04083
G1 X15.073 Y-9.613 E0.04083
G1 X15.010 Y-9.009 E0.04685
G1 X15.057 Y-8.472 E0.04149
G1 X15.224 Y-7.888 E0.04685
G1 X15.469 Y-7.408 E0.04149
G1 X15.848 Y-6.922 E0.04752
G1 X16.323 Y-6.524 E0.04777
G1 X16.818 Y-6.254 E0.04346
G1 X17.391 Y-6.071 E0.04633
G1 X16.944 Y-5.621 E0.04887
G1 X16.487 Y-5.033 E0.05737
G1 X16.161 Y-4.478 E0.04960
G1 X15.887 Y-3.850 E0.05286
G1 X15.705 Y-3.235 E0.04941
G1 X15.592 Y-2.561 E0.05266
G1 X15.563 Y-1.978 E0.04498
G1 X15.616 Y-1.239 E0.05712
G1 X15.729 Y-0.664 E0.04518
G1 X15.960 Y0.041 E0.05712
G1 X16.205 Y0.564 E0.04451
G1 X16.500 Y1.051 E0.04385
G1 X16.843 Y1.504 E0.04385
G1 X17.232 Y1.920 E0.04384
G1 X17.662 Y2.292 E0.04385
G1 X18.129 Y2.617 E0.04385
G1 X18.627 Y2.892 E0.04384
G1 X19.151 Y3.113 E0.04385
G1 X19.696 Y3.278 E0.04385
G1 X20.255 Y3.386 E0.04385
G1 X20.822 Y3.434 E0.04385
G1 X21.390 Y3.423 E0.04384
G1 X21.955 Y3.352 E0.04385
G1 X22.529 Y3.219 E0.04541
G1 X25.023 Y7.536 E0.38420
G1 X25.367 Y7.893 E0.03826
G1 X25.836 Y8.129 E0.04040
G1 X26.371 Y8.202 E0.04163
G1 X26.921 Y8.085 E0.04339
G1 X27.390 Y7.780 E0.04308
G1 X27.632 Y7.492 E0.02900
G1 X27.810 Y7.158 E0.02917
G1 X27.909 Y6.637 E0.04085
G1 X27.869 Y6.270 E0.02847
G1 X27.767 Y5.956 E0.02548
G1 X25.183 Y1.474 E0.39864
G1 X25.622 Y0.866 E0.05781
G1 X25.967 Y0.210 E0.05715
G1 X26.119 Y-0.170 E0.03149
G1 X26.282 Y-0.711 E0.04357
G1 X26.409 Y-1.441 E0.05711
G1 X26.437 Y-2.009 E0.04385
G1 X26.421 Y-2.414 E0.03122
G1 X26.317 Y-3.139 E0.05646
G1 X26.168 Y-3.688 E0.04385
G1 X26.028 Y-4.069 E0.03122
G1 X25.701 Y-4.734 E0.05712
G1 X25.284 Y-5.347 E0.05712
G1 X25.026 Y-5.654 E0.03093
G1 X24.700 Y-5.982 E0.03561
G1 X24.338 Y-6.291 E0.03668
G1 X24.012 Y-6.526 E0.03099
G1 X23.379 Y-6.889 E0.05628
G1 X22.909 Y-7.090 E0.03937
G1 X22.470 Y-7.235 E0.03558
G1 X21.757 Y-7.384 E0.05615
G1 X21.356 Y-7.425 E0.03104
G1 X20.540 Y-7.440 E0.06295
G1 X20.769 Y-7.872 E0.03766
G1 X20.927 Y-8.387 E0.04150
G1 X20.991 Y-9.000 E0.04752
G1 X20.926 Y-9.622 E0.04819
G1 X20.732 Y-10.217 E0.04819
G1 X20.424 Y-10.751 E0.04752
G1 X20.077 Y-11.150 E0.04083
G1 X19.385 Y-11.711 E0.06862
G1 X21.204 Y-11.711 E0.14019
G1 X21.656 Y-11.692 E0.03488
G1 X22.316 Y-11.624 E0.05116
G1 X22.967 Y-11.513 E0.05087
G1 X23.608 Y-11.357 E0.05087
G1 X24.238 Y-11.158 E0.05087
G1 X24.845 Y-10.920 E0.05022
G1 X25.740 Y-10.478 E0.07693
G1 X26.585 Y-9.947 E0.07693
G1 X27.105 Y-9.555 E0.05022
G1 X27.598 Y-9.129 E0.05022
G1 X28.300 Y-8.408 E0.07757
G1 X28.695 Y-7.927 E0.04790
G1 X26.172 Y-6.471 E0.22449
G1 X33.021 Y5.393 E1.05572
G1 E-3.50000 F1500.00000
G1 Z0.700 F15000.000
G1 X19.654 Y-7.328 F15000.000
G1 Z0.300 F15000.000
G1 E3.50000 F1500.00000
G1 X19.313 Y-7.049 E0.03390 F600.000
G1 X18.881 Y-6.819 E0.03774
G1 X18.411 Y-6.685 E0.03765
G1 X17.997 Y-6.648 E0.03206
G1 X17.512 Y-6.699 E0.03758
G1 X17.069 Y-6.841 E0.03579
G1 X16.683 Y-7.051 E0.03390
G1 X16.308 Y-7.366 E0.03774
G1 X16.007 Y-7.751 E0.03765
G1 X15.818 Y-8.122 E0.03206
G1 X15.685 Y-8.589 E0.03742
G1 X15.648 Y-9.003 E0.03206
G1 X15.699 Y-9.486 E0.03742
G1 X15.820 Y-9.881 E0.03182
G1 X16.007 Y-10.249 E0.03182
G1 X16.306 Y-10.631 E0.03742
G1 X16.620 Y-10.904 E0.03206
G1 X17.043 Y-11.149 E0.03765
G1 X17.510 Y-11.300 E0.03782
G1 X17.972 Y-11.351 E0.03579 F600.000
G1 X18.410 Y-11.316 E0.03390
G1 X18.881 Y-11.181 E0.03774
G1 X19.312 Y-10.951 E0.03765
G1 X19.633 Y-10.691 E0.03182
G1 X19.904 Y-10.380 E0.03182
G1 X20.149 Y-9.957 E0.03765
G1 X20.301 Y-9.489 E0.03789
G1 X20.352 Y-9.000 E0.03789
G1 X20.301 Y-8.514 E0.03765
G1 X20.179 Y-8.116 E0.03206
G1 X19.950 Y-7.686 E0.03758
G1 X19.692 Y-7.374 E0.03117
G1 X19.744 Y-6.939 F15000.000
G1 X19.834 Y-6.656 F15000.000
G1 X20.319 Y-6.752 E0.03813 F720.000
G1 X20.875 Y-6.798 E0.04301 F720.000
G1 X21.318 Y-6.790 E0.03412
G1 X21.659 Y-6.755 E0.02645
G1 X22.305 Y-6.620 E0.05082
G1 X22.684 Y-6.495 E0.03076
G1 X23.095 Y-6.319 E0.03443
G1 X23.667 Y-5.991 E0.05084
G1 X23.945 Y-5.790 E0.02644
G1 X24.268 Y-5.516 E0.03264
G1 X24.556 Y-5.224 E0.03161
G1 X24.777 Y-4.962 E0.02641
G1 X25.150 Y-4.414 E0.05113
G1 X25.443 Y-3.818 E0.05113
G1 X25.562 Y-3.495 E0.02652
G1 X25.693 Y-3.010 E0.03871
G1 X25.787 Y-2.357 E0.05089
G1 X25.800 Y-2.013 E0.02652
G1 X25.776 Y-1.511 E0.03871
G1 X25.663 Y-0.857 E0.05113
G1 X25.518 Y-0.380 E0.03845
G1 X25.390 Y-0.057 E0.02678
G1 X25.080 Y0.530 E0.05114
G1 X24.692 Y1.068 E0.05113
G1 X24.402 Y1.393 E0.03354
G1 X27.183 Y6.215 E0.42902
G1 X27.244 Y6.404 E0.01528
G1 X27.267 Y6.612 E0.01611
G1 X27.203 Y6.945 E0.02612
G1 X27.102 Y7.135 E0.01659
G1 X26.964 Y7.299 E0.01653
G1 X26.674 Y7.488 E0.02668
G1 X26.347 Y7.557 E0.02576
G1 X26.027 Y7.513 E0.02490
G1 X25.750 Y7.374 E0.02391
G1 X25.534 Y7.150 E0.02394
G1 X22.816 Y2.444 E0.41881
G1 X22.332 Y2.612 E0.03941
G1 X21.843 Y2.726 E0.03871
G1 X21.345 Y2.788 E0.03871
G1 X20.842 Y2.798 E0.03871
G1 X20.342 Y2.755 E0.03872
G1 X19.849 Y2.660 E0.03871
G1 X19.368 Y2.515 E0.03871
G1 X18.905 Y2.319 E0.03871
G1 X18.465 Y2.077 E0.03871
G1 X18.053 Y1.789 E0.03872
