; generated by Slic3r 1.2.9 on 2018-04-18 at 15:53:31

; external perimeters extrusion width = 0.40mm
; perimeters extrusion width = 0.40mm
; infill extrusion width = 0.40mm
; solid infill extrusion width = 0.40mm
; top infill extrusion width = 0.40mm

M107
M83
T0
M116
G21 ; set units to millimeters
G90 ; use absolute coordinates
M83 ; use relative distances for extrusion
G1 E-3.50000 F1500.00000
G1 Z0.400 F15000.000
G1 X-24.494 Y14.141 F15000.000
G1 Z0.300 F15000.000
G1 E3.50000 F1500.00000
G1 X-34.047 Y-2.407 E1.47251 F960.000
G1 X-34.201 Y-2.704 E0.02580
G1 X-34.439 Y-3.221 E0.04387
G1 X-34.596 Y-3.623 E0.03325
G1 X-34.780 Y-4.208 E0.04724
G1 X-36.878 Y-12.035 E0.62448
G1 X-36.923 Y-13.728 E0.13052
G1 X-36.514 Y-14.794 E0.08796
G1 X-28.775 Y-28.199 E1.19293
G1 X-27.609 Y-29.428 E0.13052
G1 X-26.567 Y-29.893 E0.08796
G1 X-18.740 Y-31.990 E0.62448
G1 X-17.941 Y-32.156 E0.06291
G1 X-17.450 Y-32.218 E0.03809
G1 X-16.669 Y-32.257 E0.06029
G1 X18.784 Y-32.256 E2.73221
G1 X19.586 Y-32.203 E0.06195 F960.000
G1 X20.012 Y-32.142 E0.03314
G1 X20.596 Y-32.020 E0.04598
G1 X21.234 Y-31.829 E0.05135
G1 X21.631 Y-31.677 E0.03278
G1 X22.536 Y-31.247 E0.07719
G1 X33.978 Y-24.567 E1.02108
G1 X34.454 Y-24.228 E0.04501
G1 X34.686 Y-24.038 E0.02306
G1 X35.050 Y-23.696 E0.03854
G1 X35.389 Y-23.330 E0.03841
G1 X35.772 Y-22.837 E0.04815
G1 X36.043 Y-22.419 E0.03841
G1 X36.312 Y-21.925 E0.04335
G1 X36.475 Y-21.561 E0.03074
G1 X36.664 Y-21.031 E0.04335
G1 X36.795 Y-20.550 E0.03841
G1 X36.906 Y-19.935 E0.04814
G1 X36.953 Y-19.439 E0.03841
G1 X36.968 Y-19.115 E0.02503
G1 X37.021 Y-6.135 E1.00030
G1 X36.980 Y-5.437 E0.05391
G1 X36.923 Y-5.012 E0.03300
G1 X36.813 Y-4.450 E0.04417
G1 X36.684 Y-3.971 E0.03823
G1 X36.499 Y-3.428 E0.04417
G1 X36.306 Y-2.971 E0.03824
G1 X35.950 Y-2.276 E0.06017
G1 X18.344 Y28.210 E2.71304
G1 X17.933 Y28.873 E0.06012
G1 X17.679 Y29.220 E0.03314
G1 X17.156 Y29.828 E0.06180
G1 X16.574 Y30.379 E0.06181
G1 X15.938 Y30.868 E0.06180
G1 X15.627 Y31.072 E0.02869
G1 X14.925 Y31.460 E0.06180
G1 X14.187 Y31.775 E0.06180
G1 X13.780 Y31.912 E0.03314
G1 X13.362 Y32.025 E0.03336
G1 X12.805 Y32.141 E0.04384
G1 X12.377 Y32.204 E0.03338
G1 X11.944 Y32.241 E0.03347
G1 X11.632 Y32.255 E0.02406
G1 X-9.511 Y32.257 E1.62939
G1 X-10.338 Y32.209 E0.06386
G1 X-10.768 Y32.153 E0.03339
G1 X-11.487 Y32.003 E0.05660
G1 X-12.116 Y31.807 E0.05077
G1 X-12.649 Y31.597 E0.04417
G1 X-13.243 Y31.311 E0.05077
G1 X-13.875 Y30.927 E0.05704
G1 X-14.179 Y30.712 E0.02868
G1 X-14.517 Y30.447 E0.03314
G1 X-14.963 Y30.049 E0.04600
G1 X-15.468 Y29.509 E0.05704
G1 X-15.839 Y29.041 E0.04599
G1 X-16.312 Y28.314 E0.06684
G1 X-24.464 Y14.193 E1.25657
G1 E-3.50000 F1500.00000
G1 Z0.700 F15000.000
G1 X-14.264 Y8.304 F15000.000
G1 Z0.300 F15000.000
G1 E3.50000 F1500.00000
G1 X-18.260 Y1.383 E0.61583 F720.000
G1 X-18.348 Y1.194 E0.01613
G1 X-18.406 Y0.976 E0.01734
G1 X-18.426 Y0.752 E0.01735
G1 X-18.406 Y0.525 E0.01759
G1 X-18.332 Y0.268 E0.02058
G1 X-18.206 Y0.030 E0.02081
G1 X-18.032 Y-0.177 E0.02082
G1 X-17.829 Y-0.336 E0.01988
G1 X-15.202 Y-1.848 E0.23353
G1 X-14.762 Y-2.062 E0.03777
G1 X-14.309 Y-2.245 E0.03767
G1 X-13.845 Y-2.396 E0.03759
G1 X-13.142 Y-2.556 E0.05550
G1 X-14.166 Y-6.377 E0.30487
G1 X-11.513 Y-9.030 E0.28921
G1 X-7.714 Y-8.013 E0.30305
G1 X-7.714 Y-21.890 E1.06950 F720.000
G1 X-7.059 Y-21.870 E0.05051
G1 X-6.679 Y-21.824 E0.02949
G1 X-6.081 Y-21.666 E0.04772
G1 X-5.726 Y-21.517 E0.02968
G1 X-5.388 Y-21.332 E0.02968
G1 X-4.888 Y-20.962 E0.04795
G1 X-4.537 Y-20.606 E0.03849
G1 X-2.835 Y-18.548 E0.20587
G1 X-1.521 Y-17.050 E0.15348
G1 X-0.170 Y-15.587 E0.15353
G1 X1.219 Y-14.158 E0.15354
G1 X2.643 Y-12.766 E0.15349
G1 X4.104 Y-11.411 E0.15355
G1 X5.598 Y-10.093 E0.15352
G1 X7.121 Y-8.818 E0.15311
G1 X8.685 Y-7.575 E0.15397
G1 X10.276 Y-6.376 E0.15350
G1 X11.897 Y-5.218 E0.15355
G1 X13.544 Y-4.104 E0.15319
G1 X15.225 Y-3.028 E0.15385
G1 X16.929 Y-1.999 E0.15340
G1 X19.876 Y-0.290 E0.26253
G1 X20.132 Y-0.042 E0.02748
G1 X20.327 Y0.309 E0.03097
G1 X20.404 Y0.704 E0.03097
G1 X20.366 Y1.065 E0.02798
G1 X20.240 Y1.375 E0.02581
G1 X13.610 Y12.859 E1.02192
G1 X13.493 Y13.027 E0.01579
G1 X13.338 Y13.184 E0.01697
G1 X13.159 Y13.312 E0.01697
G1 X12.958 Y13.409 E0.01720
G1 X12.705 Y13.477 E0.02017
G1 X12.442 Y13.491 E0.02032
G1 X12.181 Y13.452 E0.02037
G1 X11.939 Y13.363 E0.01988
G1 X9.485 Y11.950 E0.21821
G1 X9.073 Y11.692 E0.03745
G1 X8.675 Y11.403 E0.03790
G1 X8.298 Y11.088 E0.03789
G1 X7.945 Y10.749 E0.03770
G1 X7.614 Y10.385 E0.03791
G1 X7.378 Y10.087 E0.02935
G1 X7.122 Y10.176 E0.02089
G1 X7.122 Y11.446 E0.09792
G1 X3.872 Y13.323 E0.28921
G1 X0.622 Y11.446 E0.28921
G1 X0.622 Y7.477 E0.30589
G1 X-0.228 Y7.823 E0.07069
G1 X-0.619 Y8.006 E0.03324
G1 X-1.399 Y8.422 E0.06811
G1 X-9.926 Y13.344 E0.75880
G1 X-10.120 Y13.427 E0.01627
G1 X-10.337 Y13.479 E0.01721
G1 X-10.595 Y13.491 E0.01989
G1 X-10.819 Y13.459 E0.01743
G1 X-11.066 Y13.374 E0.02013
G1 X-11.293 Y13.239 E0.02036
G1 X-11.489 Y13.061 E0.02036
G1 X-11.633 Y12.862 E0.01894
G1 X-14.234 Y8.356 E0.40098
G1 X-14.664 Y8.304 F15000.000
G1 E-3.50000 F1500.00000
G1 Z0.700 F15000.000
G1 X-0.997 Y19.036 F15000.000
G1 Z0.300 F15000.000
G1 E3.50000 F1500.00000
G1 X-0.551 Y18.655 E0.04519 F600.000
G1 X-0.119 Y18.415 E0.03814
G1 X0.418 Y18.241 E0.04344
G1 X0.973 Y18.182 E0.04301 F600.000
G1 X1.472 Y18.224 E0.03859
G1 X2.015 Y18.380 E0.04356
G1 X2.513 Y18.645 E0.04349
G1 X2.898 Y18.956 E0.03814
G1 X3.261 Y19.389 E0.04349
G1 X3.529 Y19.894 E0.04411
G1 X3.684 Y20.430 E0.04301
G1 X3.728 Y20.921 E0.03792
G1 X3.685 Y21.406 E0.03754
G1 X3.530 Y21.948 E0.04349
G1 X3.261 Y22.454 E0.04416
G1 X2.892 Y22.893 E0.04416
G1 X2.447 Y23.241 E0.04349
G1 X2.007 Y23.465 E0.03809
G1 X1.479 Y23.617 E0.04235
G1 X0.989 Y23.661 E0.03793
G1 X0.504 Y23.619 E0.03754
G1 X-0.039 Y23.463 E0.04349
G1 X-0.544 Y23.194 E0.04411
G1 X-0.972 Y22.836 E0.04302
G1 X-1.288 Y22.447 E0.03859
G1 X-1.553 Y21.948 E0.04356
G1 X-1.709 Y21.406 E0.04349
G1 X-1.752 Y20.914 E0.03809
G1 X-1.695 Y20.367 E0.04235
G1 X-1.550 Y19.888 E0.03854
G1 X-1.292 Y19.402 E0.04241
G1 X-1.034 Y19.083 E0.03163
G1 X-0.540 Y19.482 F15000.000
G1 X-0.190 Y19.181 E0.03558 F600.000
G1 X0.136 Y19.000 E0.02870
G1 X0.551 Y18.866 E0.03361
G1 X0.979 Y18.820 E0.03319 F600.000
G1 X1.356 Y18.852 E0.02913
G1 X1.776 Y18.973 E0.03365
G1 X2.161 Y19.177 E0.03363
G1 X2.450 Y19.412 E0.02870
G1 X2.731 Y19.746 E0.03363
G1 X2.937 Y20.134 E0.03385
G1 X3.056 Y20.548 E0.03319
G1 X3.089 Y20.921 E0.02889
G1 X3.057 Y21.289 E0.02849
G1 X2.937 Y21.709 E0.03363
G1 X2.731 Y22.097 E0.03386
G1 X2.448 Y22.434 E0.03386
G1 X2.104 Y22.702 E0.03363
G1 X1.773 Y22.871 E0.02869
G1 X1.362 Y22.990 E0.03296
G1 X0.988 Y23.023 E0.02889
G1 X0.620 Y22.991 E0.02849
G1 X0.201 Y22.870 E0.03363
G1 X-0.187 Y22.664 E0.03385
G1 X-0.517 Y22.388 E0.03319
G1 X-0.756 Y22.094 E0.02913
G1 X-0.961 Y21.709 E0.03365
G1 X-1.081 Y21.289 E0.03363
G1 X-1.113 Y20.919 E0.02868
G1 X-1.069 Y20.493 E0.03296
G1 X-0.960 Y20.132 E0.02911
G1 X-0.759 Y19.754 E0.03298
G1 X-0.577 Y19.529 E0.02230
G1 X-0.638 Y19.094 F15000.000
G1 X-12.366 Y24.794 F15000.000
G1 X-12.226 Y24.654 E0.01522 F720.000
G1 X-12.226 Y23.807 E0.06527
G1 X-7.726 Y23.807 E0.34679
G1 X-7.726 Y18.036 E0.44476
G1 X-12.226 Y18.036 E0.34679
G1 X-12.226 Y17.189 E0.06527
G1 X-12.726 Y16.689 E0.05449
G1 X-12.726 Y12.804 E0.29939
G1 X-12.444 Y12.728 E0.02255
G1 X-12.167 Y13.208 E0.04268
G1 X-11.965 Y13.486 E0.02648
G1 X-11.674 Y13.753 E0.03043
G1 X-11.334 Y13.954 E0.03044
G1 X-10.968 Y14.079 E0.02978
G1 X-10.626 Y14.128 E0.02666
G1 X-10.248 Y14.111 E0.02912
G1 X-9.920 Y14.033 E0.02601
G1 X-9.641 Y13.914 E0.02339
G1 X-1.090 Y8.978 E0.76089
G1 X-0.334 Y8.575 E0.06602
G1 X-0.014 Y8.425 E0.02723
G1 X-0.014 Y11.813 E0.26113
G1 X3.872 Y14.057 E0.34577 F720.000
G1 X7.757 Y11.813 E0.34577
G1 X7.757 Y11.464 E0.02694
G1 X8.285 Y11.905 E0.05297
G1 X8.718 Y12.219 E0.04125
G1 X9.158 Y12.494 E0.04002
G1 X11.668 Y13.941 E0.22328
G1 X12.022 Y14.072 E0.02908
G1 X12.413 Y14.130 E0.03043
G1 X12.806 Y14.107 E0.03038
G1 X13.180 Y14.007 E0.02983
G1 X13.484 Y13.861 E0.02601
G1 X13.752 Y13.669 E0.02535
G1 X13.983 Y13.436 E0.02535
G1 X14.147 Y13.201 E0.02207
G1 X14.420 Y12.728 E0.04203
G1 X14.702 Y12.804 E0.02255
G1 X14.702 Y16.689 E0.29939
G1 X14.202 Y17.189 E0.05449
G1 X14.202 Y18.036 E0.06527
G1 X9.702 Y18.036 E0.34680
G1 X9.702 Y23.807 E0.44476
G1 X14.202 Y23.807 E0.34680
G1 X14.202 Y24.654 E0.06527
G1 X14.632 Y25.083 E0.04680
G1 X14.550 Y25.394 E0.02475
G1 X14.338 Y25.906 E0.04271
G1 X14.175 Y26.184 E0.02481
G1 X13.980 Y26.450 E0.02541
G1 X13.760 Y26.694 E0.02535
G1 X13.516 Y26.914 E0.02535
G1 X13.250 Y27.108 E0.02535
G1 X12.966 Y27.274 E0.02535
G1 X12.667 Y27.411 E0.02535
G1 X12.363 Y27.513 E0.02472
G1 X11.921 Y27.605 E0.03478
G1 X11.589 Y27.633 E0.02568
G1 X-9.478 Y27.636 E1.62350
G1 X-9.961 Y27.603 E0.03738
G1 X-10.468 Y27.489 E0.03998
G1 X-10.907 Y27.316 E0.03638
G1 X-11.079 Y27.227 E0.01496
G1 X-11.365 Y27.047 E0.02600
G1 X-11.630 Y26.838 E0.02600
G1 X-12.010 Y26.443 E0.04223
G1 X-12.309 Y26.003 E0.04101
G1 X-12.411 Y25.808 E0.01695
G1 X-12.539 Y25.498 E0.02589
G1 X-12.661 Y25.089 E0.03288
G1 X-12.408 Y24.836 E0.02758
G1 E-3.50000 F1500.00000
G1 Z0.700 F15000.000
G1 X-18.369 Y-10.896 F15000.000
G1 Z0.300 F15000.000
G1 E3.50000 F1500.00000
G1 X-18.930 Y-10.837 E0.04349 F600.000
G1 X-19.492 Y-10.896 E0.04353
G1 X-19.969 Y-11.043 E0.03841
G1 X-20.464 Y-11.306 E0.04321
G1 X-20.902 Y-11.674 E0.04413
G1 X-21.250 Y-12.119 E0.04349
G1 X-21.470 Y-12.552 E0.03747
G1 X-21.613 Y-13.017 E0.03747
G1 X-21.672 Y-13.578 E0.04349
G1 X-21.613 Y-14.140 E0.04349
G1 X-21.468 Y-14.612 E0.03809
G1 X-21.211 Y-15.098 E0.04234
G1 X-20.902 Y-15.481 E0.03792
G1 X-20.534 Y-15.800 E0.03754
G1 X-20.045 Y-16.083 E0.04349
G1 X-19.501 Y-16.259 E0.04411
G1 X-18.946 Y-16.318 E0.04301 F600.000
G1 X-18.487 Y-16.279 E0.03551
G1 X-18.206 Y-16.223 E0.02211
G1 X-17.884 Y-16.108 E0.02634
G1 X-17.465 Y-15.894 E0.03622
G1 X-17.026 Y-15.550 E0.04296
G1 X-16.668 Y-15.124 E0.04296
G1 X-16.424 Y-14.686 E0.03859
G1 X-16.249 Y-14.148 E0.04356
G1 X-16.189 Y-13.578 E0.04416
G1 X-16.249 Y-13.009 E0.04416
G1 X-16.426 Y-12.464 E0.04416
G1 X-16.709 Y-11.975 E0.04349
G1 X-17.028 Y-11.608 E0.03747
G1 X-17.405 Y-11.302 E0.03747
G1 X-17.896 Y-11.041 E0.04282
G1 X-18.312 Y-10.914 E0.03351
G1 X-18.497 Y-11.522 F15000.000
G1 X-18.930 Y-11.477 E0.03363 F600.000
G1 X-19.365 Y-11.522 E0.03364
G1 X-19.724 Y-11.632 E0.02896
G1 X-20.106 Y-11.836 E0.03337
G1 X-20.442 Y-12.118 E0.03385
G1 X-20.711 Y-12.462 E0.03363
G1 X-20.879 Y-12.791 E0.02847
G1 X-20.987 Y-13.145 E0.02847
G1 X-21.032 Y-13.578 E0.03363
G1 X-20.987 Y-14.012 E0.03363
G1 X-20.878 Y-14.368 E0.02869
G1 X-20.678 Y-14.746 E0.03296
G1 X-20.442 Y-15.038 E0.02889
G1 X-20.163 Y-15.281 E0.02849
G1 X-19.785 Y-15.499 E0.03363
G1 X-19.368 Y-15.634 E0.03385
G1 X-18.939 Y-15.680 E0.03319 F600.000
G1 X-18.577 Y-15.649 E0.02803
G1 X-18.376 Y-15.608 E0.01582
G1 X-18.136 Y-15.523 E0.01960
G1 X-17.809 Y-15.356 E0.02830
G1 X-17.470 Y-15.090 E0.03317
G1 X-17.193 Y-14.761 E0.03318
G1 X-17.009 Y-14.431 E0.02913
G1 X-16.874 Y-14.015 E0.03365
G1 X-16.829 Y-13.578 E0.03386
G1 X-16.874 Y-13.141 E0.03386
G1 X-17.010 Y-12.724 E0.03387
G1 X-17.228 Y-12.346 E0.03363
G1 X-17.471 Y-12.067 E0.02847
G1 X-17.758 Y-11.834 E0.02847
G1 X-18.140 Y-11.631 E0.03339
G1 X-18.439 Y-11.540 E0.02408
G1 X-18.636 Y-11.147 F15000.000
G1 X-31.383 Y-9.383 F15000.000
G1 X-32.308 Y-12.836 E0.27556 F720.000
G1 X-24.977 Y-25.535 E1.13000
G1 X-17.576 Y-27.518 E0.59044
G1 X-17.116 Y-27.608 E0.03617
G1 X-16.679 Y-27.634 E0.03372
G1 X-16.238 Y-27.599 E0.03406
G1 X-15.926 Y-27.537 E0.02455 F720.000
G1 X-15.712 Y-27.472 E0.01724
G1 X-15.556 Y-26.889 E0.04650
G1 X-14.822 Y-26.465 E0.06527
G1 X-17.072 Y-22.568 E0.34679
G1 X-12.074 Y-19.683 E0.44476
G1 X-9.824 Y-23.580 E0.34679
G1 X-9.091 Y-23.156 E0.06527
G1 X-8.408 Y-23.339 E0.05449
G1 X-7.488 Y-22.808 E0.08189
G1 X-7.569 Y-22.522 E0.02292
G1 X-8.350 Y-22.546 E0.06021
G1 X-8.350 Y-8.841 E1.05621
G1 X-11.703 Y-9.739 E0.26750
G1 X-14.875 Y-6.567 E0.34577
G1 X-13.930 Y-3.037 E0.28161
G1 X-14.526 Y-2.843 E0.04835
G1 X-15.020 Y-2.644 E0.04106
G1 X-15.501 Y-2.410 E0.04116
G1 X-18.185 Y-0.865 E0.23869
G1 X-18.476 Y-0.637 E0.02849
G1 X-18.736 Y-0.328 E0.03111
G1 X-18.925 Y0.029 E0.03111
G1 X-19.034 Y0.408 E0.03044
G1 X-19.064 Y0.752 E0.02659
G1 X-19.035 Y1.087 E0.02592
G1 X-18.948 Y1.412 E0.02591
G1 X-18.824 Y1.677 E0.02256
G1 X-18.551 Y2.150 E0.04210
G1 X-18.758 Y2.357 E0.02255
G1 X-22.122 Y0.415 E0.29939
G1 X-22.305 Y-0.268 E0.05449
G1 X-23.039 Y-0.692 E0.06527
G1 X-20.789 Y-4.589 E0.34679
G1 X-25.787 Y-7.474 E0.44476
G1 X-28.037 Y-3.577 E0.34679
G1 X-28.770 Y-4.001 E0.06527
G1 X-29.350 Y-3.845 E0.04626
G1 X-29.597 Y-4.083 E0.02640
G1 X-29.793 Y-4.323 E0.02390
G1 X-30.032 Y-4.697 E0.03421
G1 X-30.217 Y-5.100 E0.03419
G1 X-30.323 Y-5.428 E0.02653
G1 X-31.367 Y-9.325 E0.31090
G1 E-3.50000 F1500.00000
G1 Z0.700 F15000.000
G1 X18.166 Y-13.586 F15000.000
G1 Z0.300 F15000.000
G1 E3.50000 F1500.00000
G1 X18.225 Y-14.140 E0.04289 F600.000
G1 X18.369 Y-14.613 E0.03814
G1 X18.630 Y-15.104 E0.04282
G1 X18.942 Y-15.488 E0.03814
G1 X19.368 Y-15.846 E0.04285
G1 X19.803 Y-16.087 E0.03836
G1 X20.337 Y-16.259 E0.04321
G1 X20.891 Y-16.318 E0.04299 F600.000
G1 X21.390 Y-16.276 E0.03859
G1 X21.925 Y-16.122 E0.04289
G1 X22.366 Y-15.898 E0.03814
G1 X22.811 Y-15.550 E0.04349
G1 X23.179 Y-15.111 E0.04416
G1 X23.448 Y-14.606 E0.04411
G1 X23.602 Y-14.070 E0.04302
G1 X23.646 Y-13.579 E0.03792
G1 X23.604 Y-13.094 E0.03753
G1 X23.448 Y-12.552 E0.04349
G1 X23.179 Y-12.046 E0.04411
G1 X22.821 Y-11.618 E0.04301
G1 X22.433 Y-11.302 E0.03860
G1 X21.934 Y-11.037 E0.04353
G1 X21.398 Y-10.883 E0.04300
G1 X20.899 Y-10.838 E0.03859
G1 X20.345 Y-10.896 E0.04289
G1 X19.872 Y-11.041 E0.03814
G1 X19.374 Y-11.306 E0.04349
G1 X18.942 Y-11.669 E0.04349
G1 X18.630 Y-12.053 E0.03814
G1 X18.366 Y-12.551 E0.04344
G1 X18.211 Y-13.087 E0.04302
G1 X18.172 Y-13.526 E0.03397
G1 X18.805 Y-13.581 F15000.000
G1 X18.850 Y-14.012 E0.03341 F600.000
G1 X18.959 Y-14.369 E0.02870
G1 X19.163 Y-14.751 E0.03339
G1 X19.397 Y-15.041 E0.02870
G1 X19.729 Y-15.319 E0.03340
G1 X20.057 Y-15.501 E0.02891
G1 X20.470 Y-15.634 E0.03340
G1 X20.898 Y-15.680 E0.03318 F600.000
G1 X21.274 Y-15.648 E0.02913
G1 X21.691 Y-15.528 E0.03341
G1 X22.023 Y-15.359 E0.02870
G1 X22.367 Y-15.090 E0.03363
G1 X22.649 Y-14.754 E0.03386
G1 X22.855 Y-14.366 E0.03385
G1 X22.975 Y-13.952 E0.03320
G1 X23.008 Y-13.579 E0.02889
G1 X22.976 Y-13.211 E0.02849
G1 X22.856 Y-12.791 E0.03363
G1 X22.649 Y-12.403 E0.03385
G1 X22.373 Y-12.073 E0.03319
G1 X22.080 Y-11.835 E0.02913
G1 X21.694 Y-11.630 E0.03365
G1 X21.280 Y-11.510 E0.03318
G1 X20.904 Y-11.477 E0.02913
G1 X20.473 Y-11.522 E0.03341
G1 X20.117 Y-11.631 E0.02870
G1 X19.731 Y-11.836 E0.03363
G1 X19.397 Y-12.116 E0.03363
G1 X19.163 Y-12.406 E0.02870
G1 X18.958 Y-12.791 E0.03361
G1 X18.839 Y-13.205 E0.03319
G1 X18.810 Y-13.521 E0.02450
G1 X18.467 Y-13.795 F15000.000
G1 E-3.50000 F1500.00000
G1 Z0.700 F15000.000
G1 X16.799 Y-26.465 F15000.000
G1 Z0.300 F15000.000
G1 E3.50000 F1500.00000
G1 X17.532 Y-26.889 E0.06527 F720.000
G1 X17.689 Y-27.475 E0.04680
G1 X17.995 Y-27.559 E0.02448
G1 X18.359 Y-27.617 E0.02833
G1 X18.776 Y-27.634 E0.03219
G1 X18.972 Y-27.623 E0.01515
G1 X19.314 Y-27.574 E0.02665 F720.000
G1 X19.778 Y-27.443 E0.03714
G1 X20.249 Y-27.230 E0.03981
G1 X20.682 Y-26.941 E0.04016
G1 X20.988 Y-26.664 E0.03176
G1 X21.233 Y-26.383 E0.02875
G1 X22.037 Y-25.156 E0.11303
G1 X22.463 Y-24.609 E0.05344
G1 X22.925 Y-24.092 E0.05344
G1 X23.422 Y-23.608 E0.05344
G1 X23.951 Y-23.160 E0.05344
G1 X24.509 Y-22.749 E0.05344
G1 X25.095 Y-22.378 E0.05344
G1 X25.705 Y-22.047 E0.05344
G1 X26.336 Y-21.760 E0.05344
G1 X26.985 Y-21.516 E0.05344
G1 X27.649 Y-21.318 E0.05344
G1 X28.326 Y-21.165 E0.05344
G1 X28.694 Y-21.109 E0.02870
G1 X28.239 Y-20.548 E0.05565
G1 X27.988 Y-20.076 E0.04121
G1 X27.849 Y-19.619 E0.03680
G1 X27.792 Y-19.078 E0.04188
G1 X27.850 Y-18.529 E0.04255
G1 X28.018 Y-18.012 E0.04192
G1 X28.251 Y-17.592 E0.03705
G1 X28.593 Y-17.185 E0.04098
G1 X28.967 Y-16.883 E0.03702
