; generated by Slic3r 1.2.9 on 2018-04-24 at 11:47:09

; external perimeters extrusion width = 0.40mm
; perimeters extrusion width = 0.40mm
; infill extrusion width = 0.40mm
; solid infill extrusion width = 0.40mm
; top infill extrusion width = 0.40mm

M107
M83
T0
M116
G21 ; set units to millimeters
G90 ; use absolute coordinates
M83 ; use relative distances for extrusion
G1 E-3.50000 F1500.00000
G1 Z0.400 F15000.000
G1 X25.436 Y0.000 F15000.000
G1 Z0.300 F15000.000
G1 E3.50000 F1500.00000
G1 X25.434 Y16.615 E1.28047 F960.000
G1 X25.413 Y17.237 E0.04796
G1 X25.334 Y18.098 E0.06661
G1 X25.199 Y18.952 E0.06661
G1 X25.006 Y19.794 E0.06661
G1 X24.678 Y20.852 E0.08533
G1 X24.455 Y21.432 E0.04790
G1 X24.098 Y22.219 E0.06661
G1 X23.690 Y22.981 E0.06662
G1 X23.402 Y23.448 E0.04228
G1 X23.094 Y23.915 E0.04306
G1 X22.575 Y24.606 E0.06661
G1 X22.174 Y25.080 E0.04790
G1 X21.579 Y25.707 E0.06661
G1 X20.943 Y26.293 E0.06661
G1 X20.270 Y26.835 E0.06661
G1 X19.562 Y27.331 E0.06662
G1 X19.094 Y27.617 E0.04228
G1 X18.609 Y27.895 E0.04305
G1 X17.834 Y28.278 E0.06662
G1 X17.262 Y28.520 E0.04790
G1 X16.448 Y28.812 E0.06661
G1 X15.380 Y29.104 E0.08532
G1 X14.771 Y29.228 E0.04790
G1 X13.915 Y29.351 E0.06662
G1 X12.811 Y29.425 E0.08532
G1 X-12.811 Y29.425 E1.97454
G1 X-13.674 Y29.375 E0.06661
G1 X-14.531 Y29.268 E0.06661
G1 X-15.380 Y29.104 E0.06662
G1 X-16.216 Y28.884 E0.06661
G1 X-17.035 Y28.608 E0.06662
G1 X-17.543 Y28.401 E0.04228
G1 X-18.054 Y28.175 E0.04306
G1 X-18.822 Y27.778 E0.06661
G1 X-19.562 Y27.331 E0.06661
G1 X-20.270 Y26.835 E0.06662
G1 X-20.943 Y26.293 E0.06661
G1 X-21.579 Y25.707 E0.06661
G1 X-22.174 Y25.080 E0.06661
G1 X-22.726 Y24.415 E0.06661
G1 X-23.094 Y23.915 E0.04790
G1 X-23.566 Y23.190 E0.06662
G1 X-23.989 Y22.436 E0.06661
G1 X-24.360 Y21.656 E0.06661
G1 X-24.758 Y20.622 E0.08533
G1 X-25.006 Y19.795 E0.06661
G1 X-25.150 Y19.190 E0.04790
G1 X-25.334 Y18.098 E0.08533
G1 X-25.413 Y17.237 E0.06661
G1 X-25.434 Y16.615 E0.04796
G1 X-25.434 Y-16.615 E2.56094
G1 X-25.397 Y-17.480 E0.06668
G1 X-25.302 Y-18.339 E0.06661
G1 X-25.150 Y-19.190 E0.06662
G1 X-25.006 Y-19.795 E0.04790
G1 X-24.758 Y-20.622 E0.06661
G1 X-24.455 Y-21.432 E0.06661
G1 X-23.989 Y-22.436 E0.08533
G1 X-23.566 Y-23.190 E0.06661
G1 X-23.094 Y-23.915 E0.06661
G1 X-22.726 Y-24.415 E0.04790
G1 X-22.174 Y-25.080 E0.06662
G1 X-21.404 Y-25.876 E0.08532
G1 X-20.943 Y-26.293 E0.04790
G1 X-20.270 Y-26.835 E0.06661
G1 X-19.357 Y-27.462 E0.08533
G1 X-18.822 Y-27.778 E0.04790
G1 X-18.054 Y-28.175 E0.06661
G1 X-17.035 Y-28.608 E0.08533
G1 X-16.448 Y-28.812 E0.04790
G1 X-15.616 Y-29.048 E0.06661
G1 X-14.531 Y-29.268 E0.08533
G1 X-13.674 Y-29.375 E0.06662
G1 X-12.811 Y-29.425 E0.06661
G1 X13.054 Y-29.417 E1.99325
G1 X13.915 Y-29.351 E0.06661 F960.000
G1 X14.771 Y-29.228 E0.06661
G1 X15.616 Y-29.048 E0.06661
G1 X16.448 Y-28.812 E0.06661
G1 X17.262 Y-28.520 E0.06661
G1 X18.054 Y-28.175 E0.06661
G1 X18.609 Y-27.895 E0.04790
G1 X19.357 Y-27.462 E0.06661
G1 X20.074 Y-26.979 E0.06661
G1 X20.757 Y-26.450 E0.06661
G1 X21.404 Y-25.876 E0.06661
G1 X22.011 Y-25.260 E0.06662
G1 X22.575 Y-24.606 E0.06661
G1 X23.094 Y-23.915 E0.06662
G1 X23.566 Y-23.190 E0.06661
G1 X23.989 Y-22.436 E0.06661
G1 X24.455 Y-21.432 E0.08533
G1 X24.678 Y-20.852 E0.04790
G1 X24.942 Y-20.029 E0.06661
G1 X25.150 Y-19.190 E0.06662
G1 X25.302 Y-18.339 E0.06661
G1 X25.413 Y-17.237 E0.08533
G1 X25.436 Y-16.494 E0.05732
G1 X25.436 Y-0.060 E1.26648
G1 E-3.50000 F1500.00000
G1 Z0.700 F15000.000
G1 X-20.814 Y-15.807 F15000.000
G1 Z0.300 F15000.000
G1 E3.50000 F1500.00000
G1 X-20.795 Y-17.050 E0.09577 F720.000
G1 X-20.740 Y-17.603 E0.04282
G1 X-20.647 Y-18.151 E0.04282
G1 X-20.518 Y-18.691 E0.04282
G1 X-20.354 Y-19.222 E0.04282
G1 X-20.154 Y-19.740 E0.04282
G1 X-19.920 Y-20.244 E0.04282
G1 X-19.653 Y-20.732 E0.04282
G1 X-19.354 Y-21.200 E0.04282
G1 X-19.025 Y-21.647 E0.04282
G1 X-18.666 Y-22.071 E0.04282
G1 X-18.280 Y-22.471 E0.04282
G1 X-17.868 Y-22.844 E0.04282
G1 X-17.432 Y-23.188 E0.04282
G1 X-16.974 Y-23.502 E0.04282
G1 X-16.495 Y-23.785 E0.04282
G1 X-16.000 Y-24.036 E0.04282
G1 X-15.488 Y-24.253 E0.04282
G1 X-14.963 Y-24.435 E0.04282
G1 X-14.427 Y-24.582 E0.04282
G1 X-13.883 Y-24.693 E0.04282
G1 X-13.332 Y-24.767 E0.04282
G1 X-12.778 Y-24.804 E0.04282
G1 X-11.950 Y-24.786 E0.06381
G1 X-11.668 Y-24.767 E0.02180 F720.000
G1 X-11.117 Y-24.693 E0.04282
G1 X-10.573 Y-24.582 E0.04282
G1 X-10.037 Y-24.435 E0.04282
G1 X-9.512 Y-24.253 E0.04282
G1 X-9.000 Y-24.036 E0.04282
G1 X-8.505 Y-23.785 E0.04282
G1 X-8.026 Y-23.502 E0.04282
G1 X-7.568 Y-23.188 E0.04282
G1 X-7.132 Y-22.844 E0.04282
G1 X-6.720 Y-22.471 E0.04282
G1 X-6.334 Y-22.071 E0.04282
G1 X-5.975 Y-21.647 E0.04282
G1 X-5.646 Y-21.200 E0.04282
G1 X-5.347 Y-20.732 E0.04282
G1 X-5.080 Y-20.244 E0.04282
G1 X-4.846 Y-19.740 E0.04282
G1 X-4.646 Y-19.222 E0.04282
G1 X-4.482 Y-18.691 E0.04282
G1 X-4.353 Y-18.151 E0.04282
G1 X-4.260 Y-17.603 E0.04282
G1 X-4.205 Y-17.050 E0.04282
G1 X-4.186 Y-16.477 E0.04415
G1 X-4.186 Y-12.512 E0.30559
G1 X-4.205 Y-11.939 E0.04415
G1 X-4.260 Y-11.387 E0.04282
G1 X-4.353 Y-10.839 E0.04282
G1 X-4.482 Y-10.298 E0.04282
G1 X-4.646 Y-9.768 E0.04282
G1 X-4.846 Y-9.249 E0.04282
G1 X-5.080 Y-8.745 E0.04282
G1 X-5.347 Y-8.258 E0.04282
G1 X-5.646 Y-7.790 E0.04282
G1 X-5.975 Y-7.342 E0.04282
G1 X-6.334 Y-6.918 E0.04282
G1 X-6.720 Y-6.519 E0.04282
G1 X-7.132 Y-6.146 E0.04282
G1 X-7.568 Y-5.802 E0.04282
G1 X-8.261 Y-5.348 E0.06381
G1 X-8.505 Y-5.204 E0.02180
G1 X-9.000 Y-4.953 E0.04282
G1 X-9.512 Y-4.736 E0.04282
G1 X-10.037 Y-4.554 E0.04282
G1 X-10.573 Y-4.407 E0.04282
G1 X-11.117 Y-4.297 E0.04282
G1 X-11.668 Y-4.223 E0.04282
G1 X-12.222 Y-4.186 E0.04282
G1 X-12.778 Y-4.186 E0.04282
G1 X-13.332 Y-4.223 E0.04282
G1 X-13.883 Y-4.297 E0.04282
G1 X-14.427 Y-4.407 E0.04282
G1 X-14.963 Y-4.554 E0.04282
G1 X-15.739 Y-4.843 E0.06381
G1 X-16.000 Y-4.953 E0.02180
G1 X-16.495 Y-5.204 E0.04282
G1 X-16.974 Y-5.487 E0.04282
G1 X-17.432 Y-5.802 E0.04282
G1 X-18.070 Y-6.329 E0.06381
G1 X-18.280 Y-6.519 E0.02180
G1 X-18.666 Y-6.918 E0.04282
G1 X-19.025 Y-7.342 E0.04282
G1 X-19.354 Y-7.790 E0.04282
G1 X-19.784 Y-8.497 E0.06381
G1 X-19.920 Y-8.745 E0.02180
G1 X-20.154 Y-9.249 E0.04282
G1 X-20.354 Y-9.768 E0.04282
G1 X-20.518 Y-10.298 E0.04282
G1 X-20.647 Y-10.839 E0.04282
G1 X-20.740 Y-11.387 E0.04282
G1 X-20.795 Y-11.939 E0.04282
G1 X-20.814 Y-12.512 E0.04415
G1 X-20.814 Y-15.747 E0.24934
G1 X-21.450 Y-15.747 F15000.000
G1 X-21.430 Y-17.092 E0.10367 F720.000
G1 X-21.370 Y-17.688 E0.04609
G1 X-21.270 Y-18.277 E0.04609
G1 X-21.132 Y-18.859 E0.04609
G1 X-20.955 Y-19.430 E0.04609
G1 X-20.740 Y-19.989 E0.04609
G1 X-20.488 Y-20.531 E0.04609
G1 X-20.200 Y-21.056 E0.04609
G1 X-20.042 Y-21.304 E0.02266
G1 X-19.879 Y-21.560 E0.02343
G1 X-19.524 Y-22.041 E0.04609
G1 X-19.138 Y-22.498 E0.04609
G1 X-18.722 Y-22.928 E0.04609
G1 X-18.278 Y-23.329 E0.04609
G1 X-17.809 Y-23.700 E0.04609
G1 X-17.316 Y-24.038 E0.04609
G1 X-16.801 Y-24.343 E0.04609
G1 X-16.267 Y-24.613 E0.04609
G1 X-15.717 Y-24.846 E0.04609
G1 X-15.152 Y-25.043 E0.04609
G1 X-14.575 Y-25.201 E0.04609
G1 X-13.989 Y-25.320 E0.04609
G1 X-13.396 Y-25.400 E0.04609
G1 X-12.799 Y-25.439 E0.04609
G1 X-12.201 Y-25.439 E0.04609
G1 X-11.908 Y-25.420 E0.02266
G1 X-11.604 Y-25.400 E0.02343 F720.000
G1 X-11.011 Y-25.320 E0.04609
G1 X-10.425 Y-25.201 E0.04609
G1 X-9.848 Y-25.043 E0.04609
G1 X-9.283 Y-24.846 E0.04609
G1 X-8.733 Y-24.613 E0.04609
G1 X-8.199 Y-24.343 E0.04609
G1 X-7.684 Y-24.038 E0.04609
G1 X-7.191 Y-23.700 E0.04609
G1 X-6.722 Y-23.329 E0.04609
G1 X-6.278 Y-22.928 E0.04609
G1 X-5.862 Y-22.498 E0.04609
G1 X-5.476 Y-22.041 E0.04609
G1 X-5.121 Y-21.560 E0.04609
G1 X-4.800 Y-21.056 E0.04609
G1 X-4.512 Y-20.531 E0.04609
G1 X-4.260 Y-19.989 E0.04609
G1 X-4.045 Y-19.430 E0.04609
G1 X-3.868 Y-18.859 E0.04609
G1 X-3.730 Y-18.277 E0.04609
G1 X-3.630 Y-17.688 E0.04609
G1 X-3.570 Y-17.092 E0.04609
G1 X-3.550 Y-16.488 E0.04661
G1 X-3.550 Y-12.501 E0.30723
G1 X-3.570 Y-11.897 E0.04661
G1 X-3.630 Y-11.302 E0.04609
G1 X-3.730 Y-10.712 E0.04609
G1 X-3.868 Y-10.130 E0.04609
G1 X-4.045 Y-9.559 E0.04609
G1 X-4.260 Y-9.001 E0.04609
G1 X-4.512 Y-8.458 E0.04609
G1 X-4.800 Y-7.934 E0.04609
G1 X-5.121 Y-7.430 E0.04609
G1 X-5.476 Y-6.948 E0.04609
G1 X-5.862 Y-6.491 E0.04609
G1 X-6.278 Y-6.061 E0.04609
G1 X-6.722 Y-5.660 E0.04609
G1 X-7.191 Y-5.289 E0.04609
G1 X-7.684 Y-4.951 E0.04609
G1 X-8.199 Y-4.646 E0.04609
G1 X-8.733 Y-4.376 E0.04609
G1 X-9.283 Y-4.143 E0.04609
G1 X-9.848 Y-3.947 E0.04609
G1 X-10.425 Y-3.789 E0.04609
G1 X-11.011 Y-3.670 E0.04609
G1 X-11.604 Y-3.590 E0.04609
G1 X-12.201 Y-3.550 E0.04609
G1 X-12.799 Y-3.550 E0.04609
G1 X-13.396 Y-3.590 E0.04609
G1 X-13.989 Y-3.670 E0.04609
G1 X-14.575 Y-3.789 E0.04609
G1 X-15.152 Y-3.947 E0.04609
G1 X-15.717 Y-4.143 E0.04609
G1 X-15.987 Y-4.258 E0.02266
G1 X-16.267 Y-4.376 E0.02343
G1 X-16.801 Y-4.646 E0.04609
G1 X-17.316 Y-4.951 E0.04609
G1 X-17.809 Y-5.289 E0.04609
G1 X-18.278 Y-5.660 E0.04609
G1 X-18.496 Y-5.857 E0.02266
G1 X-18.722 Y-6.061 E0.02343
G1 X-19.138 Y-6.491 E0.04609
G1 X-19.524 Y-6.948 E0.04609
G1 X-19.879 Y-7.430 E0.04609
G1 X-20.200 Y-7.934 E0.04609
G1 X-20.342 Y-8.192 E0.02266
G1 X-20.488 Y-8.458 E0.02343
G1 X-20.740 Y-9.001 E0.04609
G1 X-20.955 Y-9.559 E0.04609
G1 X-21.132 Y-10.130 E0.04609
G1 X-21.270 Y-10.712 E0.04609
G1 X-21.370 Y-11.302 E0.04609
G1 X-21.430 Y-11.897 E0.04609
G1 X-21.450 Y-12.501 E0.04661
G1 X-21.450 Y-15.687 E0.24554
G1 X-21.102 Y-15.944 F15000.000
G1 X-18.502 Y-7.505 F15000.000
G1 X-17.487 Y-6.490 E0.11420 F960.000
G1 X-15.171 Y-5.102 F15000.000
G1 X-19.906 Y-9.837 E0.53278 F960.000
G1 X-20.283 Y-11.142 E0.10805
G1 X-13.856 Y-4.715 E0.72315
G1 X-12.795 Y-4.582 E0.08501
G1 X-20.414 Y-12.201 E0.85717
G1 X-20.429 Y-13.144 E0.07505
G1 X-11.872 Y-4.587 E0.96280
G1 X-11.038 Y-4.681 E0.06671
G1 X-20.429 Y-14.072 E1.05654
G1 X-20.429 Y-15.000 E0.07383
G1 X-10.283 Y-4.854 E1.14149
G1 X-9.582 Y-5.081 E0.05863
G1 X-20.429 Y-15.928 E1.22038
G1 X-20.421 Y-16.848 E0.07318
G1 X-8.938 Y-5.365 E1.29195
G1 X-8.338 Y-5.693 E0.05440
G1 X-20.352 Y-17.707 E1.35173
G1 X-20.200 Y-18.483 E0.06291
G1 X-7.778 Y-6.061 E1.39760
G1 X-7.262 Y-6.473 E0.05253
G1 X-19.991 Y-19.202 E1.43210
G1 X-19.722 Y-19.861 E0.05663
G1 X-6.797 Y-6.936 E1.45416
G1 X-6.347 Y-7.414 E0.05223
G1 X-19.402 Y-20.469 E1.46886
G1 X-19.054 Y-21.048 E0.05379
G1 X-5.946 Y-7.941 E1.47474
G1 X-5.591 Y-8.514 E0.05362
G1 X-18.653 Y-21.575 E1.46959
G1 X-18.203 Y-22.053 E0.05223
G1 X-5.278 Y-9.129 E1.45416
G1 X-5.009 Y-9.788 E0.05663
G1 X-17.738 Y-22.516 E1.43210
G1 X-17.222 Y-22.928 E0.05253
G1 X-4.800 Y-10.506 E1.39760
G1 X-4.648 Y-11.282 E0.06291
G1 X-16.662 Y-23.297 E1.35173
G1 X-16.062 Y-23.625 E0.05440
G1 X-4.579 Y-12.142 E1.29195
G1 X-4.571 Y-13.061 E0.07318
G1 X-15.418 Y-23.908 E1.22038
G1 X-14.717 Y-24.135 E0.05863
G1 X-4.571 Y-13.989 E1.14150
G1 X-4.571 Y-14.917 E0.07383
G1 X-13.962 Y-24.308 E1.05654
G1 X-13.128 Y-24.403 E0.06671
G1 X-4.571 Y-15.845 E0.96281
G1 X-4.586 Y-16.789 E0.07505
G1 X-12.200 Y-24.403 E0.85667
G1 X-11.145 Y-24.275 E0.08461
G1 X-4.717 Y-17.847 E0.72315
G1 X-5.094 Y-19.152 E0.10805
G1 X-9.849 Y-23.907 E0.53500
G1 X-7.513 Y-22.499 F15000.000
G1 X-6.498 Y-21.484 E0.11424 F960.000
G1 E-3.50000 F1500.00000
G1 Z0.700 F15000.000
G1 X8.716 Y-5.097 F15000.000
G1 Z0.300 F15000.000
G1 E3.50000 F1500.00000
G1 X8.026 Y-5.487 E0.06109 F720.000
G1 X7.568 Y-5.802 E0.04282
G1 X6.930 Y-6.329 E0.06381
G1 X6.720 Y-6.519 E0.02180
G1 X6.334 Y-6.918 E0.04282
G1 X5.975 Y-7.342 E0.04282
G1 X5.646 Y-7.790 E0.04282
G1 X5.347 Y-8.258 E0.04282
G1 X5.080 Y-8.745 E0.04282
G1 X4.846 Y-9.249 E0.04282
G1 X4.646 Y-9.768 E0.04282
G1 X4.482 Y-10.298 E0.04282
G1 X4.353 Y-10.839 E0.04282
G1 X4.260 Y-11.387 E0.04282
G1 X4.205 Y-11.939 E0.04282
G1 X4.186 Y-12.512 E0.04415
G1 X4.186 Y-16.477 E0.30559
G1 X4.205 Y-17.050 E0.04415
G1 X4.260 Y-17.603 E0.04282
G1 X4.353 Y-18.151 E0.04282
G1 X4.482 Y-18.691 E0.04282
G1 X4.646 Y-19.222 E0.04282
G1 X4.846 Y-19.740 E0.04282
G1 X5.080 Y-20.244 E0.04282
G1 X5.347 Y-20.732 E0.04282
G1 X5.646 Y-21.200 E0.04282
G1 X5.975 Y-21.647 E0.04282
G1 X6.334 Y-22.071 E0.04282
G1 X6.720 Y-22.471 E0.04282
G1 X7.132 Y-22.844 E0.04282
G1 X7.568 Y-23.188 E0.04282
G1 X8.026 Y-23.502 E0.04282
G1 X8.505 Y-23.785 E0.04282
G1 X9.000 Y-24.036 E0.04282
G1 X9.512 Y-24.253 E0.04282
G1 X10.037 Y-24.435 E0.04282
G1 X10.573 Y-24.582 E0.04282
G1 X11.117 Y-24.693 E0.04282
G1 X11.668 Y-24.767 E0.04282
G1 X12.222 Y-24.804 E0.04282
G1 X13.050 Y-24.786 E0.06381
G1 X13.332 Y-24.767 E0.02180 F720.000
G1 X13.883 Y-24.693 E0.04282
G1 X14.427 Y-24.582 E0.04282
G1 X14.963 Y-24.435 E0.04282
G1 X15.488 Y-24.253 E0.04282
G1 X16.000 Y-24.036 E0.04282
G1 X16.495 Y-23.785 E0.04282
G1 X16.974 Y-23.502 E0.04282
G1 X17.432 Y-23.188 E0.04282
G1 X17.868 Y-22.844 E0.04282
G1 X18.280 Y-22.471 E0.04282
G1 X18.666 Y-22.071 E0.04282
G1 X19.025 Y-21.647 E0.04282
G1 X19.354 Y-21.200 E0.04282
G1 X19.653 Y-20.732 E0.04282
G1 X19.920 Y-20.244 E0.04282
G1 X20.154 Y-19.740 E0.04282
G1 X20.354 Y-19.222 E0.04282
G1 X20.518 Y-18.691 E0.04282
G1 X20.647 Y-18.151 E0.04282
G1 X20.740 Y-17.603 E0.04282
G1 X20.795 Y-17.050 E0.04282
G1 X20.814 Y-16.477 E0.04415
G1 X20.814 Y-12.512 E0.30559
G1 X20.795 Y-11.939 E0.04415
G1 X20.740 Y-11.387 E0.04282
G1 X20.647 Y-10.839 E0.04282
G1 X20.518 Y-10.298 E0.04282
G1 X20.354 Y-9.768 E0.04282
G1 X20.154 Y-9.249 E0.04282
G1 X19.920 Y-8.745 E0.04282
G1 X19.506 Y-8.028 E0.06381
G1 X19.354 Y-7.790 E0.02180
G1 X19.025 Y-7.342 E0.04282
G1 X18.666 Y-6.918 E0.04282
G1 X18.280 Y-6.519 E0.04282
G1 X17.868 Y-6.146 E0.04282
G1 X17.432 Y-5.802 E0.04282
G1 X16.739 Y-5.348 E0.06381
G1 X16.495 Y-5.204 E0.02180
G1 X16.000 Y-4.953 E0.04282
G1 X15.488 Y-4.736 E0.04282
G1 X14.963 Y-4.554 E0.04282
G1 X14.427 Y-4.407 E0.04282
G1 X13.883 Y-4.297 E0.04282
G1 X13.332 Y-4.223 E0.04282
G1 X12.778 Y-4.186 E0.04282
G1 X12.222 Y-4.186 E0.04282
G1 X11.668 Y-4.223 E0.04282
G1 X11.117 Y-4.297 E0.04282
G1 X10.573 Y-4.407 E0.04282
G1 X10.037 Y-4.554 E0.04282
G1 X9.512 Y-4.736 E0.04282
G1 X8.770 Y-5.070 E0.06268
G1 X8.483 Y-4.502 F15000.000
G1 X8.199 Y-4.646 E0.02456 F720.000
G1 X7.684 Y-4.951 E0.04609
G1 X7.191 Y-5.289 E0.04609
G1 X6.722 Y-5.660 E0.04609
G1 X6.504 Y-5.857 E0.02266
G1 X6.278 Y-6.061 E0.02343
G1 X5.862 Y-6.491 E0.04609
G1 X5.476 Y-6.948 E0.04609
G1 X5.121 Y-7.430 E0.04609
G1 X4.800 Y-7.934 E0.04609
G1 X4.512 Y-8.458 E0.04609
G1 X4.260 Y-9.001 E0.04609
G1 X4.045 Y-9.559 E0.04609
G1 X3.868 Y-10.130 E0.04609
G1 X3.730 Y-10.712 E0.04609
G1 X3.630 Y-11.302 E0.04609
G1 X3.570 Y-11.897 E0.04609
G1 X3.550 Y-12.501 E0.04661
G1 X3.550 Y-16.488 E0.30723
G1 X3.570 Y-17.092 E0.04661
G1 X3.630 Y-17.688 E0.04609
G1 X3.730 Y-18.277 E0.04609
G1 X3.868 Y-18.859 E0.04609
G1 X4.045 Y-19.430 E0.04609
G1 X4.260 Y-19.989 E0.04609
G1 X4.512 Y-20.531 E0.04609
G1 X4.800 Y-21.056 E0.04609
G1 X5.121 Y-21.560 E0.04609
G1 X5.476 Y-22.041 E0.04609
G1 X5.862 Y-22.498 E0.04609
G1 X6.278 Y-22.928 E0.04609
G1 X6.722 Y-23.329 E0.04609
G1 X7.191 Y-23.700 E0.04609
G1 X7.684 Y-24.038 E0.04609
G1 X8.199 Y-24.343 E0.04609
G1 X8.733 Y-24.613 E0.04609
G1 X9.283 Y-24.846 E0.04609
G1 X9.848 Y-25.043 E0.04609
G1 X10.425 Y-25.201 E0.04609
G1 X11.011 Y-25.320 E0.04609
G1 X11.604 Y-25.400 E0.04609
G1 X12.201 Y-25.439 E0.04609
G1 X12.799 Y-25.439 E0.04609
G1 X13.092 Y-25.420 E0.02266
G1 X13.396 Y-25.400 E0.02343 F720.000
G1 X13.989 Y-25.320 E0.04609
G1 X14.575 Y-25.201 E0.04609
G1 X15.152 Y-25.043 E0.04609
G1 X15.717 Y-24.846 E0.04609
G1 X16.267 Y-24.613 E0.04609
G1 X16.801 Y-24.343 E0.04609
G1 X17.316 Y-24.038 E0.04609
G1 X17.809 Y-23.700 E0.04609
G1 X18.278 Y-23.329 E0.04609
G1 X18.722 Y-22.928 E0.04609
G1 X19.138 Y-22.498 E0.04609
G1 X19.524 Y-22.041 E0.04609
G1 X19.879 Y-21.560 E0.04609
G1 X20.200 Y-21.056 E0.04609
G1 X20.488 Y-20.531 E0.04609
G1 X20.740 Y-19.989 E0.04609
G1 X20.955 Y-19.430 E0.04609
G1 X21.132 Y-18.859 E0.04609
G1 X21.270 Y-18.277 E0.04609
G1 X21.370 Y-17.688 E0.04609
G1 X21.430 Y-17.092 E0.04609
G1 X21.450 Y-16.488 E0.04661
G1 X21.450 Y-12.501 E0.30723
G1 X21.430 Y-11.897 E0.04661
G1 X21.370 Y-11.302 E0.04609
G1 X21.270 Y-10.712 E0.04609
